; G-Code generated by Simplify3D(R) Version 4.0.1
; Jun 16, 2023 at 2:33:57 PM
; Settings Summary
;   processName,Process1
;   applyToModels,Basket
;   profileName,F410_0.4C_PLA (modified)
;   profileVersion,2022-03-09 09:51:28
;   baseProfile,F400_PLA
;   printMaterial,
;   printQuality,Standard
;   printExtruders,
;   extruderName,Primary Extruder
;   extruderToolheadNumber,0
;   extruderDiameter,0.4
;   extruderAutoWidth,0
;   extruderWidth,0.45
;   extrusionMultiplier,1
;   extruderUseRetract,1
;   extruderRetractionDistance,4.25
;   extruderExtraRestartDistance,0.05
;   extruderRetractionZLift,0
;   extruderRetractionSpeed,24000
;   extruderUseCoasting,0
;   extruderCoastingDistance,0.5
;   extruderUseWipe,0
;   extruderWipeDistance,5
;   primaryExtruder,0
;   layerHeight,0.25
;   topSolidLayers,4
;   bottomSolidLayers,4
;   perimeterOutlines,3
;   printPerimetersInsideOut,0
;   startPointOption,3
;   startPointOriginX,0
;   startPointOriginY,360
;   sequentialIslands,0
;   spiralVaseMode,0
;   firstLayerHeightPercentage,100
;   firstLayerWidthPercentage,100
;   firstLayerUnderspeed,0.4
;   useRaft,0
;   raftExtruder,0
;   raftTopLayers,2
;   raftBaseLayers,0
;   raftOffset,4
;   raftSeparationDistance,0.15
;   raftTopInfill,100
;   aboveRaftSpeedMultiplier,0.3
;   useSkirt,1
;   skirtExtruder,0
;   skirtLayers,1
;   skirtOutlines,1
;   skirtOffset,5
;   usePrimePillar,0
;   primePillarExtruder,999
;   primePillarWidth,12
;   primePillarLocation,7
;   primePillarSpeedMultiplier,1
;   useOozeShield,0
;   oozeShieldExtruder,999
;   oozeShieldOffset,2
;   oozeShieldOutlines,1
;   oozeShieldSidewallShape,1
;   oozeShieldSidewallAngle,30
;   oozeShieldSpeedMultiplier,1
;   infillExtruder,0
;   internalInfillPattern,Rectilinear
;   externalInfillPattern,Rectilinear
;   infillPercentage,20
;   outlineOverlapPercentage,20
;   infillExtrusionWidthPercentage,100
;   minInfillLength,5
;   infillLayerInterval,1
;   internalInfillAngles,45,-45
;   overlapInternalInfillAngles,0
;   externalInfillAngles,45,-45
;   generateSupport,0
;   supportExtruder,0
;   supportInfillPercentage,30
;   supportExtraInflation,0.5
;   supportBaseLayers,0
;   denseSupportExtruder,0
;   denseSupportLayers,0
;   denseSupportInfillPercentage,70
;   supportLayerInterval,1
;   supportHorizontalPartOffset,0.35
;   supportUpperSeparationLayers,1
;   supportLowerSeparationLayers,1
;   supportType,0
;   supportGridSpacing,2
;   maxOverhangAngle,45
;   supportAngles,45
;   temperatureName,Primary Extruder,Heated Bed
;   temperatureNumber,0,2
;   temperatureSetpointCount,1,1
;   temperatureSetpointLayers,1,1
;   temperatureSetpointTemperatures,230,45
;   temperatureStabilizeAtStartup,0,0
;   temperatureHeatedBed,0,1
;   temperatureRelayBetweenLayers,0,0
;   temperatureRelayBetweenLoops,0,0
;   fanLayers,1,3,4,5
;   fanSpeeds,0,25,50,100
;   blipFanToFullPower,0
;   adjustSpeedForCooling,1
;   minSpeedLayerTime,5
;   minCoolingSpeedSlowdown,30
;   increaseFanForCooling,1
;   minFanLayerTime,13
;   maxCoolingFanSpeed,100
;   increaseFanForBridging,1
;   bridgingFanSpeed,100
;   use5D,1
;   relativeEdistances,1
;   allowEaxisZeroing,1
;   independentExtruderAxes,0
;   includeM10123,0
;   stickySupport,1
;   applyToolheadOffsets,0
;   gcodeXoffset,0
;   gcodeYoffset,0
;   gcodeZoffset,0
;   overrideMachineDefinition,1
;   machineTypeOverride,0
;   strokeXoverride,355
;   strokeYoverride,355
;   strokeZoverride,315
;   originOffsetXoverride,0
;   originOffsetYoverride,0
;   originOffsetZoverride,0
;   homeXdirOverride,1
;   homeYdirOverride,-1
;   homeZdirOverride,1
;   flipXoverride,1
;   flipYoverride,-1
;   flipZoverride,1
;   toolheadOffsets,0,0|0,0|0,0|0,0|0,0|0,0
;   overrideFirmwareConfiguration,1
;   firmwareTypeOverride,RepRap (Marlin/Repetier/Sprinter)
;   GPXconfigOverride,r2
;   baudRateOverride,115200
;   overridePrinterModels,0
;   printerModelsOverride
;   startingGcode,M104 S0 ;cancel S3D set temp,G21  ; set units to mm,G90  ; use absolute coordinates,T0  ; select tool 0,G92 E0.0  ; reset e count,M220 S100 ; reset speed multiplier,M140 S[bed2_temperature]  ; set bed temp and do not wait,G32  ; probe bed,M190 S[bed2_temperature]  ; set bed temperature and wait,M109 S[extruder0_temperature]  ; set print head temperature and wait,; === pause for heating ===,; reset filament monitor,M42 P63 S0,G4 P100,G4 P50,M42 P63 S1,;,G1 Z10.0 F2000  ; move up,G1 E30.0 F500  ; prime extruder,G1 X20 Y15 F9000  ; move back,G1 Z0 F1000  ; move down to begin wipe,G1 X150 E4.0 F10000  ; wipe print head (extrude material while we do this),G92 E0.0  ; reset e count
;   layerChangeGcode,
;   retractionGcode,
;   toolChangeGcode,
;   endingGcode,G91  ;relative positioning,G1 E-5.00 F1000  ;retract 5mm of filament,G1 Z+1.00 X-20.0 Y+20.0 F10000  ;short quick move to disengage from print,G90  ;absolute positioning,G1 X0.0 Y350.0 F9000  ; move head to back left corner,G91  ; relative positioning,G1 E-5.00 F500  ;retract additional filament to prevent oozing,G90 ;absolute positioning,M104 S0  ;turn off hotend,M140 S0  ;turn off heatbed,; Reset filament monitor,M42 P63 S0,G4 P100,G4 P50,M42 P63 S1,;,G1 Z315 F1000 ;move print bed down to idle position,M106 S0  ; shut off blower,M84  ;motors off,M561  ;clear bed probe transformation
;   exportFileFormat,gcode
;   celebration,0
;   celebrationSong,Random Song
;   postProcessing,
;   defaultSpeed,6000
;   outlineUnderspeed,0.6
;   solidInfillUnderspeed,0.7
;   supportUnderspeed,1
;   rapidXYspeed,21000
;   rapidZspeed,10000
;   minBridgingArea,50
;   bridgingExtraInflation,0.5
;   bridgingExtrusionMultiplier,1
;   bridgingSpeedMultiplier,0.6
;   useFixedBridgingAngle,0
;   fixedBridgingAngle,0
;   applyBridgingToPerimeters,0
;   filamentDiameters,1.71|1.71|1.71|1.71|1.71|1.71
;   filamentPricesPerKg,46|46|46|46|46|46
;   filamentDensities,1.25|1.25|1.25|1.25|1.25|1.25
;   useMinPrintHeight,0
;   minPrintHeight,13
;   useMaxPrintHeight,0
;   maxPrintHeight,13
;   useDiaphragm,0
;   diaphragmLayerInterval,20
;   robustSlicing,1
;   mergeAllIntoSolid,0
;   onlyRetractWhenCrossingOutline,1
;   retractBetweenLayers,0
;   useRetractionMinTravel,0
;   retractionMinTravel,1
;   retractWhileWiping,0
;   onlyWipeOutlines,1
;   avoidCrossingOutline,0
;   maxMovementDetourFactor,3
;   toolChangeRetractionDistance,0
;   toolChangeExtraRestartDistance,0
;   toolChangeRetractionSpeed,360
;   externalThinWallType,1
;   internalThinWallType,1
;   thinWallAllowedOverlapPercentage,50
;   singleExtrusionMinLength,1
;   singleExtrusionMinPrintingWidthPercentage,50
;   singleExtrusionMaxPrintingWidthPercentage,200
;   singleExtrusionEndpointExtension,0.2
;   horizontalSizeCompensation,0
G90
M83
M106 S0
M104 S0 ;cancel S3D set temp
G21  ; set units to mm
G90  ; use absolute coordinates
T0  ; select tool 0
G92 E0.0  ; reset e count
M220 S100 ; reset speed multiplier
M140 S45  ; set bed temp and do not wait
G32  ; probe bed
M190 S45  ; set bed temperature and wait
M109 S230  ; set print head temperature and wait
; === pause for heating ===
; reset filament monitor
M42 P63 S0
G4 P100
G4 P50
M42 P63 S1
;
G1 Z10.0 F2000  ; move up
G1 E30.0 F500  ; prime extruder
G1 X20 Y15 F9000  ; move back
G1 Z0 F1000  ; move down to begin wipe
G1 X150 E4.0 F10000  ; wipe print head (extrude material while we do this)
G92 E0.0  ; reset e count
G1 E-4.2500 F24000
G1 Z0.250 F10000
; process Process1
; layer 1, Z = 0.250
T0
; tool H0.250 W0.450
; skirt
G1 X121.785 Y82.085 F21000
G1 E4.3000 F7200
G1 X122.352 Y81.346 E0.0456 F2400
G1 X122.361 Y81.335 E0.0007
G1 X122.835 Y80.861 E0.0328
G1 X122.846 Y80.852 E0.0007
G1 X123.585 Y80.285 E0.0456
G1 X123.597 Y80.277 E0.0007
G1 X124.178 Y79.941 E0.0328
G1 X124.191 Y79.935 E0.0007
G1 X125.051 Y79.579 E0.0456
G1 X125.065 Y79.574 E0.0007
G1 X125.713 Y79.400 E0.0328
G1 X125.727 Y79.397 E0.0007
G1 X126.477 Y79.299 E0.0371
G1 X126.485 Y79.298 E0.0004
G1 X126.819 Y79.276 E0.0164
G1 X126.826 Y79.276 E0.0004
G1 X228.167 Y79.275 E4.9643
G1 X228.175 Y79.275 E0.0004
G1 X228.509 Y79.297 E0.0164
G1 X228.516 Y79.298 E0.0004
G1 X229.273 Y79.397 E0.0374
G1 X229.287 Y79.400 E0.0007
G1 X229.935 Y79.574 E0.0328
G1 X229.949 Y79.579 E0.0007
G1 X230.809 Y79.935 E0.0456
G1 X230.822 Y79.941 E0.0007
G1 X231.403 Y80.277 E0.0328
G1 X231.415 Y80.285 E0.0007
G1 X232.154 Y80.852 E0.0456
G1 X232.165 Y80.861 E0.0007
G1 X232.639 Y81.335 E0.0328
G1 X232.648 Y81.346 E0.0007
G1 X233.215 Y82.085 E0.0456
G1 X233.223 Y82.097 E0.0007
G1 X233.559 Y82.678 E0.0328
G1 X233.565 Y82.691 E0.0007
G1 X233.921 Y83.551 E0.0456
G1 X233.926 Y83.565 E0.0007
G1 X234.100 Y84.213 E0.0328
G1 X234.102 Y84.227 E0.0007
G1 X234.201 Y84.977 E0.0371
G1 X234.202 Y84.985 E0.0004
G1 X234.224 Y85.319 E0.0164
G1 X234.224 Y85.326 E0.0004
G1 X234.225 Y136.667 E2.5150
G1 X234.225 Y136.675 E0.0004
G1 X234.203 Y137.009 E0.0164
G1 X234.202 Y137.016 E0.0004
G1 X234.102 Y137.773 E0.0374
G1 X234.100 Y137.788 E0.0007
G1 X233.926 Y138.435 E0.0328
G1 X233.921 Y138.449 E0.0007
G1 X233.565 Y139.309 E0.0456
G1 X233.559 Y139.322 E0.0007
G1 X233.223 Y139.903 E0.0328
G1 X233.215 Y139.915 E0.0007
G1 X232.648 Y140.654 E0.0456
G1 X232.639 Y140.665 E0.0007
G1 X232.165 Y141.139 E0.0328
G1 X232.154 Y141.148 E0.0007
G1 X231.415 Y141.715 E0.0456
G1 X231.403 Y141.723 E0.0007
G1 X230.822 Y142.059 E0.0328
G1 X230.809 Y142.065 E0.0007
G1 X229.949 Y142.421 E0.0456
G1 X229.935 Y142.426 E0.0007
G1 X229.287 Y142.600 E0.0328
G1 X229.273 Y142.602 E0.0007
G1 X228.523 Y142.701 E0.0371
G1 X228.515 Y142.702 E0.0004
G1 X228.181 Y142.724 E0.0164
G1 X228.174 Y142.724 E0.0004
G1 X193.880 Y142.725 E1.6799
G1 X193.880 Y272.616 E6.3628
G1 X193.846 Y272.699 E0.0044
G1 X190.853 Y275.691 E0.2073
G1 X190.771 Y275.725 E0.0044
G1 X164.229 Y275.725 E1.3002
G1 X164.147 Y275.691 E0.0044
G1 X161.154 Y272.699 E0.2073
G1 X161.120 Y272.616 E0.0044
G1 X161.120 Y142.725 E6.3628
G1 X126.833 Y142.725 E1.6796
G1 X126.825 Y142.725 E0.0004
G1 X126.491 Y142.703 E0.0164
G1 X126.484 Y142.702 E0.0004
G1 X125.727 Y142.602 E0.0374
G1 X125.712 Y142.600 E0.0007
G1 X125.065 Y142.426 E0.0328
G1 X125.051 Y142.421 E0.0007
G1 X124.191 Y142.065 E0.0456
G1 X124.178 Y142.059 E0.0007
G1 X123.597 Y141.723 E0.0328
G1 X123.585 Y141.715 E0.0007
G1 X122.846 Y141.148 E0.0456
G1 X122.835 Y141.139 E0.0007
G1 X122.361 Y140.665 E0.0328
G1 X122.352 Y140.654 E0.0007
G1 X121.785 Y139.915 E0.0456
G1 X121.777 Y139.903 E0.0007
G1 X121.441 Y139.322 E0.0328
G1 X121.435 Y139.309 E0.0007
G1 X121.079 Y138.449 E0.0456
G1 X121.074 Y138.435 E0.0007
G1 X120.900 Y137.787 E0.0328
G1 X120.897 Y137.773 E0.0007
G1 X120.799 Y137.023 E0.0371
G1 X120.798 Y137.015 E0.0004
G1 X120.776 Y136.681 E0.0164
G1 X120.776 Y136.674 E0.0004
G1 X120.776 Y85.326 E2.5153
G1 X120.776 Y85.319 E0.0004
G1 X120.798 Y84.985 E0.0164
G1 X120.799 Y84.977 E0.0004
G1 X120.897 Y84.227 E0.0371
G1 X120.900 Y84.213 E0.0007
G1 X121.074 Y83.565 E0.0328
G1 X121.079 Y83.551 E0.0007
G1 X121.435 Y82.691 E0.0456
G1 X121.441 Y82.678 E0.0007
G1 X121.777 Y82.097 E0.0328
G1 X121.785 Y82.085 E0.0007
G1 E-4.2500 F24000
; outer perimeter
G1 X166.570 Y270.275 F21000
G1 E4.3000 F24000
G1 X166.570 Y137.275 E6.5151 F1440
G1 X127.015 Y137.275 E1.9377
G1 X126.800 Y137.247 E0.0106
G1 X126.613 Y137.169 E0.0099
G1 X126.453 Y137.047 E0.0099
G1 X126.331 Y136.887 E0.0099
G1 X126.253 Y136.700 E0.0099
G1 X126.226 Y136.492 E0.0103
G1 X126.226 Y85.508 E2.4975
G1 X126.253 Y85.300 E0.0103
G1 X126.331 Y85.113 E0.0099
G1 X126.453 Y84.953 E0.0099
G1 X126.613 Y84.831 E0.0099
G1 X126.800 Y84.753 E0.0099
G1 X127.008 Y84.726 E0.0103
G1 X227.985 Y84.725 E4.9465
G1 X228.200 Y84.753 E0.0106
G1 X228.387 Y84.831 E0.0099
G1 X228.547 Y84.953 E0.0099
G1 X228.669 Y85.113 E0.0099
G1 X228.747 Y85.300 E0.0099
G1 X228.774 Y85.508 E0.0103
G1 X228.775 Y136.485 E2.4972
G1 X228.747 Y136.700 E0.0106
G1 X228.669 Y136.887 E0.0099
G1 X228.547 Y137.047 E0.0099
G1 X228.387 Y137.169 E0.0099
G1 X228.200 Y137.247 E0.0099
G1 X227.992 Y137.274 E0.0103
G1 X188.430 Y137.275 E1.9380
G1 X188.430 Y270.275 E6.5151
G1 X166.570 Y270.275 E1.0708
; inner perimeter
G1 X167.020 Y269.825 F21000
G1 X167.020 Y136.825 E6.5151 F1920
G1 X127.044 Y136.825 E1.9583
G1 X126.917 Y136.808 E0.0063
G1 X126.840 Y136.776 E0.0041
G1 X126.774 Y136.726 E0.0041
G1 X126.724 Y136.660 E0.0041
G1 X126.692 Y136.583 E0.0041
G1 X126.676 Y136.462 E0.0059
G1 X126.676 Y85.538 E2.4946
G1 X126.692 Y85.417 E0.0059
G1 X126.724 Y85.340 E0.0041
G1 X126.774 Y85.274 E0.0041
G1 X126.840 Y85.224 E0.0041
G1 X126.917 Y85.192 E0.0041
G1 X127.038 Y85.176 E0.0059
G1 X227.956 Y85.175 E4.9436
G1 X228.083 Y85.192 E0.0063
G1 X228.160 Y85.224 E0.0041
G1 X228.226 Y85.274 E0.0041
G1 X228.276 Y85.340 E0.0041
G1 X228.308 Y85.417 E0.0041
G1 X228.324 Y85.538 E0.0059
G1 X228.325 Y136.456 E2.4943
G1 X228.308 Y136.583 E0.0063
G1 X228.276 Y136.660 E0.0041
G1 X228.226 Y136.726 E0.0041
G1 X228.160 Y136.776 E0.0041
G1 X228.083 Y136.808 E0.0041
G1 X227.962 Y136.824 E0.0059
G1 X187.980 Y136.825 E1.9586
G1 X187.980 Y269.825 E6.5151
G1 X167.020 Y269.825 E1.0267
G1 X167.470 Y269.375 F21000
G1 X167.470 Y136.375 E6.5151 F1920
G1 X127.126 Y136.375 E1.9763
G1 X127.126 Y85.626 E2.4860
G1 X227.874 Y85.625 E4.9352
G1 X227.875 Y136.374 E2.4860
G1 X187.530 Y136.375 E1.9763
G1 X187.530 Y269.375 E6.5151
G1 X167.470 Y269.375 E0.9826
G1 E-4.2500 F24000
G1 X173.593 Y118.775 F21000
G1 E4.3000 F24000
G1 X160.460 Y118.775 E0.6433 F1920
G1 X160.395 Y118.662 E0.0064
G1 X163.615 Y113.084 E0.3155
G1 X166.312 Y117.755 E0.2642
G1 X167.611 Y117.755 E0.0636
G1 X170.243 Y113.197 E0.2578
G1 X170.373 Y113.197 E0.0064
G1 X173.593 Y118.775 E0.3155
G1 X173.779 Y118.662 F21000
G1 X177.000 Y113.084 E0.3155 F1920
G1 X180.285 Y118.775 E0.3219
G1 X173.844 Y118.775 E0.3155
G1 X173.779 Y118.662 E0.0064
G1 X180.407 Y118.775 F21000
G1 X183.692 Y113.084 E0.3219 F1920
G1 X186.389 Y117.755 E0.2642
G1 X187.688 Y117.755 E0.0636
G1 X190.320 Y113.197 E0.2578
G1 X190.450 Y113.197 E0.0064
G1 X193.605 Y118.662 E0.3092
G1 X193.540 Y118.775 E0.0064
G1 X180.407 Y118.775 E0.6433
G1 X193.856 Y118.662 F21000
G1 X197.012 Y113.197 E0.3092 F1920
G1 X197.142 Y113.197 E0.0064
G1 X200.362 Y118.775 E0.3155
G1 X193.921 Y118.775 E0.3155
G1 X193.856 Y118.662 E0.0064
G1 X200.484 Y118.775 F21000
G1 X203.704 Y113.197 E0.3155 F1920
G1 X203.834 Y113.197 E0.0064
G1 X207.055 Y118.775 E0.3155
G1 X200.484 Y118.775 E0.3219
G1 X207.241 Y118.662 F21000
G1 X210.397 Y113.197 E0.3092 F1920
G1 X210.526 Y113.197 E0.0064
G1 X213.747 Y118.775 E0.3155
G1 X207.306 Y118.775 E0.3155
G1 X207.241 Y118.662 E0.0064
G1 X213.933 Y118.662 F21000
G1 X217.089 Y113.197 E0.3092 F1920
G1 X217.219 Y113.197 E0.0064
G1 X220.439 Y118.775 E0.3155
G1 X213.998 Y118.775 E0.3155
G1 X213.933 Y118.662 E0.0064
G1 X160.209 Y118.775 F21000
G1 X153.768 Y118.775 E0.3155 F1920
G1 X153.703 Y118.662 E0.0064
G1 X156.858 Y113.197 E0.3092
G1 X156.988 Y113.197 E0.0064
G1 X160.209 Y118.775 E0.3155
G1 X153.516 Y118.775 F21000
G1 X146.945 Y118.775 E0.3219 F1920
G1 X150.166 Y113.197 E0.3155
G1 X150.296 Y113.197 E0.0064
G1 X153.516 Y118.775 E0.3155
G1 X146.824 Y118.775 F21000
G1 X140.253 Y118.775 E0.3219 F1920
G1 X143.474 Y113.197 E0.3155
G1 X143.603 Y113.197 E0.0064
G1 X146.824 Y118.775 E0.3155
G1 X140.132 Y118.775 F21000
G1 X133.691 Y118.775 E0.3155 F1920
G1 X133.626 Y118.662 E0.0064
G1 X136.781 Y113.197 E0.3092
G1 X136.911 Y113.197 E0.0064
G1 X140.132 Y118.775 E0.3155
; outer perimeter
G1 X140.192 Y117.080 F21000
G1 X142.952 Y112.300 E0.2704 F1440
G1 X142.822 Y112.075 E0.0127
G1 X137.562 Y112.075 E0.2577
G1 X137.432 Y112.300 E0.0127
G1 X140.192 Y117.080 E0.2704
; inner perimeter
G1 X140.192 Y117.980 F21000
G1 X143.472 Y112.300 E0.3213 F1920
G1 X143.082 Y111.625 E0.0382
G1 X137.303 Y111.625 E0.2831
G1 X136.913 Y112.300 E0.0382
G1 X140.192 Y117.980 E0.3213
G1 E-4.2500 F24000
; outer perimeter
G1 X140.062 Y124.455 F21000
G1 E4.3000 F24000
G1 X140.322 Y124.455 E0.0127 F1440
G1 X143.082 Y119.675 E0.2704
G1 X137.303 Y119.675 E0.2831
G1 X140.062 Y124.455 E0.2704
G1 E-4.2500 F24000
G1 X140.192 Y132.280 F21000
G1 E4.3000 F24000
G1 X142.952 Y127.500 E0.2704 F1440
G1 X142.822 Y127.275 E0.0127
