; G-Code generated by Simplify3D(R) Version 4.0.1
; Apr 26, 2023 at 1:00:30 PM
; Settings Summary
;   processName,Process1
;   applyToModels,ForkAcrylicMount
;   profileName,F410_0.4C_PLA (modified)
;   profileVersion,2022-03-09 09:51:28
;   baseProfile,F400_PLA
;   printMaterial,
;   printQuality,Standard
;   printExtruders,
;   extruderName,Primary Extruder
;   extruderToolheadNumber,0
;   extruderDiameter,0.4
;   extruderAutoWidth,0
;   extruderWidth,0.45
;   extrusionMultiplier,1
;   extruderUseRetract,1
;   extruderRetractionDistance,4.25
;   extruderExtraRestartDistance,0.05
;   extruderRetractionZLift,0
;   extruderRetractionSpeed,24000
;   extruderUseCoasting,0
;   extruderCoastingDistance,0.5
;   extruderUseWipe,0
;   extruderWipeDistance,5
;   primaryExtruder,0
;   layerHeight,0.25
;   topSolidLayers,4
;   bottomSolidLayers,4
;   perimeterOutlines,3
;   printPerimetersInsideOut,0
;   startPointOption,3
;   startPointOriginX,0
;   startPointOriginY,360
;   sequentialIslands,0
;   spiralVaseMode,0
;   firstLayerHeightPercentage,100
;   firstLayerWidthPercentage,100
;   firstLayerUnderspeed,0.4
;   useRaft,0
;   raftExtruder,0
;   raftTopLayers,2
;   raftBaseLayers,0
;   raftOffset,4
;   raftSeparationDistance,0.15
;   raftTopInfill,100
;   aboveRaftSpeedMultiplier,0.3
;   useSkirt,1
;   skirtExtruder,0
;   skirtLayers,1
;   skirtOutlines,1
;   skirtOffset,5
;   usePrimePillar,0
;   primePillarExtruder,999
;   primePillarWidth,12
;   primePillarLocation,7
;   primePillarSpeedMultiplier,1
;   useOozeShield,0
;   oozeShieldExtruder,999
;   oozeShieldOffset,2
;   oozeShieldOutlines,1
;   oozeShieldSidewallShape,1
;   oozeShieldSidewallAngle,30
;   oozeShieldSpeedMultiplier,1
;   infillExtruder,0
;   internalInfillPattern,Rectilinear
;   externalInfillPattern,Rectilinear
;   infillPercentage,15
;   outlineOverlapPercentage,20
;   infillExtrusionWidthPercentage,100
;   minInfillLength,5
;   infillLayerInterval,1
;   internalInfillAngles,45,-45
;   overlapInternalInfillAngles,0
;   externalInfillAngles,45,-45
;   generateSupport,0
;   supportExtruder,0
;   supportInfillPercentage,30
;   supportExtraInflation,0.5
;   supportBaseLayers,0
;   denseSupportExtruder,0
;   denseSupportLayers,0
;   denseSupportInfillPercentage,70
;   supportLayerInterval,1
;   supportHorizontalPartOffset,0.35
;   supportUpperSeparationLayers,1
;   supportLowerSeparationLayers,1
;   supportType,0
;   supportGridSpacing,2
;   maxOverhangAngle,45
;   supportAngles,45
;   temperatureName,Primary Extruder,Heated Bed
;   temperatureNumber,0,2
;   temperatureSetpointCount,1,1
;   temperatureSetpointLayers,1,1
;   temperatureSetpointTemperatures,230,45
;   temperatureStabilizeAtStartup,0,0
;   temperatureHeatedBed,0,1
;   temperatureRelayBetweenLayers,0,0
;   temperatureRelayBetweenLoops,0,0
;   fanLayers,1,3,4,5
;   fanSpeeds,0,25,50,100
;   blipFanToFullPower,0
;   adjustSpeedForCooling,1
;   minSpeedLayerTime,5
;   minCoolingSpeedSlowdown,30
;   increaseFanForCooling,1
;   minFanLayerTime,13
;   maxCoolingFanSpeed,100
;   increaseFanForBridging,1
;   bridgingFanSpeed,100
;   use5D,1
;   relativeEdistances,1
;   allowEaxisZeroing,1
;   independentExtruderAxes,0
;   includeM10123,0
;   stickySupport,1
;   applyToolheadOffsets,0
;   gcodeXoffset,0
;   gcodeYoffset,0
;   gcodeZoffset,0
;   overrideMachineDefinition,1
;   machineTypeOverride,0
;   strokeXoverride,355
;   strokeYoverride,355
;   strokeZoverride,315
;   originOffsetXoverride,0
;   originOffsetYoverride,0
;   originOffsetZoverride,0
;   homeXdirOverride,1
;   homeYdirOverride,-1
;   homeZdirOverride,1
;   flipXoverride,1
;   flipYoverride,-1
;   flipZoverride,1
;   toolheadOffsets,0,0|0,0|0,0|0,0|0,0|0,0
;   overrideFirmwareConfiguration,1
;   firmwareTypeOverride,RepRap (Marlin/Repetier/Sprinter)
;   GPXconfigOverride,r2
;   baudRateOverride,115200
;   overridePrinterModels,0
;   printerModelsOverride
;   startingGcode,M104 S0 ;cancel S3D set temp,G21  ; set units to mm,G90  ; use absolute coordinates,T0  ; select tool 0,G92 E0.0  ; reset e count,M220 S100 ; reset speed multiplier,M140 S[bed2_temperature]  ; set bed temp and do not wait,G32  ; probe bed,M190 S[bed2_temperature]  ; set bed temperature and wait,M109 S[extruder0_temperature]  ; set print head temperature and wait,; === pause for heating ===,; reset filament monitor,M42 P63 S0,G4 P100,G4 P50,M42 P63 S1,;,G1 Z10.0 F2000  ; move up,G1 E30.0 F500  ; prime extruder,G1 X20 Y15 F9000  ; move back,G1 Z0 F1000  ; move down to begin wipe,G1 X150 E4.0 F10000  ; wipe print head (extrude material while we do this),G92 E0.0  ; reset e count
;   layerChangeGcode,
;   retractionGcode,
;   toolChangeGcode,
;   endingGcode,G91  ;relative positioning,G1 E-5.00 F1000  ;retract 5mm of filament,G1 Z+1.00 X-20.0 Y+20.0 F10000  ;short quick move to disengage from print,G90  ;absolute positioning,G1 X0.0 Y350.0 F9000  ; move head to back left corner,G91  ; relative positioning,G1 E-5.00 F500  ;retract additional filament to prevent oozing,G90 ;absolute positioning,M104 S0  ;turn off hotend,M140 S0  ;turn off heatbed,; Reset filament monitor,M42 P63 S0,G4 P100,G4 P50,M42 P63 S1,;,G1 Z315 F1000 ;move print bed down to idle position,M106 S0  ; shut off blower,M84  ;motors off,M561  ;clear bed probe transformation
;   exportFileFormat,gcode
;   celebration,0
;   celebrationSong,Random Song
;   postProcessing,
;   defaultSpeed,6000
;   outlineUnderspeed,0.6
;   solidInfillUnderspeed,0.7
;   supportUnderspeed,1
;   rapidXYspeed,21000
;   rapidZspeed,10000
;   minBridgingArea,50
;   bridgingExtraInflation,0.5
;   bridgingExtrusionMultiplier,1
;   bridgingSpeedMultiplier,0.6
;   useFixedBridgingAngle,0
;   fixedBridgingAngle,0
;   applyBridgingToPerimeters,0
;   filamentDiameters,1.71|1.71|1.71|1.71|1.71|1.71
;   filamentPricesPerKg,46|46|46|46|46|46
;   filamentDensities,1.25|1.25|1.25|1.25|1.25|1.25
;   useMinPrintHeight,0
;   minPrintHeight,13
;   useMaxPrintHeight,0
;   maxPrintHeight,13
;   useDiaphragm,0
;   diaphragmLayerInterval,20
;   robustSlicing,1
;   mergeAllIntoSolid,0
;   onlyRetractWhenCrossingOutline,1
;   retractBetweenLayers,0
;   useRetractionMinTravel,0
;   retractionMinTravel,1
;   retractWhileWiping,0
;   onlyWipeOutlines,1
;   avoidCrossingOutline,0
;   maxMovementDetourFactor,3
;   toolChangeRetractionDistance,0
;   toolChangeExtraRestartDistance,0
;   toolChangeRetractionSpeed,360
;   externalThinWallType,1
;   internalThinWallType,1
;   thinWallAllowedOverlapPercentage,50
;   singleExtrusionMinLength,1
;   singleExtrusionMinPrintingWidthPercentage,50
;   singleExtrusionMaxPrintingWidthPercentage,200
;   singleExtrusionEndpointExtension,0.2
;   horizontalSizeCompensation,0
G90
M83
M106 S0
M104 S0 ;cancel S3D set temp
G21  ; set units to mm
G90  ; use absolute coordinates
T0  ; select tool 0
G92 E0.0  ; reset e count
M220 S100 ; reset speed multiplier
M140 S45  ; set bed temp and do not wait
G32  ; probe bed
M190 S45  ; set bed temperature and wait
M109 S230  ; set print head temperature and wait
; === pause for heating ===
; reset filament monitor
M42 P63 S0
G4 P100
G4 P50
M42 P63 S1
;
G1 Z10.0 F2000  ; move up
G1 E30.0 F500  ; prime extruder
G1 X20 Y15 F9000  ; move back
G1 Z0 F1000  ; move down to begin wipe
G1 X150 E4.0 F10000  ; wipe print head (extrude material while we do this)
G92 E0.0  ; reset e count
G1 E-4.2500 F24000
G1 Z0.250 F10000
; process Process1
; layer 1, Z = 0.250
T0
; tool H0.250 W0.450
; skirt
G1 X125.301 Y134.695 F21000
G1 E4.3000 F7200
G1 X125.384 Y134.661 E0.0044 F2400
G1 X144.951 Y134.661 E0.9585
G1 X144.953 Y134.661 E0.0001
G1 X145.055 Y134.663 E0.0050
G1 X145.057 Y134.663 E0.0001
G1 X145.888 Y134.696 E0.0408
G1 X145.915 Y134.701 E0.0013
G1 X147.113 Y135.049 E0.0611
G1 X147.138 Y135.059 E0.0013
G1 X149.302 Y136.314 E0.1225
G1 X149.327 Y136.333 E0.0016
G1 X150.330 Y137.380 E0.0710
G1 X150.348 Y137.406 E0.0016
G1 X150.902 Y138.464 E0.0585
G1 X150.908 Y138.478 E0.0007
G1 X151.142 Y139.124 E0.0337
G1 X151.146 Y139.138 E0.0007
G1 X151.405 Y140.335 E0.0600
G1 X151.407 Y140.346 E0.0006
G1 X151.466 Y140.877 E0.0262
G1 X151.466 Y140.889 E0.0006
G1 X151.518 Y151.752 E0.5321
G1 X151.518 Y151.774 E0.0010
G1 X151.511 Y153.668 E0.0928
G1 X155.608 Y153.657 E0.2007
G1 X155.625 Y153.657 E0.0008
G1 X169.510 Y153.711 E0.6802
G1 X193.992 Y153.711 E1.1993
G1 X194.879 Y153.675 E0.0435
G1 X195.652 Y153.578 E0.0382
G1 X196.415 Y153.418 E0.0382
G1 X197.163 Y153.196 E0.0382
G1 X197.889 Y152.912 E0.0382
G1 X198.589 Y152.570 E0.0382
G1 X199.259 Y152.171 E0.0382
G1 X199.893 Y151.718 E0.0382
G1 X200.488 Y151.214 E0.0382
G1 X201.039 Y150.663 E0.0382
G1 X201.543 Y150.068 E0.0382
G1 X201.996 Y149.434 E0.0382
G1 X202.395 Y148.764 E0.0382
G1 X202.737 Y148.064 E0.0382
G1 X203.021 Y147.338 E0.0382
G1 X203.243 Y146.590 E0.0382
G1 X203.403 Y145.827 E0.0382
G1 X203.500 Y145.054 E0.0382
G1 X203.536 Y144.162 E0.0437
G1 X203.544 Y140.385 E0.1850
G1 X203.548 Y140.355 E0.0014
G1 X203.898 Y139.056 E0.0659
G1 X203.910 Y139.029 E0.0014
G1 X205.189 Y136.823 E0.1249
G1 X205.209 Y136.798 E0.0016
G1 X206.256 Y135.795 E0.0710
G1 X206.281 Y135.777 E0.0016
G1 X207.339 Y135.223 E0.0585
G1 X207.353 Y135.217 E0.0007
G1 X207.999 Y134.983 E0.0337
G1 X208.013 Y134.979 E0.0007
G1 X209.216 Y134.718 E0.0603
G1 X209.228 Y134.716 E0.0006
G1 X209.772 Y134.658 E0.0268
G1 X209.784 Y134.657 E0.0006
G1 X229.617 Y134.662 E0.9715
G1 X229.699 Y134.696 E0.0044
G1 X232.691 Y137.688 E0.2073
G1 X232.725 Y137.771 E0.0044
G1 X232.725 Y172.730 E1.7125
G1 X232.691 Y172.812 E0.0044
G1 X229.699 Y175.805 E0.2073
G1 X229.616 Y175.839 E0.0044
G1 X204.760 Y175.839 E1.2176
G1 X191.991 Y175.893 E0.6255
G1 X191.973 Y175.893 E0.0009
G1 X188.613 Y175.883 E0.1646
G1 X188.618 Y177.159 E0.0625
G1 X188.618 Y177.185 E0.0012
G1 X188.564 Y186.790 E0.4705
G1 X188.564 Y223.891 E1.8174
G1 X188.530 Y223.974 E0.0044
G1 X185.537 Y226.966 E0.2073
G1 X185.455 Y227.000 E0.0044
G1 X169.545 Y227.000 E0.7793
G1 X169.463 Y226.966 E0.0044
G1 X166.470 Y223.974 E0.2073
G1 X166.436 Y223.891 E0.0044
G1 X166.436 Y186.790 E1.8174
G1 X166.382 Y177.185 E0.4705
G1 X166.382 Y177.160 E0.0012
G1 X166.387 Y175.883 E0.0625
G1 X163.028 Y175.893 E0.1646
G1 X163.009 Y175.893 E0.0009
G1 X150.240 Y175.839 E0.6255
G1 X125.384 Y175.839 E1.2176
G1 X125.301 Y175.805 E0.0044
G1 X122.309 Y172.812 E0.2073
G1 X122.275 Y172.730 E0.0044
G1 X122.275 Y137.770 E1.7125
G1 X122.309 Y137.688 E0.0044
G1 X125.301 Y134.695 E0.2073
G1 E-4.2500 F24000
; outer perimeter
G1 X171.886 Y221.550 F21000
G1 E4.3000 F24000
G1 X171.886 Y186.774 E1.7035 F1440
G1 X171.832 Y177.168 E0.4705
G1 X171.859 Y170.416 E0.3308
G1 X163.022 Y170.443 E0.4329
G1 X150.250 Y170.389 E0.6256
G1 X127.725 Y170.389 E1.1034
G1 X127.725 Y140.111 E1.4832
G1 X144.896 Y140.111 E0.8411
G1 X144.993 Y140.115 E0.0048
G1 X145.895 Y140.638 E0.0511
G1 X146.018 Y141.206 E0.0285
G1 X146.068 Y151.767 E0.5173
G1 X146.041 Y159.134 E0.3609
G1 X155.613 Y159.107 E0.4689
G1 X169.500 Y159.161 E0.6803
G1 X194.105 Y159.161 E1.2053
G1 X195.329 Y159.111 E0.0600
G1 X196.550 Y158.958 E0.0603
G1 X197.754 Y158.706 E0.0603
G1 X198.934 Y158.355 E0.0603
G1 X200.080 Y157.908 E0.0603
G1 X201.185 Y157.367 E0.0603
G1 X202.242 Y156.737 E0.0603
G1 X203.243 Y156.022 E0.0603
G1 X204.182 Y155.227 E0.0603
G1 X205.052 Y154.357 E0.0603
G1 X205.847 Y153.418 E0.0603
G1 X206.562 Y152.417 E0.0603
G1 X207.192 Y151.360 E0.0603
G1 X207.733 Y150.255 E0.0603
G1 X208.180 Y149.109 E0.0603
G1 X208.531 Y147.929 E0.0603
G1 X208.783 Y146.725 E0.0603
G1 X208.936 Y145.504 E0.0603
G1 X208.986 Y144.280 E0.0600
G1 X208.992 Y141.128 E0.1544
G1 X209.513 Y140.230 E0.0508
G1 X210.080 Y140.107 E0.0284
G1 X227.275 Y140.111 E0.8423
G1 X227.275 Y170.389 E1.4832
G1 X204.750 Y170.389 E1.1034
G1 X191.978 Y170.443 E0.6256
G1 X183.141 Y170.416 E0.4329
G1 X183.168 Y177.168 E0.3308
G1 X183.114 Y186.775 E0.4706
G1 X183.114 Y221.550 E1.7035
G1 X171.886 Y221.550 E0.5500
; inner perimeter
G1 X172.336 Y221.100 F21000
G1 X172.336 Y186.773 E1.6815 F1920
G1 X172.282 Y177.167 E0.4706
G1 X172.311 Y169.965 E0.3528
G1 X163.021 Y169.993 E0.4551
G1 X150.251 Y169.939 E0.6255
G1 X128.175 Y169.939 E1.0814
G1 X128.175 Y140.561 E1.4391
G1 X144.865 Y140.561 E0.8176
G1 X145.497 Y140.928 E0.0358
G1 X145.568 Y141.255 E0.0164
G1 X145.618 Y151.767 E0.5150
G1 X145.590 Y159.585 E0.3830
G1 X155.614 Y159.557 E0.4911
G1 X169.499 Y159.611 E0.6802
G1 X194.114 Y159.611 E1.2058
G1 X195.366 Y159.559 E0.0614
G1 X196.624 Y159.403 E0.0621
G1 X197.865 Y159.142 E0.0621
G1 X199.080 Y158.781 E0.0621
G1 X200.261 Y158.320 E0.0621
G1 X201.400 Y157.763 E0.0621
G1 X202.488 Y157.114 E0.0621
G1 X203.520 Y156.378 E0.0621
G1 X204.487 Y155.559 E0.0621
G1 X205.384 Y154.662 E0.0621
G1 X206.203 Y153.695 E0.0621
G1 X206.939 Y152.663 E0.0621
G1 X207.588 Y151.575 E0.0621
G1 X208.145 Y150.436 E0.0621
G1 X208.606 Y149.255 E0.0621
G1 X208.967 Y148.040 E0.0621
G1 X209.228 Y146.799 E0.0621
G1 X209.384 Y145.541 E0.0621
G1 X209.436 Y144.290 E0.0614
G1 X209.442 Y141.250 E0.1489
G1 X209.803 Y140.628 E0.0352
G1 X210.128 Y140.557 E0.0163
G1 X226.825 Y140.561 E0.8179
G1 X226.825 Y169.939 E1.4391
G1 X204.749 Y169.939 E1.0814
G1 X191.979 Y169.993 E0.6255
G1 X182.689 Y169.965 E0.4551
G1 X182.718 Y177.167 E0.3528
G1 X182.664 Y186.773 E0.4706
G1 X182.664 Y221.100 E1.6815
G1 X172.336 Y221.100 E0.5059
G1 X172.786 Y220.650 F21000
G1 X172.786 Y186.772 E1.6596 F1920
G1 X172.732 Y177.167 E0.4705
G1 X172.762 Y169.514 E0.3749
G1 X163.023 Y169.543 E0.4771
G1 X150.252 Y169.489 E0.6256
G1 X128.625 Y169.489 E1.0594
G1 X128.625 Y141.011 E1.3950
G1 X144.744 Y141.011 E0.7896
G1 X145.099 Y141.217 E0.0201
G1 X145.118 Y141.304 E0.0044
G1 X145.168 Y151.768 E0.5126
G1 X145.138 Y160.036 E0.4050
G1 X155.614 Y160.007 E0.5132
G1 X169.498 Y160.061 E0.6801
G1 X194.123 Y160.061 E1.2063
G1 X195.404 Y160.008 E0.0628
G1 X196.698 Y159.847 E0.0639
G1 X197.976 Y159.579 E0.0639
G1 X199.226 Y159.207 E0.0639
G1 X200.442 Y158.732 E0.0639
G1 X201.614 Y158.159 E0.0639
G1 X202.735 Y157.492 E0.0639
G1 X203.797 Y156.733 E0.0639
G1 X204.792 Y155.890 E0.0639
G1 X205.715 Y154.967 E0.0639
G1 X206.558 Y153.972 E0.0639
G1 X207.316 Y152.910 E0.0639
G1 X207.984 Y151.789 E0.0639
G1 X208.557 Y150.617 E0.0639
G1 X209.032 Y149.401 E0.0639
G1 X209.404 Y148.151 E0.0639
G1 X209.672 Y146.873 E0.0639
G1 X209.833 Y145.579 E0.0639
G1 X209.886 Y144.299 E0.0627
G1 X209.892 Y141.371 E0.1434
G1 X210.092 Y141.026 E0.0196
G1 X210.176 Y141.007 E0.0042
G1 X226.375 Y141.011 E0.7935
G1 X226.375 Y169.489 E1.3950
G1 X204.748 Y169.489 E1.0594
G1 X191.977 Y169.543 E0.6256
G1 X182.238 Y169.514 E0.4771
G1 X182.268 Y177.167 E0.3749
G1 X182.214 Y186.772 E0.4705
G1 X182.214 Y220.650 E1.6595
G1 X172.786 Y220.650 E0.4618
; solid layer
G1 X173.146 Y220.239 F21000
G1 X173.197 Y220.290 E0.0035 F1680
G1 X173.833 Y220.290 E0.0312
G1 X173.146 Y219.603 E0.0476
G1 X173.146 Y218.967 E0.0312
G1 X174.469 Y220.290 E0.0917
G1 X175.106 Y220.290 E0.0312
G1 X173.146 Y218.330 E0.1358
G1 X173.146 Y217.694 E0.0312
G1 X175.742 Y220.290 E0.1798
G1 X176.379 Y220.290 E0.0312
G1 X173.146 Y217.058 E0.2239
G1 X173.146 Y216.421 E0.0312
G1 X177.015 Y220.290 E0.2680
G1 X177.651 Y220.290 E0.0312
G1 X173.146 Y215.785 E0.3121
G1 X173.146 Y215.148 E0.0312
G1 X178.288 Y220.290 E0.3562
G1 X178.924 Y220.290 E0.0312
G1 X173.146 Y214.512 E0.4003
G1 X173.146 Y213.876 E0.0312
G1 X179.561 Y220.290 E0.4444
G1 X180.197 Y220.290 E0.0312
G1 X173.146 Y213.239 E0.4885
G1 X173.146 Y212.603 E0.0312
G1 X180.833 Y220.290 E0.5325
G1 X181.470 Y220.290 E0.0312
G1 X173.146 Y211.966 E0.5766
G1 X173.146 Y211.330 E0.0312
G1 X181.854 Y220.038 E0.6032
G1 X181.854 Y219.401 E0.0312
G1 X173.146 Y210.694 E0.6032
G1 X173.146 Y210.057 E0.0312
G1 X181.854 Y218.765 E0.6032
G1 X181.854 Y218.128 E0.0312
G1 X173.146 Y209.421 E0.6032
G1 X173.146 Y208.784 E0.0312
G1 X181.854 Y217.492 E0.6032
G1 X181.854 Y216.856 E0.0312
G1 X173.146 Y208.148 E0.6032
G1 X173.146 Y207.512 E0.0312
G1 X181.854 Y216.219 E0.6032
G1 X181.854 Y215.583 E0.0312
G1 X173.146 Y206.875 E0.6032
G1 X173.146 Y206.239 E0.0312
G1 X181.854 Y214.946 E0.6032
G1 X181.854 Y214.310 E0.0312
