; G-Code generated by Simplify3D(R) Version 4.0.1
; Oct 17, 2023 at 11:45:27 AM
; Settings Summary
;   processName,Process1
;   applyToModels,PiCameraModule3FisheyeLensMount
;   profileName,F410_0.4C_PLA (modified)
;   profileVersion,2022-03-09 09:51:28
;   baseProfile,F400_PLA
;   printMaterial,
;   printQuality,Standard
;   printExtruders,
;   extruderName,Primary Extruder
;   extruderToolheadNumber,0
;   extruderDiameter,0.4
;   extruderAutoWidth,0
;   extruderWidth,0.45
;   extrusionMultiplier,1
;   extruderUseRetract,1
;   extruderRetractionDistance,4.25
;   extruderExtraRestartDistance,0.05
;   extruderRetractionZLift,0
;   extruderRetractionSpeed,24000
;   extruderUseCoasting,0
;   extruderCoastingDistance,0.5
;   extruderUseWipe,0
;   extruderWipeDistance,5
;   primaryExtruder,0
;   layerHeight,0.25
;   topSolidLayers,4
;   bottomSolidLayers,4
;   perimeterOutlines,3
;   printPerimetersInsideOut,0
;   startPointOption,3
;   startPointOriginX,0
;   startPointOriginY,360
;   sequentialIslands,0
;   spiralVaseMode,0
;   firstLayerHeightPercentage,100
;   firstLayerWidthPercentage,100
;   firstLayerUnderspeed,0.4
;   useRaft,0
;   raftExtruder,0
;   raftTopLayers,2
;   raftBaseLayers,0
;   raftOffset,4
;   raftSeparationDistance,0.15
;   raftTopInfill,100
;   aboveRaftSpeedMultiplier,0.3
;   useSkirt,1
;   skirtExtruder,0
;   skirtLayers,1
;   skirtOutlines,1
;   skirtOffset,5
;   usePrimePillar,0
;   primePillarExtruder,999
;   primePillarWidth,12
;   primePillarLocation,7
;   primePillarSpeedMultiplier,1
;   useOozeShield,0
;   oozeShieldExtruder,999
;   oozeShieldOffset,2
;   oozeShieldOutlines,1
;   oozeShieldSidewallShape,1
;   oozeShieldSidewallAngle,30
;   oozeShieldSpeedMultiplier,1
;   infillExtruder,0
;   internalInfillPattern,Rectilinear
;   externalInfillPattern,Rectilinear
;   infillPercentage,35
;   outlineOverlapPercentage,20
;   infillExtrusionWidthPercentage,100
;   minInfillLength,5
;   infillLayerInterval,1
;   internalInfillAngles,45,-45
;   overlapInternalInfillAngles,0
;   externalInfillAngles,45,-45
;   generateSupport,0
;   supportExtruder,0
;   supportInfillPercentage,30
;   supportExtraInflation,0.5
;   supportBaseLayers,0
;   denseSupportExtruder,0
;   denseSupportLayers,0
;   denseSupportInfillPercentage,70
;   supportLayerInterval,1
;   supportHorizontalPartOffset,0.35
;   supportUpperSeparationLayers,1
;   supportLowerSeparationLayers,1
;   supportType,0
;   supportGridSpacing,2
;   maxOverhangAngle,45
;   supportAngles,45
;   temperatureName,Primary Extruder,Heated Bed
;   temperatureNumber,0,2
;   temperatureSetpointCount,1,1
;   temperatureSetpointLayers,1,1
;   temperatureSetpointTemperatures,230,45
;   temperatureStabilizeAtStartup,0,0
;   temperatureHeatedBed,0,1
;   temperatureRelayBetweenLayers,0,0
;   temperatureRelayBetweenLoops,0,0
;   fanLayers,1,3,4,5
;   fanSpeeds,0,25,50,100
;   blipFanToFullPower,0
;   adjustSpeedForCooling,1
;   minSpeedLayerTime,5
;   minCoolingSpeedSlowdown,30
;   increaseFanForCooling,1
;   minFanLayerTime,13
;   maxCoolingFanSpeed,100
;   increaseFanForBridging,1
;   bridgingFanSpeed,100
;   use5D,1
;   relativeEdistances,1
;   allowEaxisZeroing,1
;   independentExtruderAxes,0
;   includeM10123,0
;   stickySupport,1
;   applyToolheadOffsets,0
;   gcodeXoffset,0
;   gcodeYoffset,0
;   gcodeZoffset,0
;   overrideMachineDefinition,1
;   machineTypeOverride,0
;   strokeXoverride,355
;   strokeYoverride,355
;   strokeZoverride,315
;   originOffsetXoverride,0
;   originOffsetYoverride,0
;   originOffsetZoverride,0
;   homeXdirOverride,1
;   homeYdirOverride,-1
;   homeZdirOverride,1
;   flipXoverride,1
;   flipYoverride,-1
;   flipZoverride,1
;   toolheadOffsets,0,0|0,0|0,0|0,0|0,0|0,0
;   overrideFirmwareConfiguration,1
;   firmwareTypeOverride,RepRap (Marlin/Repetier/Sprinter)
;   GPXconfigOverride,r2
;   baudRateOverride,115200
;   overridePrinterModels,0
;   printerModelsOverride
;   startingGcode,M104 S0 ;cancel S3D set temp,G21  ; set units to mm,G90  ; use absolute coordinates,T0  ; select tool 0,G92 E0.0  ; reset e count,M220 S100 ; reset speed multiplier,M140 S[bed2_temperature]  ; set bed temp and do not wait,G32  ; probe bed,M190 S[bed2_temperature]  ; set bed temperature and wait,M109 S[extruder0_temperature]  ; set print head temperature and wait,; === pause for heating ===,; reset filament monitor,M42 P63 S0,G4 P100,G4 P50,M42 P63 S1,;,G1 Z10.0 F2000  ; move up,G1 E30.0 F500  ; prime extruder,G1 X20 Y15 F9000  ; move back,G1 Z0 F1000  ; move down to begin wipe,G1 X150 E4.0 F10000  ; wipe print head (extrude material while we do this),G92 E0.0  ; reset e count
;   layerChangeGcode,
;   retractionGcode,
;   toolChangeGcode,
;   endingGcode,G91  ;relative positioning,G1 E-5.00 F1000  ;retract 5mm of filament,G1 Z+1.00 X-20.0 Y+20.0 F10000  ;short quick move to disengage from print,G90  ;absolute positioning,G1 X0.0 Y350.0 F9000  ; move head to back left corner,G91  ; relative positioning,G1 E-5.00 F500  ;retract additional filament to prevent oozing,G90 ;absolute positioning,M104 S0  ;turn off hotend,M140 S0  ;turn off heatbed,; Reset filament monitor,M42 P63 S0,G4 P100,G4 P50,M42 P63 S1,;,G1 Z315 F1000 ;move print bed down to idle position,M106 S0  ; shut off blower,M84  ;motors off,M561  ;clear bed probe transformation
;   exportFileFormat,gcode
;   celebration,0
;   celebrationSong,Random Song
;   postProcessing,
;   defaultSpeed,6000
;   outlineUnderspeed,0.6
;   solidInfillUnderspeed,0.7
;   supportUnderspeed,1
;   rapidXYspeed,21000
;   rapidZspeed,10000
;   minBridgingArea,50
;   bridgingExtraInflation,0.5
;   bridgingExtrusionMultiplier,1
;   bridgingSpeedMultiplier,0.6
;   useFixedBridgingAngle,0
;   fixedBridgingAngle,0
;   applyBridgingToPerimeters,0
;   filamentDiameters,1.71|1.71|1.71|1.71|1.71|1.71
;   filamentPricesPerKg,46|46|46|46|46|46
;   filamentDensities,1.25|1.25|1.25|1.25|1.25|1.25
;   useMinPrintHeight,0
;   minPrintHeight,13
;   useMaxPrintHeight,0
;   maxPrintHeight,13
;   useDiaphragm,0
;   diaphragmLayerInterval,20
;   robustSlicing,1
;   mergeAllIntoSolid,0
;   onlyRetractWhenCrossingOutline,1
;   retractBetweenLayers,0
;   useRetractionMinTravel,0
;   retractionMinTravel,1
;   retractWhileWiping,0
;   onlyWipeOutlines,1
;   avoidCrossingOutline,0
;   maxMovementDetourFactor,3
;   toolChangeRetractionDistance,0
;   toolChangeExtraRestartDistance,0
;   toolChangeRetractionSpeed,360
;   externalThinWallType,1
;   internalThinWallType,1
;   thinWallAllowedOverlapPercentage,50
;   singleExtrusionMinLength,1
;   singleExtrusionMinPrintingWidthPercentage,50
;   singleExtrusionMaxPrintingWidthPercentage,200
;   singleExtrusionEndpointExtension,0.2
;   horizontalSizeCompensation,0
G90
M83
M106 S0
M104 S0 ;cancel S3D set temp
G21  ; set units to mm
G90  ; use absolute coordinates
T0  ; select tool 0
G92 E0.0  ; reset e count
M220 S100 ; reset speed multiplier
M140 S45  ; set bed temp and do not wait
G32  ; probe bed
M190 S45  ; set bed temperature and wait
M109 S230  ; set print head temperature and wait
; === pause for heating ===
; reset filament monitor
M42 P63 S0
G4 P100
G4 P50
M42 P63 S1
;
G1 Z10.0 F2000  ; move up
G1 E30.0 F500  ; prime extruder
G1 X20 Y15 F9000  ; move back
G1 Z0 F1000  ; move down to begin wipe
G1 X150 E4.0 F10000  ; wipe print head (extrude material while we do this)
G92 E0.0  ; reset e count
G1 E-4.2500 F24000
G1 Z0.250 F10000
; process Process1
; layer 1, Z = 0.250
T0
; tool H0.250 W0.450
; skirt
G1 X159.999 Y160.882 F21000
G1 E4.3000 F7200
G1 X160.006 Y160.876 E0.0004 F2400
G1 X160.311 Y160.615 E0.0197
G1 X160.318 Y160.610 E0.0004
G1 X161.024 Y160.097 E0.0427
G1 X161.031 Y160.092 E0.0004
G1 X161.374 Y159.882 E0.0197
G1 X161.381 Y159.878 E0.0004
G1 X162.159 Y159.482 E0.0427
G1 X162.167 Y159.478 E0.0004
G1 X162.538 Y159.324 E0.0197
G1 X162.546 Y159.321 E0.0004
G1 X163.424 Y159.036 E0.0452
G1 X163.434 Y159.033 E0.0005
G1 X163.925 Y158.925 E0.0246
G1 X163.936 Y158.924 E0.0005
G1 X165.036 Y158.793 E0.0542
G1 X165.042 Y158.793 E0.0003
G1 X165.343 Y158.775 E0.0148
G1 X165.349 Y158.775 E0.0003
G1 X166.168 Y158.775 E0.0401
G1 X167.605 Y157.189 E0.1048
G1 X167.643 Y157.162 E0.0023
G1 X169.622 Y156.285 E0.1060
G1 X169.668 Y156.275 E0.0023
G1 X186.332 Y156.275 E0.8163
G1 X186.378 Y156.285 E0.0023
G1 X188.357 Y157.162 E0.1060
G1 X188.395 Y157.189 E0.0023
G1 X197.011 Y166.696 E0.6285
G1 X197.032 Y166.732 E0.0020
G1 X197.717 Y168.508 E0.0932
G1 X197.725 Y168.548 E0.0020
G1 X197.725 Y186.452 E0.8770
G1 X197.717 Y186.492 E0.0020
G1 X197.032 Y188.268 E0.0932
G1 X197.011 Y188.304 E0.0020
G1 X188.395 Y197.811 E0.6285
G1 X188.357 Y197.838 E0.0023
G1 X186.378 Y198.715 E0.1060
G1 X186.332 Y198.725 E0.0023
G1 X169.668 Y198.725 E0.8163
G1 X169.622 Y198.715 E0.0023
G1 X167.643 Y197.838 E0.1060
G1 X167.605 Y197.811 E0.0023
G1 X166.168 Y196.225 E0.1048
G1 X165.400 Y196.225 E0.0376
G1 X165.395 Y196.225 E0.0002
G1 X165.195 Y196.217 E0.0098
G1 X165.190 Y196.217 E0.0002
G1 X164.370 Y196.152 E0.0403
G1 X164.359 Y196.151 E0.0005
G1 X163.865 Y196.063 E0.0246
G1 X163.854 Y196.060 E0.0005
G1 X162.692 Y195.732 E0.0592
G1 X162.681 Y195.729 E0.0005
G1 X162.214 Y195.546 E0.0246
G1 X162.204 Y195.541 E0.0005
G1 X161.337 Y195.099 E0.0477
G1 X161.327 Y195.094 E0.0005
G1 X160.904 Y194.823 E0.0246
G1 X160.895 Y194.817 E0.0005
G1 X159.947 Y194.069 E0.0592
G1 X159.938 Y194.062 E0.0005
G1 X159.576 Y193.714 E0.0246
G1 X159.569 Y193.706 E0.0005
G1 X158.969 Y193.004 E0.0452
G1 X158.964 Y192.997 E0.0004
G1 X158.728 Y192.672 E0.0197
G1 X158.723 Y192.665 E0.0004
G1 X158.267 Y191.921 E0.0427
G1 X158.263 Y191.913 E0.0004
G1 X158.080 Y191.555 E0.0197
G1 X158.077 Y191.547 E0.0004
G1 X157.743 Y190.741 E0.0427
G1 X157.740 Y190.733 E0.0004
G1 X157.615 Y190.351 E0.0197
G1 X157.613 Y190.342 E0.0004
G1 X157.409 Y189.494 E0.0427
G1 X157.408 Y189.485 E0.0004
G1 X157.345 Y189.088 E0.0197
G1 X157.344 Y189.079 E0.0004
G1 X157.283 Y188.309 E0.0378
G1 X157.283 Y188.305 E0.0002
G1 X157.275 Y188.103 E0.0099
G1 X157.275 Y188.099 E0.0002
G1 X157.284 Y166.562 E1.0550
G1 X157.285 Y166.553 E0.0004
G1 X157.316 Y166.154 E0.0196
G1 X157.317 Y166.145 E0.0004
G1 X157.454 Y165.284 E0.0427
G1 X157.455 Y165.275 E0.0004
G1 X157.549 Y164.884 E0.0197
G1 X157.552 Y164.876 E0.0004
G1 X157.821 Y164.046 E0.0427
G1 X157.824 Y164.038 E0.0004
G1 X157.978 Y163.667 E0.0197
G1 X157.982 Y163.659 E0.0004
G1 X158.378 Y162.881 E0.0427
G1 X158.382 Y162.874 E0.0004
G1 X158.592 Y162.531 E0.0197
G1 X158.597 Y162.524 E0.0004
G1 X159.110 Y161.818 E0.0427
G1 X159.115 Y161.811 E0.0004
G1 X159.376 Y161.506 E0.0197
G1 X159.382 Y161.499 E0.0004
G1 X159.999 Y160.882 E0.0427
G1 E-4.2500 F24000
; outer perimeter
G1 X163.541 Y189.965 F21000
G1 E4.3000 F24000
G1 X163.256 Y189.631 E0.0215 F1440
G1 X163.028 Y189.260 E0.0213
G1 X162.861 Y188.857 E0.0213
G1 X162.760 Y188.434 E0.0213
G1 X162.725 Y187.991 E0.0218
G1 X162.734 Y166.782 E1.0389
G1 X162.802 Y166.352 E0.0213
G1 X162.937 Y165.938 E0.0213
G1 X163.135 Y165.550 E0.0213
G1 X163.393 Y165.195 E0.0215
G1 X163.538 Y165.038 E0.0105
G1 X163.695 Y164.893 E0.0105
G1 X164.050 Y164.634 E0.0215
G1 X164.438 Y164.437 E0.0213
G1 X164.857 Y164.301 E0.0215
G1 X165.062 Y164.260 E0.0102
G1 X165.509 Y164.225 E0.0220
G1 X168.584 Y164.225 E0.1506
G1 X170.850 Y161.725 E0.1653
G1 X185.150 Y161.725 E0.7005
G1 X192.275 Y169.587 E0.5197
G1 X192.275 Y185.413 E0.7753
G1 X185.150 Y193.275 E0.5197
G1 X170.850 Y193.275 E0.7005
G1 X168.584 Y190.775 E0.1653
G1 X165.509 Y190.775 E0.1506
G1 X165.062 Y190.740 E0.0220
G1 X164.857 Y190.699 E0.0102
G1 X164.438 Y190.563 E0.0215
G1 X164.050 Y190.365 E0.0213
G1 X163.695 Y190.107 E0.0215
G1 X163.541 Y189.965 E0.0102
; inner perimeter
G1 X165.918 Y190.129 F21000
G1 X166.275 Y190.035 E0.0181 F1920
G1 X166.536 Y189.915 E0.0141
G1 X166.930 Y189.645 E0.0234
G1 X167.265 Y189.278 E0.0243
G1 X167.509 Y188.845 E0.0243
G1 X167.643 Y188.387 E0.0234
G1 X167.675 Y188.101 E0.0141
G1 X167.647 Y187.625 E0.0234
G1 X167.512 Y187.167 E0.0234
G1 X167.384 Y186.909 E0.0141
G1 X167.103 Y186.524 E0.0234
G1 X166.742 Y186.212 E0.0234
G1 X166.513 Y186.074 E0.0131
G1 X166.294 Y185.974 E0.0118
G1 X166.032 Y185.889 E0.0135
G1 X165.578 Y185.824 E0.0225
G1 X165.291 Y185.833 E0.0141
G1 X164.823 Y185.928 E0.0234
G1 X164.389 Y186.127 E0.0234
G1 X164.152 Y186.290 E0.0141
G1 X163.811 Y186.623 E0.0234
G1 X163.543 Y187.042 E0.0243
G1 X163.362 Y187.550 E0.0264
G1 X163.175 Y187.518 E0.0093
G1 X163.176 Y185.175 E0.1148
G1 X172.113 Y185.175 E0.4378
G1 X172.274 Y185.299 E0.0099
G1 X172.990 Y185.777 E0.0422
G1 X173.383 Y186.003 E0.0222
G1 X174.165 Y186.383 E0.0426
G1 X174.977 Y186.691 E0.0426
G1 X175.404 Y186.820 E0.0218
G1 X175.571 Y186.863 E0.0084
G1 X175.391 Y187.396 E0.0276
G1 X175.324 Y187.913 E0.0255
G1 X175.357 Y188.432 E0.0255
G1 X175.487 Y188.920 E0.0247
G1 X175.603 Y189.190 E0.0144
G1 X175.867 Y189.619 E0.0247
G1 X176.221 Y190.001 E0.0255
G1 X176.642 Y190.308 E0.0255
G1 X177.115 Y190.527 E0.0255
G1 X177.621 Y190.651 E0.0255
G1 X178.141 Y190.674 E0.0255
G1 X178.640 Y190.599 E0.0247
G1 X178.921 Y190.513 E0.0144
G1 X179.377 Y190.297 E0.0247
G1 X179.782 Y189.997 E0.0247
G1 X179.990 Y189.790 E0.0144
G1 X180.282 Y189.399 E0.0239
G1 X180.413 Y189.155 E0.0136
G1 X180.521 Y188.899 E0.0136
G1 X180.646 Y188.411 E0.0247
G1 X180.675 Y187.907 E0.0247
G1 X180.648 Y187.615 E0.0144
G1 X180.535 Y187.141 E0.0239
G1 X180.422 Y186.859 E0.0148
G1 X181.063 Y186.678 E0.0327
G1 X181.900 Y186.355 E0.0439
G1 X182.703 Y185.956 E0.0439
G1 X183.465 Y185.484 E0.0439
G1 X184.181 Y184.944 E0.0439
G1 X184.843 Y184.340 E0.0439
G1 X185.222 Y183.925 E0.0275
G1 X189.035 Y183.925 E0.1868
G1 X189.035 Y171.075 E0.6295
G1 X185.221 Y171.075 E0.1868
G1 X184.841 Y170.657 E0.0277
G1 X184.180 Y170.055 E0.0438
G1 X183.473 Y169.522 E0.0434
G1 X183.086 Y169.269 E0.0227
G1 X182.318 Y168.842 E0.0430
G1 X181.900 Y168.645 E0.0227
G1 X181.073 Y168.325 E0.0434
G1 X180.214 Y168.081 E0.0438
G1 X179.913 Y168.025 E0.0150
G1 X180.065 Y167.689 E0.0181
G1 X180.138 Y167.411 E0.0141
G1 X180.178 Y166.935 E0.0234
G1 X180.110 Y166.463 E0.0234
G1 X180.021 Y166.190 E0.0141
G1 X179.807 Y165.785 E0.0224
G1 X179.631 Y165.558 E0.0141
G1 X179.279 Y165.235 E0.0234
G1 X178.863 Y165.001 E0.0234
G1 X178.592 Y164.905 E0.0141
G1 X178.122 Y164.824 E0.0234
G1 X177.626 Y164.853 E0.0243
G1 X177.149 Y164.994 E0.0243
G1 X176.734 Y165.229 E0.0234
G1 X176.512 Y165.411 E0.0141
G1 X176.199 Y165.772 E0.0234
G1 X175.968 Y166.212 E0.0243
G1 X175.847 Y166.674 E0.0234
G1 X175.823 Y166.960 E0.0141
G1 X175.863 Y167.416 E0.0224
G1 X175.936 Y167.694 E0.0141
G1 X176.087 Y168.024 E0.0178
G1 X175.824 Y168.072 E0.0131
G1 X174.980 Y168.308 E0.0430
G1 X174.160 Y168.619 E0.0430
G1 X173.372 Y169.003 E0.0430
G1 X172.628 Y169.453 E0.0426
G1 X172.263 Y169.709 E0.0218
G1 X172.113 Y169.825 E0.0093
G1 X163.183 Y169.825 E0.4374
G1 X163.184 Y167.508 E0.1135
G1 X163.377 Y167.481 E0.0095
G1 X163.458 Y167.754 E0.0140
G1 X163.661 Y168.165 E0.0224
G1 X163.818 Y168.381 E0.0131
G1 X163.981 Y168.558 E0.0118
G1 X164.189 Y168.738 E0.0135
G1 X164.582 Y168.974 E0.0225
G1 X164.850 Y169.078 E0.0141
G1 X165.318 Y169.172 E0.0234
G1 X165.815 Y169.156 E0.0243
G1 X166.295 Y169.029 E0.0243
G1 X166.717 Y168.805 E0.0234
G1 X166.929 Y168.641 E0.0131
G1 X167.120 Y168.454 E0.0131
G1 X167.400 Y168.068 E0.0234
G1 X167.592 Y167.609 E0.0243
G1 X167.673 Y167.139 E0.0234
G1 X167.672 Y166.852 E0.0141
G1 X167.590 Y166.381 E0.0234
G1 X167.395 Y165.924 E0.0243
G1 X167.102 Y165.523 E0.0243
G1 X166.726 Y165.198 E0.0243
G1 X166.286 Y164.967 E0.0243
G1 X165.918 Y164.871 E0.0187
G1 X165.943 Y164.675 E0.0097
G1 X168.784 Y164.675 E0.1392
G1 X171.049 Y162.175 E0.1653
G1 X184.951 Y162.175 E0.6810
G1 X191.825 Y169.760 E0.5015
G1 X191.825 Y185.240 E0.7583
G1 X184.951 Y192.825 E0.5015
G1 X171.049 Y192.825 E0.6810
G1 X168.784 Y190.325 E0.1653
G1 X165.944 Y190.325 E0.1391
G1 X165.918 Y190.129 E0.0097
G1 X167.452 Y189.741 F21000
G1 X167.632 Y189.544 E0.0131 F1920
G1 X167.926 Y189.021 E0.0294
G1 X168.085 Y188.476 E0.0278
G1 X168.126 Y188.114 E0.0179
G1 X168.093 Y187.547 E0.0278
G1 X167.932 Y187.002 E0.0278
