; G-Code generated by Simplify3D(R) Version 4.0.1
; Nov 10, 2022 at 4:05:51 PM
; Settings Summary
;   processName,Process1
;   applyToModels,1.95InchRingTest
;   profileName,F410_0.4C_PLA (modified)
;   profileVersion,2022-03-09 09:51:28
;   baseProfile,F400_PLA
;   printMaterial,
;   printQuality,Standard
;   printExtruders,
;   extruderName,Primary Extruder
;   extruderToolheadNumber,0
;   extruderDiameter,0.4
;   extruderAutoWidth,0
;   extruderWidth,0.45
;   extrusionMultiplier,1
;   extruderUseRetract,1
;   extruderRetractionDistance,4.25
;   extruderExtraRestartDistance,0.05
;   extruderRetractionZLift,0
;   extruderRetractionSpeed,24000
;   extruderUseCoasting,0
;   extruderCoastingDistance,0.5
;   extruderUseWipe,0
;   extruderWipeDistance,5
;   primaryExtruder,0
;   layerHeight,0.2
;   topSolidLayers,3
;   bottomSolidLayers,3
;   perimeterOutlines,2
;   printPerimetersInsideOut,0
;   startPointOption,3
;   startPointOriginX,0
;   startPointOriginY,360
;   sequentialIslands,0
;   spiralVaseMode,0
;   firstLayerHeightPercentage,100
;   firstLayerWidthPercentage,100
;   firstLayerUnderspeed,0.4
;   useRaft,0
;   raftExtruder,0
;   raftTopLayers,2
;   raftBaseLayers,0
;   raftOffset,4
;   raftSeparationDistance,0.15
;   raftTopInfill,100
;   aboveRaftSpeedMultiplier,0.3
;   useSkirt,1
;   skirtExtruder,0
;   skirtLayers,1
;   skirtOutlines,1
;   skirtOffset,5
;   usePrimePillar,0
;   primePillarExtruder,999
;   primePillarWidth,12
;   primePillarLocation,7
;   primePillarSpeedMultiplier,1
;   useOozeShield,0
;   oozeShieldExtruder,999
;   oozeShieldOffset,2
;   oozeShieldOutlines,1
;   oozeShieldSidewallShape,1
;   oozeShieldSidewallAngle,30
;   oozeShieldSpeedMultiplier,1
;   infillExtruder,0
;   internalInfillPattern,Rectilinear
;   externalInfillPattern,Rectilinear
;   infillPercentage,30
;   outlineOverlapPercentage,20
;   infillExtrusionWidthPercentage,100
;   minInfillLength,5
;   infillLayerInterval,1
;   internalInfillAngles,45,-45
;   overlapInternalInfillAngles,0
;   externalInfillAngles,45,-45
;   generateSupport,0
;   supportExtruder,0
;   supportInfillPercentage,30
;   supportExtraInflation,0.5
;   supportBaseLayers,0
;   denseSupportExtruder,0
;   denseSupportLayers,0
;   denseSupportInfillPercentage,70
;   supportLayerInterval,1
;   supportHorizontalPartOffset,0.35
;   supportUpperSeparationLayers,1
;   supportLowerSeparationLayers,1
;   supportType,0
;   supportGridSpacing,2
;   maxOverhangAngle,45
;   supportAngles,45
;   temperatureName,Primary Extruder,Heated Bed
;   temperatureNumber,0,2
;   temperatureSetpointCount,1,1
;   temperatureSetpointLayers,1,1
;   temperatureSetpointTemperatures,230,45
;   temperatureStabilizeAtStartup,0,0
;   temperatureHeatedBed,0,1
;   temperatureRelayBetweenLayers,0,0
;   temperatureRelayBetweenLoops,0,0
;   fanLayers,1,3,4,5
;   fanSpeeds,0,25,50,100
;   blipFanToFullPower,0
;   adjustSpeedForCooling,1
;   minSpeedLayerTime,5
;   minCoolingSpeedSlowdown,30
;   increaseFanForCooling,1
;   minFanLayerTime,13
;   maxCoolingFanSpeed,100
;   increaseFanForBridging,1
;   bridgingFanSpeed,100
;   use5D,1
;   relativeEdistances,1
;   allowEaxisZeroing,1
;   independentExtruderAxes,0
;   includeM10123,0
;   stickySupport,1
;   applyToolheadOffsets,0
;   gcodeXoffset,0
;   gcodeYoffset,0
;   gcodeZoffset,0
;   overrideMachineDefinition,1
;   machineTypeOverride,0
;   strokeXoverride,355
;   strokeYoverride,355
;   strokeZoverride,315
;   originOffsetXoverride,0
;   originOffsetYoverride,0
;   originOffsetZoverride,0
;   homeXdirOverride,1
;   homeYdirOverride,-1
;   homeZdirOverride,1
;   flipXoverride,1
;   flipYoverride,-1
;   flipZoverride,1
;   toolheadOffsets,0,0|0,0|0,0|0,0|0,0|0,0
;   overrideFirmwareConfiguration,1
;   firmwareTypeOverride,RepRap (Marlin/Repetier/Sprinter)
;   GPXconfigOverride,r2
;   baudRateOverride,115200
;   overridePrinterModels,0
;   printerModelsOverride
;   startingGcode,M104 S0 ;cancel S3D set temp,G21  ; set units to mm,G90  ; use absolute coordinates,T0  ; select tool 0,G92 E0.0  ; reset e count,M220 S100 ; reset speed multiplier,M140 S[bed2_temperature]  ; set bed temp and do not wait,G32  ; probe bed,M190 S[bed2_temperature]  ; set bed temperature and wait,M109 S[extruder0_temperature]  ; set print head temperature and wait,; === pause for heating ===,; reset filament monitor,M42 P63 S0,G4 P100,G4 P50,M42 P63 S1,;,G1 Z10.0 F2000  ; move up,G1 E30.0 F500  ; prime extruder,G1 X20 Y15 F9000  ; move back,G1 Z0 F1000  ; move down to begin wipe,G1 X150 E4.0 F10000  ; wipe print head (extrude material while we do this),G92 E0.0  ; reset e count
;   layerChangeGcode,
;   retractionGcode,
;   toolChangeGcode,
;   endingGcode,G91  ;relative positioning,G1 E-5.00 F1000  ;retract 5mm of filament,G1 Z+1.00 X-20.0 Y+20.0 F10000  ;short quick move to disengage from print,G90  ;absolute positioning,G1 X0.0 Y350.0 F9000  ; move head to back left corner,G91  ; relative positioning,G1 E-5.00 F500  ;retract additional filament to prevent oozing,G90 ;absolute positioning,M104 S0  ;turn off hotend,M140 S0  ;turn off heatbed,; Reset filament monitor,M42 P63 S0,G4 P100,G4 P50,M42 P63 S1,;,G1 Z315 F1000 ;move print bed down to idle position,M106 S0  ; shut off blower,M84  ;motors off,M561  ;clear bed probe transformation
;   exportFileFormat,gcode
;   celebration,0
;   celebrationSong,Random Song
;   postProcessing,
;   defaultSpeed,6000
;   outlineUnderspeed,0.6
;   solidInfillUnderspeed,0.7
;   supportUnderspeed,1
;   rapidXYspeed,21000
;   rapidZspeed,10000
;   minBridgingArea,50
;   bridgingExtraInflation,0.5
;   bridgingExtrusionMultiplier,1
;   bridgingSpeedMultiplier,0.6
;   useFixedBridgingAngle,0
;   fixedBridgingAngle,0
;   applyBridgingToPerimeters,0
;   filamentDiameters,1.71|1.71|1.71|1.71|1.71|1.71
;   filamentPricesPerKg,46|46|46|46|46|46
;   filamentDensities,1.25|1.25|1.25|1.25|1.25|1.25
;   useMinPrintHeight,0
;   minPrintHeight,13
;   useMaxPrintHeight,0
;   maxPrintHeight,13
;   useDiaphragm,0
;   diaphragmLayerInterval,20
;   robustSlicing,1
;   mergeAllIntoSolid,0
;   onlyRetractWhenCrossingOutline,1
;   retractBetweenLayers,0
;   useRetractionMinTravel,0
;   retractionMinTravel,1
;   retractWhileWiping,0
;   onlyWipeOutlines,1
;   avoidCrossingOutline,0
;   maxMovementDetourFactor,3
;   toolChangeRetractionDistance,0
;   toolChangeExtraRestartDistance,0
;   toolChangeRetractionSpeed,360
;   externalThinWallType,1
;   internalThinWallType,1
;   thinWallAllowedOverlapPercentage,50
;   singleExtrusionMinLength,1
;   singleExtrusionMinPrintingWidthPercentage,50
;   singleExtrusionMaxPrintingWidthPercentage,200
;   singleExtrusionEndpointExtension,0.2
;   horizontalSizeCompensation,0
G90
M83
M106 S0
M104 S0 ;cancel S3D set temp
G21  ; set units to mm
G90  ; use absolute coordinates
T0  ; select tool 0
G92 E0.0  ; reset e count
M220 S100 ; reset speed multiplier
M140 S45  ; set bed temp and do not wait
G32  ; probe bed
M190 S45  ; set bed temperature and wait
M109 S230  ; set print head temperature and wait
; === pause for heating ===
; reset filament monitor
M42 P63 S0
G4 P100
G4 P50
M42 P63 S1
;
G1 Z10.0 F2000  ; move up
G1 E30.0 F500  ; prime extruder
G1 X20 Y15 F9000  ; move back
G1 Z0 F1000  ; move down to begin wipe
G1 X150 E4.0 F10000  ; wipe print head (extrude material while we do this)
G92 E0.0  ; reset e count
G1 E-4.2500 F24000
G1 Z0.200 F10000
; process Process1
; layer 1, Z = 0.200
T0
; tool H0.200 W0.450
; skirt
G1 X156.085 Y156.510 F21000
G1 E4.3000 F7200
G1 X156.088 Y156.508 E0.0001 F2400
G1 X156.195 Y156.399 E0.0060
G1 X156.197 Y156.396 E0.0001
G1 X157.379 Y155.267 E0.0641
G1 X157.381 Y155.264 E0.0001
G1 X157.495 Y155.162 E0.0060
G1 X157.498 Y155.160 E0.0001
G1 X158.745 Y154.103 E0.0641
G1 X158.747 Y154.101 E0.0001
G1 X158.867 Y154.005 E0.0060
G1 X158.870 Y154.003 E0.0001
G1 X160.178 Y153.023 E0.0641
G1 X160.180 Y153.021 E0.0001
G1 X160.305 Y152.933 E0.0060
G1 X160.308 Y152.931 E0.0001
G1 X161.672 Y152.030 E0.0641
G1 X161.675 Y152.028 E0.0001
G1 X161.805 Y151.948 E0.0060
G1 X161.808 Y151.946 E0.0001
G1 X163.224 Y151.129 E0.0641
G1 X163.227 Y151.127 E0.0001
G1 X163.362 Y151.055 E0.0060
G1 X163.365 Y151.053 E0.0001
G1 X164.827 Y150.322 E0.0641
G1 X164.830 Y150.320 E0.0001
G1 X164.968 Y150.256 E0.0060
G1 X164.972 Y150.255 E0.0001
G1 X166.475 Y149.612 E0.0641
G1 X166.478 Y149.611 E0.0001
G1 X166.620 Y149.555 E0.0060
G1 X166.623 Y149.554 E0.0001
G1 X168.162 Y149.003 E0.0641
G1 X168.165 Y149.001 E0.0001
G1 X168.311 Y148.954 E0.0060
G1 X168.314 Y148.953 E0.0001
G1 X169.883 Y148.495 E0.0641
G1 X169.886 Y148.494 E0.0001
G1 X170.034 Y148.455 E0.0060
G1 X170.038 Y148.455 E0.0001
G1 X171.631 Y148.091 E0.0641
G1 X171.635 Y148.090 E0.0001
G1 X171.785 Y148.061 E0.0060
G1 X171.788 Y148.060 E0.0001
G1 X173.401 Y147.792 E0.0641
G1 X173.404 Y147.792 E0.0001
G1 X173.556 Y147.771 E0.0060
G1 X173.559 Y147.771 E0.0001
G1 X175.185 Y147.600 E0.0641
G1 X175.188 Y147.600 E0.0001
G1 X175.341 Y147.588 E0.0060
G1 X175.344 Y147.588 E0.0001
G1 X176.977 Y147.515 E0.0641
G1 X176.980 Y147.514 E0.0001
G1 X177.133 Y147.512 E0.0060
G1 X177.137 Y147.512 E0.0001
G1 X178.771 Y147.537 E0.0641
G1 X178.775 Y147.537 E0.0001
G1 X178.927 Y147.544 E0.0060
G1 X178.931 Y147.544 E0.0001
G1 X180.561 Y147.666 E0.0641
G1 X180.564 Y147.666 E0.0001
G1 X180.716 Y147.682 E0.0060
G1 X180.720 Y147.683 E0.0001
G1 X182.340 Y147.902 E0.0641
G1 X182.343 Y147.903 E0.0001
G1 X182.494 Y147.928 E0.0060
G1 X182.497 Y147.928 E0.0001
G1 X184.101 Y148.244 E0.0641
G1 X184.104 Y148.245 E0.0001
G1 X184.253 Y148.279 E0.0060
G1 X184.257 Y148.280 E0.0001
G1 X185.839 Y148.691 E0.0641
G1 X185.842 Y148.692 E0.0001
G1 X185.989 Y148.735 E0.0060
G1 X185.992 Y148.736 E0.0001
G1 X187.547 Y149.241 E0.0641
G1 X187.550 Y149.242 E0.0001
G1 X187.694 Y149.294 E0.0060
G1 X187.697 Y149.295 E0.0001
G1 X189.219 Y149.892 E0.0641
G1 X189.222 Y149.893 E0.0001
G1 X189.363 Y149.953 E0.0060
G1 X189.366 Y149.955 E0.0001
G1 X190.849 Y150.642 E0.0641
G1 X190.852 Y150.643 E0.0001
G1 X190.989 Y150.712 E0.0060
G1 X190.992 Y150.713 E0.0001
G1 X192.431 Y151.488 E0.0641
G1 X192.434 Y151.490 E0.0001
G1 X192.567 Y151.566 E0.0060
G1 X192.570 Y151.568 E0.0001
G1 X193.960 Y152.427 E0.0641
G1 X193.963 Y152.429 E0.0001
G1 X194.091 Y152.513 E0.0060
G1 X194.094 Y152.515 E0.0001
G1 X195.430 Y153.456 E0.0641
G1 X195.433 Y153.458 E0.0001
G1 X195.555 Y153.550 E0.0060
G1 X195.558 Y153.552 E0.0001
G1 X196.836 Y154.571 E0.0641
G1 X196.839 Y154.573 E0.0001
G1 X196.955 Y154.672 E0.0060
G1 X196.958 Y154.674 E0.0001
G1 X198.173 Y155.768 E0.0641
G1 X198.175 Y155.771 E0.0001
G1 X198.286 Y155.876 E0.0060
G1 X198.288 Y155.879 E0.0001
G1 X199.435 Y157.043 E0.0641
G1 X199.438 Y157.046 E0.0001
G1 X199.542 Y157.158 E0.0060
G1 X199.544 Y157.160 E0.0001
G1 X200.620 Y158.391 E0.0641
G1 X200.622 Y158.394 E0.0001
G1 X200.719 Y158.512 E0.0060
G1 X200.721 Y158.515 E0.0001
G1 X201.721 Y159.808 E0.0641
G1 X201.723 Y159.810 E0.0001
G1 X201.813 Y159.934 E0.0060
G1 X201.815 Y159.937 E0.0001
G1 X202.736 Y161.288 E0.0641
G1 X202.738 Y161.290 E0.0001
G1 X202.820 Y161.419 E0.0060
G1 X202.822 Y161.422 E0.0001
G1 X203.660 Y162.825 E0.0641
G1 X203.662 Y162.828 E0.0001
G1 X203.736 Y162.962 E0.0060
G1 X203.738 Y162.965 E0.0001
G1 X204.491 Y164.416 E0.0641
G1 X204.492 Y164.419 E0.0001
G1 X204.559 Y164.557 E0.0060
G1 X204.560 Y164.560 E0.0001
G1 X205.225 Y166.053 E0.0641
G1 X205.226 Y166.056 E0.0001
G1 X205.284 Y166.198 E0.0060
G1 X205.286 Y166.201 E0.0001
G1 X205.860 Y167.731 E0.0641
G1 X205.861 Y167.735 E0.0001
G1 X205.911 Y167.879 E0.0060
G1 X205.912 Y167.882 E0.0001
G1 X206.393 Y169.445 E0.0641
G1 X206.394 Y169.448 E0.0001
G1 X206.435 Y169.595 E0.0060
G1 X206.436 Y169.599 E0.0001
G1 X206.824 Y171.187 E0.0641
G1 X206.824 Y171.190 E0.0001
G1 X206.856 Y171.340 E0.0060
G1 X206.857 Y171.343 E0.0001
G1 X207.149 Y172.951 E0.0641
G1 X207.149 Y172.955 E0.0001
G1 X207.172 Y173.106 E0.0060
G1 X207.172 Y173.109 E0.0001
G1 X207.368 Y174.732 E0.0641
G1 X207.368 Y174.736 E0.0001
G1 X207.382 Y174.888 E0.0060
G1 X207.382 Y174.891 E0.0001
G1 X207.480 Y176.523 E0.0641
G1 X207.480 Y176.526 E0.0001
G1 X207.484 Y176.679 E0.0060
G1 X207.484 Y176.683 E0.0001
G1 X207.484 Y178.317 E0.0641
G1 X207.484 Y178.321 E0.0001
G1 X207.480 Y178.474 E0.0060
G1 X207.480 Y178.477 E0.0001
G1 X207.382 Y180.109 E0.0641
G1 X207.382 Y180.112 E0.0001
G1 X207.368 Y180.264 E0.0060
G1 X207.368 Y180.268 E0.0001
G1 X207.172 Y181.891 E0.0641
G1 X207.172 Y181.894 E0.0001
G1 X207.149 Y182.045 E0.0060
G1 X207.149 Y182.049 E0.0001
G1 X206.857 Y183.657 E0.0641
G1 X206.856 Y183.660 E0.0001
G1 X206.824 Y183.810 E0.0060
G1 X206.824 Y183.813 E0.0001
G1 X206.436 Y185.401 E0.0641
G1 X206.435 Y185.405 E0.0001
G1 X206.394 Y185.552 E0.0060
G1 X206.393 Y185.555 E0.0001
G1 X205.912 Y187.118 E0.0641
G1 X205.911 Y187.121 E0.0001
G1 X205.861 Y187.265 E0.0060
G1 X205.860 Y187.269 E0.0001
G1 X205.286 Y188.799 E0.0641
G1 X205.284 Y188.802 E0.0001
G1 X205.226 Y188.944 E0.0060
G1 X205.225 Y188.947 E0.0001
G1 X204.560 Y190.440 E0.0641
G1 X204.559 Y190.443 E0.0001
G1 X204.492 Y190.581 E0.0060
G1 X204.491 Y190.584 E0.0001
G1 X203.738 Y192.035 E0.0641
G1 X203.736 Y192.038 E0.0001
G1 X203.662 Y192.172 E0.0060
G1 X203.660 Y192.175 E0.0001
G1 X202.822 Y193.578 E0.0641
G1 X202.820 Y193.581 E0.0001
G1 X202.738 Y193.710 E0.0060
G1 X202.736 Y193.712 E0.0001
G1 X201.815 Y195.063 E0.0641
G1 X201.813 Y195.066 E0.0001
G1 X201.723 Y195.190 E0.0060
G1 X201.721 Y195.192 E0.0001
G1 X200.721 Y196.485 E0.0641
G1 X200.719 Y196.488 E0.0001
G1 X200.622 Y196.606 E0.0060
G1 X200.620 Y196.609 E0.0001
G1 X199.544 Y197.840 E0.0641
G1 X199.542 Y197.842 E0.0001
G1 X199.438 Y197.954 E0.0060
G1 X199.435 Y197.957 E0.0001
G1 X198.288 Y199.121 E0.0641
G1 X198.286 Y199.124 E0.0001
G1 X198.175 Y199.229 E0.0060
G1 X198.173 Y199.232 E0.0001
G1 X196.958 Y200.326 E0.0641
G1 X196.955 Y200.328 E0.0001
G1 X196.839 Y200.427 E0.0060
G1 X196.836 Y200.429 E0.0001
G1 X195.558 Y201.448 E0.0641
G1 X195.555 Y201.450 E0.0001
G1 X195.433 Y201.542 E0.0060
G1 X195.430 Y201.544 E0.0001
G1 X194.094 Y202.485 E0.0641
G1 X194.091 Y202.487 E0.0001
G1 X193.963 Y202.571 E0.0060
G1 X193.960 Y202.573 E0.0001
G1 X192.570 Y203.432 E0.0641
G1 X192.567 Y203.434 E0.0001
G1 X192.434 Y203.510 E0.0060
G1 X192.431 Y203.512 E0.0001
G1 X190.992 Y204.287 E0.0641
G1 X190.989 Y204.288 E0.0001
G1 X190.852 Y204.357 E0.0060
G1 X190.849 Y204.358 E0.0001
G1 X189.366 Y205.045 E0.0641
G1 X189.363 Y205.047 E0.0001
G1 X189.222 Y205.107 E0.0060
G1 X189.219 Y205.108 E0.0001
G1 X187.697 Y205.705 E0.0641
G1 X187.694 Y205.706 E0.0001
G1 X187.550 Y205.758 E0.0060
G1 X187.547 Y205.759 E0.0001
G1 X185.992 Y206.264 E0.0641
G1 X185.989 Y206.265 E0.0001
G1 X185.842 Y206.308 E0.0060
G1 X185.839 Y206.309 E0.0001
G1 X184.257 Y206.720 E0.0641
G1 X184.253 Y206.721 E0.0001
G1 X184.104 Y206.755 E0.0060
G1 X184.101 Y206.756 E0.0001
G1 X182.497 Y207.072 E0.0641
G1 X182.494 Y207.072 E0.0001
G1 X182.343 Y207.097 E0.0060
G1 X182.340 Y207.098 E0.0001
G1 X180.720 Y207.317 E0.0641
G1 X180.716 Y207.318 E0.0001
G1 X180.564 Y207.334 E0.0060
G1 X180.561 Y207.334 E0.0001
G1 X178.931 Y207.456 E0.0641
G1 X178.927 Y207.456 E0.0001
G1 X178.775 Y207.463 E0.0060
G1 X178.771 Y207.463 E0.0001
G1 X177.137 Y207.488 E0.0641
G1 X177.133 Y207.488 E0.0001
G1 X176.980 Y207.485 E0.0060
G1 X176.977 Y207.485 E0.0001
G1 X175.344 Y207.412 E0.0641
G1 X175.341 Y207.412 E0.0001
G1 X175.188 Y207.400 E0.0060
G1 X175.185 Y207.400 E0.0001
G1 X173.559 Y207.229 E0.0641
G1 X173.556 Y207.229 E0.0001
G1 X173.404 Y207.208 E0.0060
G1 X173.401 Y207.208 E0.0001
G1 X171.788 Y206.940 E0.0641
G1 X171.785 Y206.939 E0.0001
G1 X171.635 Y206.910 E0.0060
G1 X171.631 Y206.909 E0.0001
G1 X170.038 Y206.545 E0.0641
G1 X170.034 Y206.545 E0.0001
G1 X169.886 Y206.506 E0.0060
G1 X169.883 Y206.505 E0.0001
G1 X168.314 Y206.047 E0.0641
G1 X168.311 Y206.046 E0.0001
G1 X168.165 Y205.999 E0.0060
G1 X168.162 Y205.997 E0.0001
G1 X166.623 Y205.446 E0.0641
G1 X166.620 Y205.445 E0.0001
G1 X166.478 Y205.389 E0.0060
G1 X166.475 Y205.388 E0.0001
G1 X164.972 Y204.745 E0.0641
G1 X164.968 Y204.744 E0.0001
