; G-Code generated by Simplify3D(R) Version 4.0.1
; Nov 10, 2022 at 3:06:13 PM
; Settings Summary
;   processName,Process1
;   applyToModels,2InchRingTest
;   profileName,F410_0.4C_PLA (modified)
;   profileVersion,2022-03-09 09:51:28
;   baseProfile,F400_PLA
;   printMaterial,
;   printQuality,Standard
;   printExtruders,
;   extruderName,Primary Extruder
;   extruderToolheadNumber,0
;   extruderDiameter,0.4
;   extruderAutoWidth,0
;   extruderWidth,0.45
;   extrusionMultiplier,1
;   extruderUseRetract,1
;   extruderRetractionDistance,4.25
;   extruderExtraRestartDistance,0.05
;   extruderRetractionZLift,0
;   extruderRetractionSpeed,24000
;   extruderUseCoasting,0
;   extruderCoastingDistance,0.5
;   extruderUseWipe,0
;   extruderWipeDistance,5
;   primaryExtruder,0
;   layerHeight,0.2
;   topSolidLayers,3
;   bottomSolidLayers,3
;   perimeterOutlines,2
;   printPerimetersInsideOut,0
;   startPointOption,3
;   startPointOriginX,0
;   startPointOriginY,360
;   sequentialIslands,0
;   spiralVaseMode,0
;   firstLayerHeightPercentage,100
;   firstLayerWidthPercentage,100
;   firstLayerUnderspeed,0.4
;   useRaft,0
;   raftExtruder,0
;   raftTopLayers,2
;   raftBaseLayers,0
;   raftOffset,4
;   raftSeparationDistance,0.15
;   raftTopInfill,100
;   aboveRaftSpeedMultiplier,0.3
;   useSkirt,1
;   skirtExtruder,0
;   skirtLayers,1
;   skirtOutlines,1
;   skirtOffset,5
;   usePrimePillar,0
;   primePillarExtruder,999
;   primePillarWidth,12
;   primePillarLocation,7
;   primePillarSpeedMultiplier,1
;   useOozeShield,0
;   oozeShieldExtruder,999
;   oozeShieldOffset,2
;   oozeShieldOutlines,1
;   oozeShieldSidewallShape,1
;   oozeShieldSidewallAngle,30
;   oozeShieldSpeedMultiplier,1
;   infillExtruder,0
;   internalInfillPattern,Rectilinear
;   externalInfillPattern,Rectilinear
;   infillPercentage,30
;   outlineOverlapPercentage,20
;   infillExtrusionWidthPercentage,100
;   minInfillLength,5
;   infillLayerInterval,1
;   internalInfillAngles,45,-45
;   overlapInternalInfillAngles,0
;   externalInfillAngles,45,-45
;   generateSupport,0
;   supportExtruder,0
;   supportInfillPercentage,30
;   supportExtraInflation,0.5
;   supportBaseLayers,0
;   denseSupportExtruder,0
;   denseSupportLayers,0
;   denseSupportInfillPercentage,70
;   supportLayerInterval,1
;   supportHorizontalPartOffset,0.35
;   supportUpperSeparationLayers,1
;   supportLowerSeparationLayers,1
;   supportType,0
;   supportGridSpacing,2
;   maxOverhangAngle,45
;   supportAngles,45
;   temperatureName,Primary Extruder,Heated Bed
;   temperatureNumber,0,2
;   temperatureSetpointCount,1,1
;   temperatureSetpointLayers,1,1
;   temperatureSetpointTemperatures,230,45
;   temperatureStabilizeAtStartup,0,0
;   temperatureHeatedBed,0,1
;   temperatureRelayBetweenLayers,0,0
;   temperatureRelayBetweenLoops,0,0
;   fanLayers,1,3,4,5
;   fanSpeeds,0,25,50,100
;   blipFanToFullPower,0
;   adjustSpeedForCooling,1
;   minSpeedLayerTime,5
;   minCoolingSpeedSlowdown,30
;   increaseFanForCooling,1
;   minFanLayerTime,13
;   maxCoolingFanSpeed,100
;   increaseFanForBridging,1
;   bridgingFanSpeed,100
;   use5D,1
;   relativeEdistances,1
;   allowEaxisZeroing,1
;   independentExtruderAxes,0
;   includeM10123,0
;   stickySupport,1
;   applyToolheadOffsets,0
;   gcodeXoffset,0
;   gcodeYoffset,0
;   gcodeZoffset,0
;   overrideMachineDefinition,1
;   machineTypeOverride,0
;   strokeXoverride,355
;   strokeYoverride,355
;   strokeZoverride,315
;   originOffsetXoverride,0
;   originOffsetYoverride,0
;   originOffsetZoverride,0
;   homeXdirOverride,1
;   homeYdirOverride,-1
;   homeZdirOverride,1
;   flipXoverride,1
;   flipYoverride,-1
;   flipZoverride,1
;   toolheadOffsets,0,0|0,0|0,0|0,0|0,0|0,0
;   overrideFirmwareConfiguration,1
;   firmwareTypeOverride,RepRap (Marlin/Repetier/Sprinter)
;   GPXconfigOverride,r2
;   baudRateOverride,115200
;   overridePrinterModels,0
;   printerModelsOverride
;   startingGcode,M104 S0 ;cancel S3D set temp,G21  ; set units to mm,G90  ; use absolute coordinates,T0  ; select tool 0,G92 E0.0  ; reset e count,M220 S100 ; reset speed multiplier,M140 S[bed2_temperature]  ; set bed temp and do not wait,G32  ; probe bed,M190 S[bed2_temperature]  ; set bed temperature and wait,M109 S[extruder0_temperature]  ; set print head temperature and wait,; === pause for heating ===,; reset filament monitor,M42 P63 S0,G4 P100,G4 P50,M42 P63 S1,;,G1 Z10.0 F2000  ; move up,G1 E30.0 F500  ; prime extruder,G1 X20 Y15 F9000  ; move back,G1 Z0 F1000  ; move down to begin wipe,G1 X150 E4.0 F10000  ; wipe print head (extrude material while we do this),G92 E0.0  ; reset e count
;   layerChangeGcode,
;   retractionGcode,
;   toolChangeGcode,
;   endingGcode,G91  ;relative positioning,G1 E-5.00 F1000  ;retract 5mm of filament,G1 Z+1.00 X-20.0 Y+20.0 F10000  ;short quick move to disengage from print,G90  ;absolute positioning,G1 X0.0 Y350.0 F9000  ; move head to back left corner,G91  ; relative positioning,G1 E-5.00 F500  ;retract additional filament to prevent oozing,G90 ;absolute positioning,M104 S0  ;turn off hotend,M140 S0  ;turn off heatbed,; Reset filament monitor,M42 P63 S0,G4 P100,G4 P50,M42 P63 S1,;,G1 Z315 F1000 ;move print bed down to idle position,M106 S0  ; shut off blower,M84  ;motors off,M561  ;clear bed probe transformation
;   exportFileFormat,gcode
;   celebration,0
;   celebrationSong,Random Song
;   postProcessing,
;   defaultSpeed,6000
;   outlineUnderspeed,0.6
;   solidInfillUnderspeed,0.7
;   supportUnderspeed,1
;   rapidXYspeed,21000
;   rapidZspeed,10000
;   minBridgingArea,50
;   bridgingExtraInflation,0.5
;   bridgingExtrusionMultiplier,1
;   bridgingSpeedMultiplier,0.6
;   useFixedBridgingAngle,0
;   fixedBridgingAngle,0
;   applyBridgingToPerimeters,0
;   filamentDiameters,1.71|1.71|1.71|1.71|1.71|1.71
;   filamentPricesPerKg,46|46|46|46|46|46
;   filamentDensities,1.25|1.25|1.25|1.25|1.25|1.25
;   useMinPrintHeight,0
;   minPrintHeight,13
;   useMaxPrintHeight,0
;   maxPrintHeight,13
;   useDiaphragm,0
;   diaphragmLayerInterval,20
;   robustSlicing,1
;   mergeAllIntoSolid,0
;   onlyRetractWhenCrossingOutline,1
;   retractBetweenLayers,0
;   useRetractionMinTravel,0
;   retractionMinTravel,1
;   retractWhileWiping,0
;   onlyWipeOutlines,1
;   avoidCrossingOutline,0
;   maxMovementDetourFactor,3
;   toolChangeRetractionDistance,0
;   toolChangeExtraRestartDistance,0
;   toolChangeRetractionSpeed,360
;   externalThinWallType,1
;   internalThinWallType,1
;   thinWallAllowedOverlapPercentage,50
;   singleExtrusionMinLength,1
;   singleExtrusionMinPrintingWidthPercentage,50
;   singleExtrusionMaxPrintingWidthPercentage,200
;   singleExtrusionEndpointExtension,0.2
;   horizontalSizeCompensation,0
G90
M83
M106 S0
M104 S0 ;cancel S3D set temp
G21  ; set units to mm
G90  ; use absolute coordinates
T0  ; select tool 0
G92 E0.0  ; reset e count
M220 S100 ; reset speed multiplier
M140 S45  ; set bed temp and do not wait
G32  ; probe bed
M190 S45  ; set bed temperature and wait
M109 S230  ; set print head temperature and wait
; === pause for heating ===
; reset filament monitor
M42 P63 S0
G4 P100
G4 P50
M42 P63 S1
;
G1 Z10.0 F2000  ; move up
G1 E30.0 F500  ; prime extruder
G1 X20 Y15 F9000  ; move back
G1 Z0 F1000  ; move down to begin wipe
G1 X150 E4.0 F10000  ; wipe print head (extrude material while we do this)
G92 E0.0  ; reset e count
G1 E-4.2500 F24000
G1 Z0.200 F10000
; process Process1
; layer 1, Z = 0.200
T0
; tool H0.200 W0.450
; skirt
G1 X155.633 Y156.064 F21000
G1 E4.3000 F7200
G1 X155.636 Y156.062 E0.0001 F2400
G1 X155.743 Y155.953 E0.0060
G1 X155.745 Y155.951 E0.0001
G1 X156.954 Y154.795 E0.0655
G1 X156.957 Y154.792 E0.0001
G1 X157.070 Y154.690 E0.0060
G1 X157.073 Y154.688 E0.0001
G1 X158.349 Y153.606 E0.0656
G1 X158.352 Y153.604 E0.0001
G1 X158.471 Y153.509 E0.0060
G1 X158.474 Y153.507 E0.0001
G1 X159.812 Y152.503 E0.0655
G1 X159.815 Y152.501 E0.0001
G1 X159.940 Y152.413 E0.0060
G1 X159.943 Y152.411 E0.0001
G1 X161.339 Y151.490 E0.0656
G1 X161.342 Y151.488 E0.0001
G1 X161.472 Y151.408 E0.0060
G1 X161.475 Y151.406 E0.0001
G1 X162.923 Y150.570 E0.0655
G1 X162.926 Y150.568 E0.0001
G1 X163.061 Y150.496 E0.0060
G1 X163.064 Y150.494 E0.0001
G1 X164.560 Y149.746 E0.0656
G1 X164.563 Y149.744 E0.0001
G1 X164.702 Y149.680 E0.0060
G1 X164.705 Y149.679 E0.0001
G1 X166.243 Y149.021 E0.0655
G1 X166.246 Y149.020 E0.0001
G1 X166.388 Y148.964 E0.0060
G1 X166.391 Y148.963 E0.0001
G1 X167.966 Y148.399 E0.0656
G1 X167.969 Y148.398 E0.0001
G1 X168.115 Y148.350 E0.0060
G1 X168.118 Y148.349 E0.0001
G1 X169.724 Y147.880 E0.0656
G1 X169.727 Y147.879 E0.0001
G1 X169.875 Y147.841 E0.0060
G1 X169.878 Y147.840 E0.0001
G1 X171.509 Y147.468 E0.0656
G1 X171.512 Y147.467 E0.0001
G1 X171.662 Y147.438 E0.0060
G1 X171.666 Y147.437 E0.0001
G1 X173.316 Y147.163 E0.0655
G1 X173.319 Y147.162 E0.0001
G1 X173.471 Y147.142 E0.0060
G1 X173.474 Y147.142 E0.0001
G1 X175.137 Y146.967 E0.0655
G1 X175.141 Y146.966 E0.0001
G1 X175.293 Y146.955 E0.0060
G1 X175.297 Y146.955 E0.0001
G1 X176.968 Y146.880 E0.0656
G1 X176.971 Y146.880 E0.0001
G1 X177.124 Y146.877 E0.0060
G1 X177.127 Y146.877 E0.0001
G1 X178.800 Y146.902 E0.0656
G1 X178.803 Y146.902 E0.0001
G1 X178.956 Y146.909 E0.0060
G1 X178.959 Y146.909 E0.0001
G1 X180.627 Y147.034 E0.0656
G1 X180.631 Y147.035 E0.0001
G1 X180.783 Y147.051 E0.0060
G1 X180.786 Y147.051 E0.0001
G1 X182.444 Y147.276 E0.0655
G1 X182.447 Y147.276 E0.0001
G1 X182.598 Y147.301 E0.0060
G1 X182.601 Y147.302 E0.0001
G1 X184.242 Y147.625 E0.0656
G1 X184.246 Y147.626 E0.0001
G1 X184.395 Y147.660 E0.0060
G1 X184.398 Y147.661 E0.0001
G1 X186.017 Y148.081 E0.0656
G1 X186.020 Y148.082 E0.0001
G1 X186.167 Y148.125 E0.0060
G1 X186.170 Y148.126 E0.0001
G1 X187.761 Y148.643 E0.0656
G1 X187.764 Y148.644 E0.0001
G1 X187.908 Y148.696 E0.0060
G1 X187.912 Y148.697 E0.0001
G1 X189.469 Y149.308 E0.0656
G1 X189.472 Y149.309 E0.0001
G1 X189.612 Y149.370 E0.0060
G1 X189.615 Y149.371 E0.0001
G1 X191.133 Y150.074 E0.0655
G1 X191.136 Y150.075 E0.0001
G1 X191.273 Y150.144 E0.0060
G1 X191.276 Y150.145 E0.0001
G1 X192.749 Y150.938 E0.0656
G1 X192.752 Y150.940 E0.0001
G1 X192.884 Y151.016 E0.0060
G1 X192.887 Y151.018 E0.0001
G1 X194.310 Y151.897 E0.0655
G1 X194.313 Y151.899 E0.0001
G1 X194.441 Y151.983 E0.0060
G1 X194.444 Y151.985 E0.0001
G1 X195.811 Y152.948 E0.0655
G1 X195.814 Y152.950 E0.0001
G1 X195.936 Y153.042 E0.0060
G1 X195.939 Y153.044 E0.0001
G1 X197.247 Y154.087 E0.0655
G1 X197.249 Y154.089 E0.0001
G1 X197.366 Y154.188 E0.0060
G1 X197.369 Y154.190 E0.0001
G1 X198.612 Y155.309 E0.0656
G1 X198.614 Y155.312 E0.0001
G1 X198.725 Y155.417 E0.0060
G1 X198.727 Y155.420 E0.0001
G1 X199.901 Y156.611 E0.0655
G1 X199.903 Y156.614 E0.0001
G1 X200.007 Y156.726 E0.0060
G1 X200.010 Y156.728 E0.0001
G1 X201.110 Y157.988 E0.0655
G1 X201.112 Y157.990 E0.0001
G1 X201.209 Y158.109 E0.0060
G1 X201.212 Y158.111 E0.0001
G1 X202.235 Y159.434 E0.0656
G1 X202.237 Y159.437 E0.0001
G1 X202.327 Y159.561 E0.0060
G1 X202.329 Y159.564 E0.0001
G1 X203.271 Y160.946 E0.0656
G1 X203.273 Y160.949 E0.0001
G1 X203.355 Y161.077 E0.0060
G1 X203.357 Y161.080 E0.0001
G1 X204.215 Y162.516 E0.0656
G1 X204.217 Y162.519 E0.0001
G1 X204.291 Y162.653 E0.0060
G1 X204.293 Y162.656 E0.0001
G1 X205.063 Y164.140 E0.0655
G1 X205.065 Y164.143 E0.0001
G1 X205.131 Y164.281 E0.0060
G1 X205.132 Y164.284 E0.0001
G1 X205.813 Y165.812 E0.0656
G1 X205.814 Y165.815 E0.0001
G1 X205.872 Y165.957 E0.0060
G1 X205.873 Y165.960 E0.0001
G1 X206.461 Y167.526 E0.0656
G1 X206.462 Y167.529 E0.0001
G1 X206.512 Y167.674 E0.0060
G1 X206.513 Y167.677 E0.0001
G1 X207.006 Y169.276 E0.0656
G1 X207.007 Y169.279 E0.0001
G1 X207.047 Y169.426 E0.0060
G1 X207.048 Y169.430 E0.0001
G1 X207.445 Y171.055 E0.0655
G1 X207.446 Y171.058 E0.0001
G1 X207.477 Y171.208 E0.0060
G1 X207.478 Y171.211 E0.0001
G1 X207.777 Y172.857 E0.0656
G1 X207.777 Y172.860 E0.0001
G1 X207.800 Y173.011 E0.0060
G1 X207.800 Y173.015 E0.0001
G1 X208.000 Y174.675 E0.0655
G1 X208.001 Y174.679 E0.0001
G1 X208.014 Y174.831 E0.0060
G1 X208.014 Y174.834 E0.0001
G1 X208.115 Y176.504 E0.0656
G1 X208.115 Y176.507 E0.0001
G1 X208.119 Y176.660 E0.0060
G1 X208.119 Y176.664 E0.0001
G1 X208.119 Y178.336 E0.0655
G1 X208.119 Y178.340 E0.0001
G1 X208.115 Y178.493 E0.0060
G1 X208.115 Y178.496 E0.0001
G1 X208.014 Y180.166 E0.0656
G1 X208.014 Y180.169 E0.0001
G1 X208.001 Y180.321 E0.0060
G1 X208.000 Y180.325 E0.0001
G1 X207.800 Y181.985 E0.0655
G1 X207.800 Y181.989 E0.0001
G1 X207.777 Y182.140 E0.0060
G1 X207.777 Y182.143 E0.0001
G1 X207.478 Y183.789 E0.0656
G1 X207.477 Y183.792 E0.0001
G1 X207.446 Y183.942 E0.0060
G1 X207.445 Y183.945 E0.0001
G1 X207.048 Y185.570 E0.0655
G1 X207.047 Y185.574 E0.0001
G1 X207.007 Y185.721 E0.0060
G1 X207.006 Y185.724 E0.0001
G1 X206.513 Y187.323 E0.0656
G1 X206.512 Y187.326 E0.0001
G1 X206.462 Y187.471 E0.0060
G1 X206.461 Y187.474 E0.0001
G1 X205.873 Y189.040 E0.0656
G1 X205.872 Y189.043 E0.0001
G1 X205.814 Y189.185 E0.0060
G1 X205.813 Y189.188 E0.0001
G1 X205.132 Y190.716 E0.0655
G1 X205.131 Y190.719 E0.0001
G1 X205.065 Y190.857 E0.0060
G1 X205.063 Y190.860 E0.0001
G1 X204.293 Y192.344 E0.0655
G1 X204.291 Y192.347 E0.0001
G1 X204.217 Y192.481 E0.0060
G1 X204.215 Y192.484 E0.0001
G1 X203.357 Y193.920 E0.0656
G1 X203.355 Y193.922 E0.0001
G1 X203.273 Y194.051 E0.0060
G1 X203.271 Y194.054 E0.0001
G1 X202.329 Y195.436 E0.0656
G1 X202.327 Y195.439 E0.0001
G1 X202.237 Y195.563 E0.0060
G1 X202.235 Y195.566 E0.0001
G1 X201.212 Y196.889 E0.0656
G1 X201.209 Y196.891 E0.0001
G1 X201.112 Y197.010 E0.0060
G1 X201.110 Y197.012 E0.0001
G1 X200.010 Y198.272 E0.0655
G1 X200.007 Y198.274 E0.0001
G1 X199.903 Y198.386 E0.0060
G1 X199.901 Y198.389 E0.0001
G1 X198.727 Y199.580 E0.0655
G1 X198.725 Y199.583 E0.0001
G1 X198.614 Y199.688 E0.0060
G1 X198.612 Y199.691 E0.0001
G1 X197.369 Y200.810 E0.0656
G1 X197.366 Y200.812 E0.0001
G1 X197.249 Y200.911 E0.0060
G1 X197.247 Y200.913 E0.0001
G1 X195.939 Y201.956 E0.0655
G1 X195.936 Y201.958 E0.0001
G1 X195.814 Y202.050 E0.0060
G1 X195.811 Y202.052 E0.0001
G1 X194.444 Y203.015 E0.0655
G1 X194.441 Y203.017 E0.0001
G1 X194.313 Y203.101 E0.0060
G1 X194.310 Y203.103 E0.0001
G1 X192.887 Y203.982 E0.0656
G1 X192.884 Y203.984 E0.0001
G1 X192.752 Y204.060 E0.0060
G1 X192.749 Y204.062 E0.0001
G1 X191.276 Y204.855 E0.0655
G1 X191.273 Y204.856 E0.0001
G1 X191.136 Y204.925 E0.0060
G1 X191.133 Y204.926 E0.0001
G1 X189.615 Y205.629 E0.0656
G1 X189.612 Y205.630 E0.0001
G1 X189.472 Y205.691 E0.0060
G1 X189.469 Y205.692 E0.0001
G1 X187.912 Y206.303 E0.0656
G1 X187.908 Y206.304 E0.0001
G1 X187.764 Y206.356 E0.0060
G1 X187.761 Y206.357 E0.0001
G1 X186.170 Y206.874 E0.0656
G1 X186.167 Y206.875 E0.0001
G1 X186.020 Y206.918 E0.0060
G1 X186.017 Y206.919 E0.0001
G1 X184.398 Y207.339 E0.0656
G1 X184.395 Y207.340 E0.0001
G1 X184.246 Y207.374 E0.0060
G1 X184.242 Y207.375 E0.0001
G1 X182.601 Y207.698 E0.0656
G1 X182.598 Y207.699 E0.0001
G1 X182.447 Y207.724 E0.0060
G1 X182.444 Y207.724 E0.0001
G1 X180.786 Y207.949 E0.0655
G1 X180.783 Y207.949 E0.0001
G1 X180.631 Y207.965 E0.0060
G1 X180.627 Y207.965 E0.0001
G1 X178.959 Y208.091 E0.0656
G1 X178.956 Y208.091 E0.0001
G1 X178.803 Y208.098 E0.0060
G1 X178.800 Y208.098 E0.0001
G1 X177.127 Y208.123 E0.0656
G1 X177.124 Y208.123 E0.0001
G1 X176.971 Y208.120 E0.0060
G1 X176.968 Y208.120 E0.0001
G1 X175.297 Y208.045 E0.0655
G1 X175.293 Y208.045 E0.0001
G1 X175.141 Y208.034 E0.0060
G1 X175.137 Y208.033 E0.0001
G1 X173.474 Y207.858 E0.0655
G1 X173.471 Y207.858 E0.0001
G1 X173.319 Y207.838 E0.0060
G1 X173.316 Y207.837 E0.0001
G1 X171.666 Y207.563 E0.0656
G1 X171.662 Y207.562 E0.0001
G1 X171.512 Y207.533 E0.0060
G1 X171.509 Y207.532 E0.0001
G1 X169.878 Y207.160 E0.0656
G1 X169.875 Y207.159 E0.0001
G1 X169.727 Y207.121 E0.0060
G1 X169.724 Y207.120 E0.0001
G1 X168.118 Y206.651 E0.0656
G1 X168.115 Y206.650 E0.0001
G1 X167.969 Y206.602 E0.0060
G1 X167.966 Y206.601 E0.0001
G1 X166.391 Y206.037 E0.0656
G1 X166.388 Y206.036 E0.0001
G1 X166.246 Y205.980 E0.0060
G1 X166.243 Y205.979 E0.0001
G1 X164.705 Y205.321 E0.0655
G1 X164.702 Y205.320 E0.0001
