; G-Code generated by Simplify3D(R) Version 4.0.1
; Apr 13, 2023 at 3:16:49 PM
; Settings Summary
;   processName,Process1
;   applyToModels,Angled Horizontal Mount v2
;   profileName,F410_0.4C_PLA (modified)
;   profileVersion,2022-03-09 09:51:28
;   baseProfile,F400_PLA
;   printMaterial,
;   printQuality,Standard
;   printExtruders,
;   extruderName,Primary Extruder
;   extruderToolheadNumber,0
;   extruderDiameter,0.4
;   extruderAutoWidth,0
;   extruderWidth,0.45
;   extrusionMultiplier,1
;   extruderUseRetract,1
;   extruderRetractionDistance,4.25
;   extruderExtraRestartDistance,0.05
;   extruderRetractionZLift,0
;   extruderRetractionSpeed,24000
;   extruderUseCoasting,0
;   extruderCoastingDistance,0.5
;   extruderUseWipe,0
;   extruderWipeDistance,5
;   primaryExtruder,0
;   layerHeight,0.25
;   topSolidLayers,4
;   bottomSolidLayers,4
;   perimeterOutlines,3
;   printPerimetersInsideOut,0
;   startPointOption,3
;   startPointOriginX,0
;   startPointOriginY,360
;   sequentialIslands,0
;   spiralVaseMode,0
;   firstLayerHeightPercentage,100
;   firstLayerWidthPercentage,100
;   firstLayerUnderspeed,0.4
;   useRaft,0
;   raftExtruder,0
;   raftTopLayers,2
;   raftBaseLayers,0
;   raftOffset,4
;   raftSeparationDistance,0.15
;   raftTopInfill,100
;   aboveRaftSpeedMultiplier,0.3
;   useSkirt,1
;   skirtExtruder,0
;   skirtLayers,1
;   skirtOutlines,1
;   skirtOffset,5
;   usePrimePillar,0
;   primePillarExtruder,999
;   primePillarWidth,12
;   primePillarLocation,7
;   primePillarSpeedMultiplier,1
;   useOozeShield,0
;   oozeShieldExtruder,999
;   oozeShieldOffset,2
;   oozeShieldOutlines,1
;   oozeShieldSidewallShape,1
;   oozeShieldSidewallAngle,30
;   oozeShieldSpeedMultiplier,1
;   infillExtruder,0
;   internalInfillPattern,Rectilinear
;   externalInfillPattern,Rectilinear
;   infillPercentage,25
;   outlineOverlapPercentage,20
;   infillExtrusionWidthPercentage,100
;   minInfillLength,5
;   infillLayerInterval,1
;   internalInfillAngles,45,-45
;   overlapInternalInfillAngles,0
;   externalInfillAngles,45,-45
;   generateSupport,0
;   supportExtruder,0
;   supportInfillPercentage,30
;   supportExtraInflation,0.5
;   supportBaseLayers,0
;   denseSupportExtruder,0
;   denseSupportLayers,0
;   denseSupportInfillPercentage,70
;   supportLayerInterval,1
;   supportHorizontalPartOffset,0.35
;   supportUpperSeparationLayers,1
;   supportLowerSeparationLayers,1
;   supportType,0
;   supportGridSpacing,2
;   maxOverhangAngle,45
;   supportAngles,45
;   temperatureName,Primary Extruder,Heated Bed
;   temperatureNumber,0,2
;   temperatureSetpointCount,1,1
;   temperatureSetpointLayers,1,1
;   temperatureSetpointTemperatures,230,45
;   temperatureStabilizeAtStartup,0,0
;   temperatureHeatedBed,0,1
;   temperatureRelayBetweenLayers,0,0
;   temperatureRelayBetweenLoops,0,0
;   fanLayers,1,3,4,5
;   fanSpeeds,0,25,50,100
;   blipFanToFullPower,0
;   adjustSpeedForCooling,1
;   minSpeedLayerTime,5
;   minCoolingSpeedSlowdown,30
;   increaseFanForCooling,1
;   minFanLayerTime,13
;   maxCoolingFanSpeed,100
;   increaseFanForBridging,1
;   bridgingFanSpeed,100
;   use5D,1
;   relativeEdistances,1
;   allowEaxisZeroing,1
;   independentExtruderAxes,0
;   includeM10123,0
;   stickySupport,1
;   applyToolheadOffsets,0
;   gcodeXoffset,0
;   gcodeYoffset,0
;   gcodeZoffset,0
;   overrideMachineDefinition,1
;   machineTypeOverride,0
;   strokeXoverride,355
;   strokeYoverride,355
;   strokeZoverride,315
;   originOffsetXoverride,0
;   originOffsetYoverride,0
;   originOffsetZoverride,0
;   homeXdirOverride,1
;   homeYdirOverride,-1
;   homeZdirOverride,1
;   flipXoverride,1
;   flipYoverride,-1
;   flipZoverride,1
;   toolheadOffsets,0,0|0,0|0,0|0,0|0,0|0,0
;   overrideFirmwareConfiguration,1
;   firmwareTypeOverride,RepRap (Marlin/Repetier/Sprinter)
;   GPXconfigOverride,r2
;   baudRateOverride,115200
;   overridePrinterModels,0
;   printerModelsOverride
;   startingGcode,M104 S0 ;cancel S3D set temp,G21  ; set units to mm,G90  ; use absolute coordinates,T0  ; select tool 0,G92 E0.0  ; reset e count,M220 S100 ; reset speed multiplier,M140 S[bed2_temperature]  ; set bed temp and do not wait,G32  ; probe bed,M190 S[bed2_temperature]  ; set bed temperature and wait,M109 S[extruder0_temperature]  ; set print head temperature and wait,; === pause for heating ===,; reset filament monitor,M42 P63 S0,G4 P100,G4 P50,M42 P63 S1,;,G1 Z10.0 F2000  ; move up,G1 E30.0 F500  ; prime extruder,G1 X20 Y15 F9000  ; move back,G1 Z0 F1000  ; move down to begin wipe,G1 X150 E4.0 F10000  ; wipe print head (extrude material while we do this),G92 E0.0  ; reset e count
;   layerChangeGcode,
;   retractionGcode,
;   toolChangeGcode,
;   endingGcode,G91  ;relative positioning,G1 E-5.00 F1000  ;retract 5mm of filament,G1 Z+1.00 X-20.0 Y+20.0 F10000  ;short quick move to disengage from print,G90  ;absolute positioning,G1 X0.0 Y350.0 F9000  ; move head to back left corner,G91  ; relative positioning,G1 E-5.00 F500  ;retract additional filament to prevent oozing,G90 ;absolute positioning,M104 S0  ;turn off hotend,M140 S0  ;turn off heatbed,; Reset filament monitor,M42 P63 S0,G4 P100,G4 P50,M42 P63 S1,;,G1 Z315 F1000 ;move print bed down to idle position,M106 S0  ; shut off blower,M84  ;motors off,M561  ;clear bed probe transformation
;   exportFileFormat,gcode
;   celebration,0
;   celebrationSong,Random Song
;   postProcessing,
;   defaultSpeed,6000
;   outlineUnderspeed,0.6
;   solidInfillUnderspeed,0.7
;   supportUnderspeed,1
;   rapidXYspeed,21000
;   rapidZspeed,10000
;   minBridgingArea,50
;   bridgingExtraInflation,0.5
;   bridgingExtrusionMultiplier,1
;   bridgingSpeedMultiplier,0.6
;   useFixedBridgingAngle,0
;   fixedBridgingAngle,0
;   applyBridgingToPerimeters,0
;   filamentDiameters,1.71|1.71|1.71|1.71|1.71|1.71
;   filamentPricesPerKg,46|46|46|46|46|46
;   filamentDensities,1.25|1.25|1.25|1.25|1.25|1.25
;   useMinPrintHeight,0
;   minPrintHeight,13
;   useMaxPrintHeight,0
;   maxPrintHeight,13
;   useDiaphragm,0
;   diaphragmLayerInterval,20
;   robustSlicing,1
;   mergeAllIntoSolid,0
;   onlyRetractWhenCrossingOutline,1
;   retractBetweenLayers,0
;   useRetractionMinTravel,0
;   retractionMinTravel,1
;   retractWhileWiping,0
;   onlyWipeOutlines,1
;   avoidCrossingOutline,0
;   maxMovementDetourFactor,3
;   toolChangeRetractionDistance,0
;   toolChangeExtraRestartDistance,0
;   toolChangeRetractionSpeed,360
;   externalThinWallType,1
;   internalThinWallType,1
;   thinWallAllowedOverlapPercentage,50
;   singleExtrusionMinLength,1
;   singleExtrusionMinPrintingWidthPercentage,50
;   singleExtrusionMaxPrintingWidthPercentage,200
;   singleExtrusionEndpointExtension,0.2
;   horizontalSizeCompensation,0
G90
M83
M106 S0
M104 S0 ;cancel S3D set temp
G21  ; set units to mm
G90  ; use absolute coordinates
T0  ; select tool 0
G92 E0.0  ; reset e count
M220 S100 ; reset speed multiplier
M140 S45  ; set bed temp and do not wait
G32  ; probe bed
M190 S45  ; set bed temperature and wait
M109 S230  ; set print head temperature and wait
; === pause for heating ===
; reset filament monitor
M42 P63 S0
G4 P100
G4 P50
M42 P63 S1
;
G1 Z10.0 F2000  ; move up
G1 E30.0 F500  ; prime extruder
G1 X20 Y15 F9000  ; move back
G1 Z0 F1000  ; move down to begin wipe
G1 X150 E4.0 F10000  ; wipe print head (extrude material while we do this)
G92 E0.0  ; reset e count
G1 E-4.2500 F24000
G1 Z0.250 F10000
; process Process1
; layer 1, Z = 0.250
T0
; tool H0.250 W0.450
; skirt
G1 X134.677 Y127.479 F21000
G1 E4.3000 F7200
G1 X137.669 Y124.487 E0.2073 F2400
G1 X137.752 Y124.453 E0.0044
G1 X217.248 Y124.453 E3.8942
G1 X217.331 Y124.487 E0.0044
G1 X220.323 Y127.479 E0.2073
G1 X220.358 Y127.562 E0.0044
G1 X220.358 Y227.438 E4.8925
G1 X220.323 Y227.521 E0.0044
G1 X217.331 Y230.513 E0.2073
G1 X217.248 Y230.547 E0.0044
G1 X137.752 Y230.547 E3.8942
G1 X137.669 Y230.513 E0.0044
G1 X134.677 Y227.521 E0.2073
G1 X134.642 Y227.438 E0.0044
G1 X134.642 Y127.562 E4.8925
G1 X134.677 Y127.479 E0.0044
G1 E-4.2500 F24000
; outer perimeter
G1 X140.092 Y225.097 F21000
G1 E4.3000 F24000
G1 X140.092 Y129.903 E4.6632 F1440
G1 X214.908 Y129.903 E3.6649
G1 X214.908 Y225.097 E4.6632
G1 X140.092 Y225.097 E3.6649
; inner perimeter
G1 X140.542 Y224.647 F21000
G1 X140.542 Y130.353 E4.6191 F1920
G1 X214.458 Y130.353 E3.6208
G1 X214.458 Y224.647 E4.6191
G1 X140.542 Y224.647 E3.6208
G1 X140.992 Y224.197 F21000
G1 X140.992 Y130.803 E4.5750 F1920
G1 X214.008 Y130.803 E3.5767
G1 X214.008 Y224.197 E4.5750
G1 X140.992 Y224.197 E3.5767
; outer perimeter
G1 X157.195 Y142.256 F21000
G1 X157.913 Y142.553 E0.0381 F1440
G1 X158.684 Y142.654 E0.0381
G1 X159.454 Y142.553 E0.0381
G1 X160.172 Y142.256 E0.0381
G1 X160.789 Y141.783 E0.0381
G1 X161.262 Y141.166 E0.0381
G1 X161.559 Y140.448 E0.0381
G1 X161.661 Y139.678 E0.0381
G1 X161.559 Y138.907 E0.0381
G1 X161.262 Y138.189 E0.0381
G1 X160.789 Y137.573 E0.0381
G1 X160.172 Y137.099 E0.0381
G1 X159.454 Y136.802 E0.0381
G1 X158.684 Y136.701 E0.0381
G1 X157.913 Y136.802 E0.0381
G1 X157.195 Y137.099 E0.0381
G1 X156.579 Y137.573 E0.0381
G1 X156.106 Y138.189 E0.0381
G1 X155.808 Y138.907 E0.0381
G1 X155.707 Y139.678 E0.0381
G1 X155.808 Y140.448 E0.0381
G1 X156.106 Y141.166 E0.0381
G1 X156.579 Y141.783 E0.0381
G1 X157.195 Y142.256 E0.0381
; inner perimeter
G1 X156.968 Y142.649 F21000
G1 X157.796 Y142.991 E0.0439 F1920
G1 X158.684 Y143.108 E0.0439
G1 X159.572 Y142.991 E0.0439
G1 X160.399 Y142.649 E0.0439
G1 X161.110 Y142.103 E0.0439
G1 X161.655 Y141.393 E0.0439
G1 X161.998 Y140.565 E0.0439
G1 X162.115 Y139.678 E0.0439
G1 X161.998 Y138.790 E0.0439
G1 X161.655 Y137.962 E0.0439
G1 X161.110 Y137.252 E0.0439
G1 X160.399 Y136.706 E0.0439
G1 X159.572 Y136.364 E0.0439
G1 X158.684 Y136.247 E0.0439
G1 X157.796 Y136.364 E0.0439
G1 X156.968 Y136.706 E0.0439
G1 X156.258 Y137.252 E0.0439
G1 X155.713 Y137.962 E0.0439
G1 X155.370 Y138.790 E0.0439
G1 X155.253 Y139.678 E0.0439
G1 X155.370 Y140.565 E0.0439
G1 X155.713 Y141.393 E0.0439
G1 X156.258 Y142.103 E0.0439
G1 X156.968 Y142.649 E0.0439
G1 X156.741 Y143.042 F21000
G1 X157.678 Y143.430 E0.0497 F1920
G1 X158.684 Y143.562 E0.0497
G1 X159.689 Y143.430 E0.0497
G1 X160.626 Y143.042 E0.0497
G1 X161.431 Y142.424 E0.0497
G1 X162.048 Y141.620 E0.0497
G1 X162.436 Y140.683 E0.0497
G1 X162.568 Y139.678 E0.0497
G1 X162.436 Y138.672 E0.0497
G1 X162.048 Y137.735 E0.0497
G1 X161.431 Y136.931 E0.0497
G1 X160.626 Y136.313 E0.0497
G1 X159.689 Y135.925 E0.0497
G1 X158.684 Y135.793 E0.0497
G1 X157.678 Y135.925 E0.0497
G1 X156.741 Y136.313 E0.0497
G1 X155.937 Y136.931 E0.0497
G1 X155.319 Y137.735 E0.0497
G1 X154.931 Y138.672 E0.0497
G1 X154.799 Y139.678 E0.0497
G1 X154.931 Y140.683 E0.0497
G1 X155.319 Y141.620 E0.0497
G1 X155.937 Y142.424 E0.0497
G1 X156.741 Y143.042 E0.0497
; outer perimeter
G1 X175.395 Y141.783 F21000
G1 X176.012 Y142.256 E0.0381 F1440
G1 X176.730 Y142.553 E0.0381
G1 X177.500 Y142.654 E0.0381
G1 X178.270 Y142.553 E0.0381
G1 X178.988 Y142.256 E0.0381
G1 X179.605 Y141.783 E0.0381
G1 X180.078 Y141.166 E0.0381
G1 X180.375 Y140.448 E0.0381
G1 X180.477 Y139.678 E0.0381
G1 X180.375 Y138.907 E0.0381
G1 X180.078 Y138.189 E0.0381
G1 X179.605 Y137.573 E0.0381
G1 X178.988 Y137.099 E0.0381
G1 X178.270 Y136.802 E0.0381
G1 X177.500 Y136.701 E0.0381
G1 X176.730 Y136.802 E0.0381
G1 X176.012 Y137.099 E0.0381
G1 X175.395 Y137.573 E0.0381
G1 X174.922 Y138.189 E0.0381
G1 X174.625 Y138.907 E0.0381
G1 X174.523 Y139.678 E0.0381
G1 X174.625 Y140.448 E0.0381
G1 X174.922 Y141.166 E0.0381
G1 X175.395 Y141.783 E0.0381
; inner perimeter
G1 X175.074 Y142.104 F21000
G1 X175.785 Y142.649 E0.0439 F1920
G1 X176.612 Y142.991 E0.0439
G1 X177.500 Y143.108 E0.0439
G1 X178.388 Y142.991 E0.0439
G1 X179.215 Y142.649 E0.0439
G1 X179.926 Y142.103 E0.0439
G1 X180.471 Y141.393 E0.0439
G1 X180.814 Y140.565 E0.0439
G1 X180.931 Y139.678 E0.0439
G1 X180.814 Y138.790 E0.0439
G1 X180.471 Y137.962 E0.0439
G1 X179.926 Y137.252 E0.0439
G1 X179.215 Y136.706 E0.0439
G1 X178.388 Y136.364 E0.0439
G1 X177.500 Y136.247 E0.0439
G1 X176.612 Y136.364 E0.0439
G1 X175.785 Y136.706 E0.0439
G1 X175.074 Y137.252 E0.0439
G1 X174.529 Y137.962 E0.0439
G1 X174.186 Y138.790 E0.0439
G1 X174.069 Y139.678 E0.0439
G1 X174.186 Y140.565 E0.0439
G1 X174.529 Y141.393 E0.0439
G1 X175.074 Y142.103 E0.0439
G1 X174.753 Y142.424 F21000
G1 X175.558 Y143.042 E0.0497 F1920
G1 X176.495 Y143.430 E0.0497
G1 X177.500 Y143.562 E0.0497
G1 X178.505 Y143.430 E0.0497
G1 X179.442 Y143.042 E0.0497
G1 X180.247 Y142.424 E0.0497
G1 X180.864 Y141.620 E0.0497
G1 X181.252 Y140.683 E0.0497
G1 X181.385 Y139.678 E0.0497
G1 X181.252 Y138.672 E0.0497
G1 X180.864 Y137.735 E0.0497
G1 X180.247 Y136.931 E0.0497
G1 X179.442 Y136.313 E0.0497
G1 X178.505 Y135.925 E0.0497
G1 X177.500 Y135.793 E0.0497
G1 X176.495 Y135.925 E0.0497
G1 X175.558 Y136.313 E0.0497
G1 X174.753 Y136.931 E0.0497
G1 X174.136 Y137.735 E0.0497
G1 X173.748 Y138.672 E0.0497
G1 X173.615 Y139.678 E0.0497
G1 X173.748 Y140.683 E0.0497
G1 X174.136 Y141.620 E0.0497
G1 X174.753 Y142.424 E0.0497
G1 E-4.2500 F24000
; outer perimeter
G1 X194.211 Y141.783 F21000
G1 E4.3000 F24000
G1 X194.828 Y142.256 E0.0381 F1440
G1 X195.546 Y142.553 E0.0381
G1 X196.316 Y142.654 E0.0381
G1 X197.087 Y142.553 E0.0381
G1 X197.805 Y142.256 E0.0381
G1 X198.421 Y141.783 E0.0381
G1 X198.894 Y141.166 E0.0381
G1 X199.192 Y140.448 E0.0381
G1 X199.293 Y139.678 E0.0381
G1 X199.192 Y138.907 E0.0381
G1 X198.894 Y138.189 E0.0381
G1 X198.421 Y137.573 E0.0381
G1 X197.805 Y137.099 E0.0381
G1 X197.087 Y136.802 E0.0381
G1 X196.316 Y136.701 E0.0381
G1 X195.546 Y136.802 E0.0381
G1 X194.828 Y137.099 E0.0381
G1 X194.211 Y137.573 E0.0381
G1 X193.738 Y138.189 E0.0381
G1 X193.441 Y138.907 E0.0381
G1 X193.339 Y139.678 E0.0381
G1 X193.441 Y140.448 E0.0381
G1 X193.738 Y141.166 E0.0381
G1 X194.211 Y141.783 E0.0381
; inner perimeter
G1 X193.890 Y142.103 F21000
G1 X194.601 Y142.649 E0.0439 F1920
G1 X195.428 Y142.991 E0.0439
G1 X196.316 Y143.108 E0.0439
G1 X197.204 Y142.991 E0.0439
G1 X198.032 Y142.649 E0.0439
G1 X198.742 Y142.103 E0.0439
G1 X199.287 Y141.393 E0.0439
G1 X199.630 Y140.565 E0.0439
G1 X199.747 Y139.678 E0.0439
G1 X199.630 Y138.790 E0.0439
G1 X199.287 Y137.962 E0.0439
G1 X198.742 Y137.252 E0.0439
G1 X198.032 Y136.706 E0.0439
G1 X197.204 Y136.364 E0.0439
G1 X196.316 Y136.247 E0.0439
G1 X195.428 Y136.364 E0.0439
G1 X194.601 Y136.706 E0.0439
G1 X193.890 Y137.252 E0.0439
G1 X193.345 Y137.962 E0.0439
G1 X193.002 Y138.790 E0.0439
G1 X192.885 Y139.678 E0.0439
G1 X193.002 Y140.565 E0.0439
G1 X193.345 Y141.393 E0.0439
G1 X193.890 Y142.103 E0.0439
G1 X193.569 Y142.424 F21000
G1 X194.374 Y143.042 E0.0497 F1920
G1 X195.311 Y143.430 E0.0497
G1 X196.316 Y143.562 E0.0497
G1 X197.322 Y143.430 E0.0497
G1 X198.259 Y143.042 E0.0497
G1 X199.063 Y142.424 E0.0497
G1 X199.681 Y141.620 E0.0497
G1 X200.069 Y140.683 E0.0497
G1 X200.201 Y139.678 E0.0497
G1 X200.069 Y138.672 E0.0497
G1 X199.681 Y137.735 E0.0497
G1 X199.063 Y136.931 E0.0497
G1 X198.259 Y136.313 E0.0497
G1 X197.322 Y135.925 E0.0497
G1 X196.316 Y135.793 E0.0497
G1 X195.311 Y135.925 E0.0497
G1 X194.374 Y136.313 E0.0497
G1 X193.569 Y136.931 E0.0497
G1 X192.952 Y137.735 E0.0497
G1 X192.564 Y138.672 E0.0497
G1 X192.432 Y139.678 E0.0497
G1 X192.564 Y140.683 E0.0497
G1 X192.952 Y141.620 E0.0497
G1 X193.569 Y142.424 E0.0497
; solid layer
G1 X194.321 Y143.410 F21000
G1 X213.648 Y162.736 E1.3388 F1680
G1 X213.648 Y162.099 E0.0312
G1 X195.346 Y143.798 E1.2679
G1 X196.079 Y143.894 E0.0362
G1 X213.648 Y161.463 E1.2171
G1 X213.648 Y160.827 E0.0312
G1 X196.696 Y143.875 E1.1743
G1 X197.259 Y143.801 E0.0278
G1 X213.648 Y160.190 E1.1354
G1 X213.648 Y159.554 E0.0312
G1 X197.740 Y143.646 E1.1020
G1 X198.190 Y143.460 E0.0239
G1 X213.648 Y158.918 E1.0708
G1 X213.648 Y158.281 E0.0312
G1 X198.600 Y143.234 E1.0424
G1 X198.960 Y142.957 E0.0222
G1 X213.648 Y157.645 E1.0175
G1 X213.648 Y157.008 E0.0312
G1 X199.320 Y142.681 E0.9926
G1 X199.596 Y142.321 E0.0222
G1 X213.648 Y156.372 E0.9734
G1 X213.648 Y155.736 E0.0312
G1 X199.873 Y141.961 E0.9543
G1 X199.995 Y141.801 E0.0098
G1 X200.099 Y141.550 E0.0133
