; G-Code generated by Simplify3D(R) Version 4.0.1
; Mar 30, 2023 at 12:36:36 PM
; Settings Summary
;   processName,Process1
;   applyToModels,FlangeMount
;   profileName,F410_0.4C_PLA (modified)
;   profileVersion,2022-03-09 09:51:28
;   baseProfile,F400_PLA
;   printMaterial,
;   printQuality,Standard
;   printExtruders,
;   extruderName,Primary Extruder
;   extruderToolheadNumber,0
;   extruderDiameter,0.4
;   extruderAutoWidth,0
;   extruderWidth,0.45
;   extrusionMultiplier,1
;   extruderUseRetract,1
;   extruderRetractionDistance,4.25
;   extruderExtraRestartDistance,0.05
;   extruderRetractionZLift,0
;   extruderRetractionSpeed,24000
;   extruderUseCoasting,0
;   extruderCoastingDistance,0.5
;   extruderUseWipe,0
;   extruderWipeDistance,5
;   primaryExtruder,0
;   layerHeight,0.25
;   topSolidLayers,4
;   bottomSolidLayers,4
;   perimeterOutlines,3
;   printPerimetersInsideOut,0
;   startPointOption,3
;   startPointOriginX,0
;   startPointOriginY,360
;   sequentialIslands,0
;   spiralVaseMode,0
;   firstLayerHeightPercentage,100
;   firstLayerWidthPercentage,100
;   firstLayerUnderspeed,0.4
;   useRaft,0
;   raftExtruder,0
;   raftTopLayers,2
;   raftBaseLayers,0
;   raftOffset,4
;   raftSeparationDistance,0.15
;   raftTopInfill,100
;   aboveRaftSpeedMultiplier,0.3
;   useSkirt,1
;   skirtExtruder,0
;   skirtLayers,1
;   skirtOutlines,1
;   skirtOffset,5
;   usePrimePillar,0
;   primePillarExtruder,999
;   primePillarWidth,12
;   primePillarLocation,7
;   primePillarSpeedMultiplier,1
;   useOozeShield,0
;   oozeShieldExtruder,999
;   oozeShieldOffset,2
;   oozeShieldOutlines,1
;   oozeShieldSidewallShape,1
;   oozeShieldSidewallAngle,30
;   oozeShieldSpeedMultiplier,1
;   infillExtruder,0
;   internalInfillPattern,Rectilinear
;   externalInfillPattern,Rectilinear
;   infillPercentage,25
;   outlineOverlapPercentage,20
;   infillExtrusionWidthPercentage,100
;   minInfillLength,5
;   infillLayerInterval,1
;   internalInfillAngles,45,-45
;   overlapInternalInfillAngles,0
;   externalInfillAngles,45,-45
;   generateSupport,0
;   supportExtruder,0
;   supportInfillPercentage,30
;   supportExtraInflation,0.5
;   supportBaseLayers,0
;   denseSupportExtruder,0
;   denseSupportLayers,0
;   denseSupportInfillPercentage,70
;   supportLayerInterval,1
;   supportHorizontalPartOffset,0.35
;   supportUpperSeparationLayers,1
;   supportLowerSeparationLayers,1
;   supportType,0
;   supportGridSpacing,2
;   maxOverhangAngle,45
;   supportAngles,45
;   temperatureName,Primary Extruder,Heated Bed
;   temperatureNumber,0,2
;   temperatureSetpointCount,1,1
;   temperatureSetpointLayers,1,1
;   temperatureSetpointTemperatures,230,45
;   temperatureStabilizeAtStartup,0,0
;   temperatureHeatedBed,0,1
;   temperatureRelayBetweenLayers,0,0
;   temperatureRelayBetweenLoops,0,0
;   fanLayers,1,3,4,5
;   fanSpeeds,0,25,50,100
;   blipFanToFullPower,0
;   adjustSpeedForCooling,1
;   minSpeedLayerTime,5
;   minCoolingSpeedSlowdown,30
;   increaseFanForCooling,1
;   minFanLayerTime,13
;   maxCoolingFanSpeed,100
;   increaseFanForBridging,1
;   bridgingFanSpeed,100
;   use5D,1
;   relativeEdistances,1
;   allowEaxisZeroing,1
;   independentExtruderAxes,0
;   includeM10123,0
;   stickySupport,1
;   applyToolheadOffsets,0
;   gcodeXoffset,0
;   gcodeYoffset,0
;   gcodeZoffset,0
;   overrideMachineDefinition,1
;   machineTypeOverride,0
;   strokeXoverride,355
;   strokeYoverride,355
;   strokeZoverride,315
;   originOffsetXoverride,0
;   originOffsetYoverride,0
;   originOffsetZoverride,0
;   homeXdirOverride,1
;   homeYdirOverride,-1
;   homeZdirOverride,1
;   flipXoverride,1
;   flipYoverride,-1
;   flipZoverride,1
;   toolheadOffsets,0,0|0,0|0,0|0,0|0,0|0,0
;   overrideFirmwareConfiguration,1
;   firmwareTypeOverride,RepRap (Marlin/Repetier/Sprinter)
;   GPXconfigOverride,r2
;   baudRateOverride,115200
;   overridePrinterModels,0
;   printerModelsOverride
;   startingGcode,M104 S0 ;cancel S3D set temp,G21  ; set units to mm,G90  ; use absolute coordinates,T0  ; select tool 0,G92 E0.0  ; reset e count,M220 S100 ; reset speed multiplier,M140 S[bed2_temperature]  ; set bed temp and do not wait,G32  ; probe bed,M190 S[bed2_temperature]  ; set bed temperature and wait,M109 S[extruder0_temperature]  ; set print head temperature and wait,; === pause for heating ===,; reset filament monitor,M42 P63 S0,G4 P100,G4 P50,M42 P63 S1,;,G1 Z10.0 F2000  ; move up,G1 E30.0 F500  ; prime extruder,G1 X20 Y15 F9000  ; move back,G1 Z0 F1000  ; move down to begin wipe,G1 X150 E4.0 F10000  ; wipe print head (extrude material while we do this),G92 E0.0  ; reset e count
;   layerChangeGcode,
;   retractionGcode,
;   toolChangeGcode,
;   endingGcode,G91  ;relative positioning,G1 E-5.00 F1000  ;retract 5mm of filament,G1 Z+1.00 X-20.0 Y+20.0 F10000  ;short quick move to disengage from print,G90  ;absolute positioning,G1 X0.0 Y350.0 F9000  ; move head to back left corner,G91  ; relative positioning,G1 E-5.00 F500  ;retract additional filament to prevent oozing,G90 ;absolute positioning,M104 S0  ;turn off hotend,M140 S0  ;turn off heatbed,; Reset filament monitor,M42 P63 S0,G4 P100,G4 P50,M42 P63 S1,;,G1 Z315 F1000 ;move print bed down to idle position,M106 S0  ; shut off blower,M84  ;motors off,M561  ;clear bed probe transformation
;   exportFileFormat,gcode
;   celebration,0
;   celebrationSong,Random Song
;   postProcessing,
;   defaultSpeed,6000
;   outlineUnderspeed,0.6
;   solidInfillUnderspeed,0.7
;   supportUnderspeed,1
;   rapidXYspeed,21000
;   rapidZspeed,10000
;   minBridgingArea,50
;   bridgingExtraInflation,0.5
;   bridgingExtrusionMultiplier,1
;   bridgingSpeedMultiplier,0.6
;   useFixedBridgingAngle,0
;   fixedBridgingAngle,0
;   applyBridgingToPerimeters,0
;   filamentDiameters,1.71|1.71|1.71|1.71|1.71|1.71
;   filamentPricesPerKg,46|46|46|46|46|46
;   filamentDensities,1.25|1.25|1.25|1.25|1.25|1.25
;   useMinPrintHeight,0
;   minPrintHeight,13
;   useMaxPrintHeight,0
;   maxPrintHeight,13
;   useDiaphragm,0
;   diaphragmLayerInterval,20
;   robustSlicing,1
;   mergeAllIntoSolid,0
;   onlyRetractWhenCrossingOutline,1
;   retractBetweenLayers,0
;   useRetractionMinTravel,0
;   retractionMinTravel,1
;   retractWhileWiping,0
;   onlyWipeOutlines,1
;   avoidCrossingOutline,0
;   maxMovementDetourFactor,3
;   toolChangeRetractionDistance,0
;   toolChangeExtraRestartDistance,0
;   toolChangeRetractionSpeed,360
;   externalThinWallType,1
;   internalThinWallType,1
;   thinWallAllowedOverlapPercentage,50
;   singleExtrusionMinLength,1
;   singleExtrusionMinPrintingWidthPercentage,50
;   singleExtrusionMaxPrintingWidthPercentage,200
;   singleExtrusionEndpointExtension,0.2
;   horizontalSizeCompensation,0
G90
M83
M106 S0
M104 S0 ;cancel S3D set temp
G21  ; set units to mm
G90  ; use absolute coordinates
T0  ; select tool 0
G92 E0.0  ; reset e count
M220 S100 ; reset speed multiplier
M140 S45  ; set bed temp and do not wait
G32  ; probe bed
M190 S45  ; set bed temperature and wait
M109 S230  ; set print head temperature and wait
; === pause for heating ===
; reset filament monitor
M42 P63 S0
G4 P100
G4 P50
M42 P63 S1
;
G1 Z10.0 F2000  ; move up
G1 E30.0 F500  ; prime extruder
G1 X20 Y15 F9000  ; move back
G1 Z0 F1000  ; move down to begin wipe
G1 X150 E4.0 F10000  ; wipe print head (extrude material while we do this)
G92 E0.0  ; reset e count
G1 E-4.2500 F24000
G1 Z0.250 F10000
; process Process1
; layer 1, Z = 0.250
T0
; tool H0.250 W0.450
; skirt
G1 X134.862 Y142.877 F21000
G1 E4.3000 F7200
G1 X142.877 Y134.862 E0.5552 F2400
G1 X142.882 Y134.857 E0.0004
G1 X143.134 Y134.636 E0.0164
G1 X143.140 Y134.632 E0.0004
G1 X143.952 Y134.008 E0.0502
G1 X143.965 Y134.000 E0.0007
G1 X144.545 Y133.665 E0.0328
G1 X144.558 Y133.658 E0.0007
G1 X145.660 Y133.202 E0.0584
G1 X145.674 Y133.197 E0.0007
G1 X146.321 Y133.024 E0.0328
G1 X146.336 Y133.021 E0.0007
G1 X147.518 Y132.865 E0.0584
G1 X147.532 Y132.864 E0.0007
G1 X148.202 Y132.864 E0.0328
G1 X148.217 Y132.865 E0.0007
G1 X149.399 Y133.021 E0.0584
G1 X149.414 Y133.024 E0.0007
G1 X150.061 Y133.197 E0.0328
G1 X150.075 Y133.202 E0.0007
G1 X151.176 Y133.658 E0.0584
G1 X151.190 Y133.665 E0.0007
G1 X151.770 Y134.000 E0.0328
G1 X151.782 Y134.008 E0.0007
G1 X152.595 Y134.632 E0.0502
G1 X152.601 Y134.636 E0.0004
G1 X152.853 Y134.857 E0.0164
G1 X152.858 Y134.862 E0.0004
G1 X159.958 Y141.962 E0.4919
G1 X159.969 Y141.956 E0.0006
G1 X159.972 Y141.955 E0.0002
G1 X162.034 Y141.010 E0.1111
G1 X162.037 Y141.009 E0.0002
G1 X162.182 Y140.948 E0.0077
G1 X162.185 Y140.947 E0.0002
G1 X164.301 Y140.131 E0.1111
G1 X164.304 Y140.130 E0.0002
G1 X164.452 Y140.078 E0.0077
G1 X164.455 Y140.077 E0.0002
G1 X166.617 Y139.392 E0.1111
G1 X166.620 Y139.391 E0.0002
G1 X166.771 Y139.348 E0.0077
G1 X166.774 Y139.347 E0.0002
G1 X168.974 Y138.796 E0.1111
G1 X168.977 Y138.795 E0.0002
G1 X169.131 Y138.762 E0.0077
G1 X169.134 Y138.761 E0.0002
G1 X171.364 Y138.346 E0.1111
G1 X171.367 Y138.346 E0.0002
G1 X171.522 Y138.322 E0.0077
G1 X171.525 Y138.321 E0.0002
G1 X173.776 Y138.044 E0.1111
G1 X173.779 Y138.043 E0.0002
G1 X173.935 Y138.029 E0.0077
G1 X173.939 Y138.028 E0.0002
G1 X176.190 Y137.890 E0.1105
G1 X176.193 Y137.890 E0.0002
G1 X176.349 Y137.885 E0.0077
G1 X176.353 Y137.885 E0.0002
G1 X178.614 Y137.884 E0.1107
G1 X178.617 Y137.884 E0.0002
G1 X178.773 Y137.889 E0.0077
G1 X178.777 Y137.889 E0.0002
G1 X181.037 Y138.027 E0.1109
G1 X181.041 Y138.027 E0.0002
G1 X181.197 Y138.041 E0.0077
G1 X181.200 Y138.042 E0.0002
G1 X183.459 Y138.319 E0.1115
G1 X183.462 Y138.320 E0.0002
G1 X183.618 Y138.343 E0.0077
G1 X183.621 Y138.344 E0.0002
G1 X185.851 Y138.758 E0.1111
G1 X185.854 Y138.759 E0.0002
G1 X186.008 Y138.792 E0.0077
G1 X186.011 Y138.793 E0.0002
G1 X188.211 Y139.343 E0.1111
G1 X188.214 Y139.344 E0.0002
G1 X188.365 Y139.387 E0.0077
G1 X188.368 Y139.388 E0.0002
G1 X190.530 Y140.072 E0.1111
G1 X190.534 Y140.073 E0.0002
G1 X190.682 Y140.125 E0.0077
G1 X190.685 Y140.126 E0.0002
G1 X192.801 Y140.941 E0.1111
G1 X192.804 Y140.942 E0.0002
G1 X192.949 Y141.003 E0.0077
G1 X192.952 Y141.005 E0.0002
G1 X195.014 Y141.948 E0.1111
G1 X195.017 Y141.950 E0.0002
G1 X195.042 Y141.962 E0.0014
G1 X202.142 Y134.862 E0.4919
G1 X202.147 Y134.857 E0.0004
G1 X202.399 Y134.636 E0.0164
G1 X202.405 Y134.632 E0.0004
G1 X203.218 Y134.008 E0.0502
G1 X203.230 Y134.000 E0.0007
G1 X203.810 Y133.665 E0.0328
G1 X203.824 Y133.658 E0.0007
G1 X204.925 Y133.202 E0.0584
G1 X204.939 Y133.197 E0.0007
G1 X205.586 Y133.024 E0.0328
G1 X205.601 Y133.021 E0.0007
G1 X206.783 Y132.865 E0.0584
G1 X206.798 Y132.864 E0.0007
G1 X207.468 Y132.864 E0.0328
G1 X207.482 Y132.865 E0.0007
G1 X208.664 Y133.021 E0.0584
G1 X208.679 Y133.024 E0.0007
G1 X209.326 Y133.197 E0.0328
G1 X209.340 Y133.202 E0.0007
G1 X210.442 Y133.658 E0.0584
G1 X210.455 Y133.665 E0.0007
G1 X211.035 Y134.000 E0.0328
G1 X211.048 Y134.008 E0.0007
G1 X211.860 Y134.632 E0.0502
G1 X211.866 Y134.636 E0.0004
G1 X212.118 Y134.857 E0.0164
G1 X212.123 Y134.862 E0.0004
G1 X220.138 Y142.877 E0.5552
G1 X220.143 Y142.882 E0.0004
G1 X220.364 Y143.134 E0.0164
G1 X220.368 Y143.140 E0.0004
G1 X220.992 Y143.953 E0.0502
G1 X221.000 Y143.965 E0.0007
G1 X221.335 Y144.545 E0.0328
G1 X221.342 Y144.558 E0.0007
G1 X221.798 Y145.660 E0.0584
G1 X221.803 Y145.674 E0.0007
G1 X221.976 Y146.321 E0.0328
G1 X221.979 Y146.335 E0.0007
G1 X222.135 Y147.517 E0.0584
G1 X222.136 Y147.532 E0.0007
G1 X222.136 Y148.203 E0.0328
G1 X222.135 Y148.217 E0.0007
G1 X221.979 Y149.400 E0.0584
G1 X221.976 Y149.414 E0.0007
G1 X221.803 Y150.061 E0.0328
G1 X221.798 Y150.075 E0.0007
G1 X221.342 Y151.176 E0.0584
G1 X221.335 Y151.190 E0.0007
G1 X221.000 Y151.770 E0.0328
G1 X220.992 Y151.782 E0.0007
G1 X220.368 Y152.595 E0.0502
G1 X220.364 Y152.601 E0.0004
G1 X220.143 Y152.852 E0.0164
G1 X220.138 Y152.858 E0.0004
G1 X213.038 Y159.958 E0.4919
G1 X213.040 Y159.963 E0.0003
G1 X213.042 Y159.966 E0.0002
G1 X213.986 Y162.027 E0.1111
G1 X213.988 Y162.030 E0.0002
G1 X214.049 Y162.175 E0.0077
G1 X214.050 Y162.178 E0.0002
G1 X214.867 Y164.293 E0.1111
G1 X214.868 Y164.297 E0.0002
G1 X214.920 Y164.445 E0.0077
G1 X214.921 Y164.448 E0.0002
G1 X215.606 Y166.610 E0.1111
G1 X215.607 Y166.613 E0.0002
G1 X215.650 Y166.764 E0.0077
G1 X215.651 Y166.767 E0.0002
G1 X216.202 Y168.967 E0.1111
G1 X216.203 Y168.970 E0.0002
G1 X216.236 Y169.124 E0.0077
G1 X216.237 Y169.127 E0.0002
G1 X216.653 Y171.356 E0.1111
G1 X216.653 Y171.360 E0.0002
G1 X216.677 Y171.514 E0.0077
G1 X216.678 Y171.518 E0.0002
G1 X216.956 Y173.768 E0.1111
G1 X216.956 Y173.772 E0.0002
G1 X216.970 Y173.928 E0.0077
G1 X216.971 Y173.931 E0.0002
G1 X217.110 Y176.185 E0.1106
G1 X217.110 Y176.189 E0.0002
G1 X217.115 Y176.345 E0.0077
G1 X217.115 Y176.348 E0.0002
G1 X217.116 Y178.613 E0.1110
G1 X217.116 Y178.617 E0.0002
G1 X217.111 Y178.773 E0.0077
G1 X217.111 Y178.777 E0.0002
G1 X216.973 Y181.043 E0.1112
G1 X216.973 Y181.046 E0.0002
G1 X216.958 Y181.203 E0.0077
G1 X216.958 Y181.206 E0.0002
G1 X216.680 Y183.466 E0.1115
G1 X216.680 Y183.470 E0.0002
G1 X216.656 Y183.625 E0.0077
G1 X216.655 Y183.629 E0.0002
G1 X216.240 Y185.858 E0.1111
G1 X216.240 Y185.862 E0.0002
G1 X216.206 Y186.015 E0.0077
G1 X216.206 Y186.018 E0.0002
G1 X215.655 Y188.218 E0.1111
G1 X215.654 Y188.221 E0.0002
G1 X215.611 Y188.372 E0.0077
G1 X215.610 Y188.376 E0.0002
G1 X214.926 Y190.538 E0.1111
G1 X214.925 Y190.541 E0.0002
G1 X214.873 Y190.689 E0.0077
G1 X214.872 Y190.692 E0.0002
G1 X214.056 Y192.808 E0.1111
G1 X214.055 Y192.811 E0.0002
G1 X213.994 Y192.956 E0.0077
G1 X213.992 Y192.959 E0.0002
G1 X213.049 Y195.021 E0.1111
G1 X213.047 Y195.024 E0.0002
G1 X213.038 Y195.042 E0.0010
G1 X220.138 Y202.142 E0.4919
G1 X220.143 Y202.148 E0.0004
G1 X220.364 Y202.399 E0.0164
G1 X220.369 Y202.405 E0.0004
G1 X220.992 Y203.218 E0.0502
G1 X221.000 Y203.230 E0.0007
G1 X221.335 Y203.810 E0.0328
G1 X221.342 Y203.824 E0.0007
G1 X221.798 Y204.925 E0.0584
G1 X221.803 Y204.939 E0.0007
G1 X221.976 Y205.586 E0.0328
G1 X221.979 Y205.600 E0.0007
G1 X222.135 Y206.783 E0.0584
G1 X222.136 Y206.797 E0.0007
G1 X222.136 Y207.468 E0.0328
G1 X222.135 Y207.483 E0.0007
G1 X221.979 Y208.665 E0.0584
G1 X221.976 Y208.679 E0.0007
G1 X221.803 Y209.326 E0.0328
G1 X221.798 Y209.340 E0.0007
G1 X221.342 Y210.442 E0.0584
G1 X221.335 Y210.455 E0.0007
G1 X221.000 Y211.035 E0.0328
G1 X220.992 Y211.047 E0.0007
G1 X220.368 Y211.860 E0.0502
G1 X220.364 Y211.866 E0.0004
G1 X220.143 Y212.118 E0.0164
G1 X220.138 Y212.123 E0.0004
G1 X212.123 Y220.138 E0.5552
G1 X212.118 Y220.143 E0.0004
G1 X211.866 Y220.364 E0.0164
G1 X211.860 Y220.369 E0.0004
G1 X211.047 Y220.992 E0.0502
G1 X211.035 Y221.000 E0.0007
G1 X210.455 Y221.335 E0.0328
G1 X210.442 Y221.342 E0.0007
G1 X209.340 Y221.798 E0.0584
G1 X209.326 Y221.803 E0.0007
G1 X208.679 Y221.976 E0.0328
G1 X208.664 Y221.979 E0.0007
G1 X207.482 Y222.135 E0.0584
G1 X207.467 Y222.136 E0.0007
G1 X206.798 Y222.136 E0.0328
G1 X206.783 Y222.135 E0.0007
G1 X205.601 Y221.979 E0.0584
G1 X205.587 Y221.976 E0.0007
G1 X204.939 Y221.803 E0.0328
G1 X204.925 Y221.798 E0.0007
G1 X203.824 Y221.342 E0.0584
G1 X203.810 Y221.335 E0.0007
G1 X203.230 Y221.000 E0.0328
G1 X203.218 Y220.992 E0.0007
G1 X202.405 Y220.369 E0.0502
G1 X202.399 Y220.364 E0.0004
G1 X202.148 Y220.143 E0.0164
G1 X202.142 Y220.138 E0.0004
G1 X195.042 Y213.038 E0.4919
G1 X195.031 Y213.044 E0.0006
G1 X195.028 Y213.045 E0.0002
G1 X192.966 Y213.990 E0.1111
G1 X192.963 Y213.991 E0.0002
G1 X192.818 Y214.052 E0.0077
G1 X192.815 Y214.053 E0.0002
G1 X190.699 Y214.869 E0.1111
G1 X190.696 Y214.870 E0.0002
G1 X190.548 Y214.922 E0.0077
G1 X190.545 Y214.923 E0.0002
G1 X188.383 Y215.608 E0.1111
G1 X188.380 Y215.609 E0.0002
G1 X188.229 Y215.652 E0.0077
G1 X188.226 Y215.653 E0.0002
G1 X186.026 Y216.204 E0.1111
G1 X186.022 Y216.205 E0.0002
G1 X185.869 Y216.238 E0.0077
G1 X185.866 Y216.239 E0.0002
G1 X183.636 Y216.654 E0.1111
G1 X183.633 Y216.655 E0.0002
G1 X183.478 Y216.678 E0.0077
G1 X183.475 Y216.679 E0.0002
G1 X181.224 Y216.956 E0.1111
G1 X181.221 Y216.957 E0.0002
G1 X181.065 Y216.971 E0.0077
G1 X181.061 Y216.971 E0.0002
G1 X178.810 Y217.110 E0.1105
G1 X178.807 Y217.110 E0.0002
