; G-Code generated by Simplify3D(R) Version 4.0.1
; Apr 4, 2023 at 12:31:28 PM
; Settings Summary
;   processName,Process1
;   applyToModels,FlangeMount32DegreeAngle
;   profileName,F410_0.4C_PLA (modified)
;   profileVersion,2022-03-09 09:51:28
;   baseProfile,F400_PLA
;   printMaterial,
;   printQuality,Standard
;   printExtruders,
;   extruderName,Primary Extruder
;   extruderToolheadNumber,0
;   extruderDiameter,0.4
;   extruderAutoWidth,0
;   extruderWidth,0.45
;   extrusionMultiplier,1
;   extruderUseRetract,1
;   extruderRetractionDistance,4.25
;   extruderExtraRestartDistance,0.05
;   extruderRetractionZLift,0
;   extruderRetractionSpeed,24000
;   extruderUseCoasting,0
;   extruderCoastingDistance,0.5
;   extruderUseWipe,0
;   extruderWipeDistance,5
;   primaryExtruder,0
;   layerHeight,0.25
;   topSolidLayers,4
;   bottomSolidLayers,4
;   perimeterOutlines,3
;   printPerimetersInsideOut,0
;   startPointOption,3
;   startPointOriginX,0
;   startPointOriginY,360
;   sequentialIslands,0
;   spiralVaseMode,0
;   firstLayerHeightPercentage,100
;   firstLayerWidthPercentage,100
;   firstLayerUnderspeed,0.4
;   useRaft,0
;   raftExtruder,0
;   raftTopLayers,2
;   raftBaseLayers,0
;   raftOffset,4
;   raftSeparationDistance,0.15
;   raftTopInfill,100
;   aboveRaftSpeedMultiplier,0.3
;   useSkirt,1
;   skirtExtruder,0
;   skirtLayers,1
;   skirtOutlines,1
;   skirtOffset,5
;   usePrimePillar,0
;   primePillarExtruder,999
;   primePillarWidth,12
;   primePillarLocation,7
;   primePillarSpeedMultiplier,1
;   useOozeShield,0
;   oozeShieldExtruder,999
;   oozeShieldOffset,2
;   oozeShieldOutlines,1
;   oozeShieldSidewallShape,1
;   oozeShieldSidewallAngle,30
;   oozeShieldSpeedMultiplier,1
;   infillExtruder,0
;   internalInfillPattern,Rectilinear
;   externalInfillPattern,Rectilinear
;   infillPercentage,25
;   outlineOverlapPercentage,20
;   infillExtrusionWidthPercentage,100
;   minInfillLength,5
;   infillLayerInterval,1
;   internalInfillAngles,45,-45
;   overlapInternalInfillAngles,0
;   externalInfillAngles,45,-45
;   generateSupport,0
;   supportExtruder,0
;   supportInfillPercentage,30
;   supportExtraInflation,0.5
;   supportBaseLayers,0
;   denseSupportExtruder,0
;   denseSupportLayers,0
;   denseSupportInfillPercentage,70
;   supportLayerInterval,1
;   supportHorizontalPartOffset,0.35
;   supportUpperSeparationLayers,1
;   supportLowerSeparationLayers,1
;   supportType,0
;   supportGridSpacing,2
;   maxOverhangAngle,45
;   supportAngles,45
;   temperatureName,Primary Extruder,Heated Bed
;   temperatureNumber,0,2
;   temperatureSetpointCount,1,1
;   temperatureSetpointLayers,1,1
;   temperatureSetpointTemperatures,230,45
;   temperatureStabilizeAtStartup,0,0
;   temperatureHeatedBed,0,1
;   temperatureRelayBetweenLayers,0,0
;   temperatureRelayBetweenLoops,0,0
;   fanLayers,1,3,4,5
;   fanSpeeds,0,25,50,100
;   blipFanToFullPower,0
;   adjustSpeedForCooling,1
;   minSpeedLayerTime,5
;   minCoolingSpeedSlowdown,30
;   increaseFanForCooling,1
;   minFanLayerTime,13
;   maxCoolingFanSpeed,100
;   increaseFanForBridging,1
;   bridgingFanSpeed,100
;   use5D,1
;   relativeEdistances,1
;   allowEaxisZeroing,1
;   independentExtruderAxes,0
;   includeM10123,0
;   stickySupport,1
;   applyToolheadOffsets,0
;   gcodeXoffset,0
;   gcodeYoffset,0
;   gcodeZoffset,0
;   overrideMachineDefinition,1
;   machineTypeOverride,0
;   strokeXoverride,355
;   strokeYoverride,355
;   strokeZoverride,315
;   originOffsetXoverride,0
;   originOffsetYoverride,0
;   originOffsetZoverride,0
;   homeXdirOverride,1
;   homeYdirOverride,-1
;   homeZdirOverride,1
;   flipXoverride,1
;   flipYoverride,-1
;   flipZoverride,1
;   toolheadOffsets,0,0|0,0|0,0|0,0|0,0|0,0
;   overrideFirmwareConfiguration,1
;   firmwareTypeOverride,RepRap (Marlin/Repetier/Sprinter)
;   GPXconfigOverride,r2
;   baudRateOverride,115200
;   overridePrinterModels,0
;   printerModelsOverride
;   startingGcode,M104 S0 ;cancel S3D set temp,G21  ; set units to mm,G90  ; use absolute coordinates,T0  ; select tool 0,G92 E0.0  ; reset e count,M220 S100 ; reset speed multiplier,M140 S[bed2_temperature]  ; set bed temp and do not wait,G32  ; probe bed,M190 S[bed2_temperature]  ; set bed temperature and wait,M109 S[extruder0_temperature]  ; set print head temperature and wait,; === pause for heating ===,; reset filament monitor,M42 P63 S0,G4 P100,G4 P50,M42 P63 S1,;,G1 Z10.0 F2000  ; move up,G1 E30.0 F500  ; prime extruder,G1 X20 Y15 F9000  ; move back,G1 Z0 F1000  ; move down to begin wipe,G1 X150 E4.0 F10000  ; wipe print head (extrude material while we do this),G92 E0.0  ; reset e count
;   layerChangeGcode,
;   retractionGcode,
;   toolChangeGcode,
;   endingGcode,G91  ;relative positioning,G1 E-5.00 F1000  ;retract 5mm of filament,G1 Z+1.00 X-20.0 Y+20.0 F10000  ;short quick move to disengage from print,G90  ;absolute positioning,G1 X0.0 Y350.0 F9000  ; move head to back left corner,G91  ; relative positioning,G1 E-5.00 F500  ;retract additional filament to prevent oozing,G90 ;absolute positioning,M104 S0  ;turn off hotend,M140 S0  ;turn off heatbed,; Reset filament monitor,M42 P63 S0,G4 P100,G4 P50,M42 P63 S1,;,G1 Z315 F1000 ;move print bed down to idle position,M106 S0  ; shut off blower,M84  ;motors off,M561  ;clear bed probe transformation
;   exportFileFormat,gcode
;   celebration,0
;   celebrationSong,Random Song
;   postProcessing,
;   defaultSpeed,6000
;   outlineUnderspeed,0.6
;   solidInfillUnderspeed,0.7
;   supportUnderspeed,1
;   rapidXYspeed,21000
;   rapidZspeed,10000
;   minBridgingArea,50
;   bridgingExtraInflation,0.5
;   bridgingExtrusionMultiplier,1
;   bridgingSpeedMultiplier,0.6
;   useFixedBridgingAngle,0
;   fixedBridgingAngle,0
;   applyBridgingToPerimeters,0
;   filamentDiameters,1.71|1.71|1.71|1.71|1.71|1.71
;   filamentPricesPerKg,46|46|46|46|46|46
;   filamentDensities,1.25|1.25|1.25|1.25|1.25|1.25
;   useMinPrintHeight,0
;   minPrintHeight,13
;   useMaxPrintHeight,0
;   maxPrintHeight,13
;   useDiaphragm,0
;   diaphragmLayerInterval,20
;   robustSlicing,1
;   mergeAllIntoSolid,0
;   onlyRetractWhenCrossingOutline,1
;   retractBetweenLayers,0
;   useRetractionMinTravel,0
;   retractionMinTravel,1
;   retractWhileWiping,0
;   onlyWipeOutlines,1
;   avoidCrossingOutline,0
;   maxMovementDetourFactor,3
;   toolChangeRetractionDistance,0
;   toolChangeExtraRestartDistance,0
;   toolChangeRetractionSpeed,360
;   externalThinWallType,1
;   internalThinWallType,1
;   thinWallAllowedOverlapPercentage,50
;   singleExtrusionMinLength,1
;   singleExtrusionMinPrintingWidthPercentage,50
;   singleExtrusionMaxPrintingWidthPercentage,200
;   singleExtrusionEndpointExtension,0.2
;   horizontalSizeCompensation,0
G90
M83
M106 S0
M104 S0 ;cancel S3D set temp
G21  ; set units to mm
G90  ; use absolute coordinates
T0  ; select tool 0
G92 E0.0  ; reset e count
M220 S100 ; reset speed multiplier
M140 S45  ; set bed temp and do not wait
G32  ; probe bed
M190 S45  ; set bed temperature and wait
M109 S230  ; set print head temperature and wait
; === pause for heating ===
; reset filament monitor
M42 P63 S0
G4 P100
G4 P50
M42 P63 S1
;
G1 Z10.0 F2000  ; move up
G1 E30.0 F500  ; prime extruder
G1 X20 Y15 F9000  ; move back
G1 Z0 F1000  ; move down to begin wipe
G1 X150 E4.0 F10000  ; wipe print head (extrude material while we do this)
G92 E0.0  ; reset e count
G1 E-4.2500 F24000
G1 Z0.250 F10000
; process Process1
; layer 1, Z = 0.250
T0
; tool H0.250 W0.450
; skirt
G1 X155.527 Y128.433 F21000
G1 E4.3000 F7200
G1 X155.536 Y128.421 E0.0007 F2400
G1 X156.294 Y127.501 E0.0584
G1 X156.304 Y127.490 E0.0007
G1 X156.794 Y127.033 E0.0328
G1 X156.806 Y127.023 E0.0007
G1 X157.777 Y126.331 E0.0584
G1 X157.789 Y126.323 E0.0007
G1 X158.381 Y126.009 E0.0328
G1 X158.394 Y126.003 E0.0007
G1 X159.354 Y125.644 E0.0502
G1 X159.361 Y125.642 E0.0004
G1 X159.681 Y125.545 E0.0164
G1 X159.688 Y125.543 E0.0004
G1 X170.733 Y122.994 E0.5552
G1 X170.740 Y122.992 E0.0004
G1 X171.070 Y122.938 E0.0164
G1 X171.077 Y122.937 E0.0004
G1 X172.097 Y122.839 E0.0502
G1 X172.112 Y122.839 E0.0007
G1 X172.782 Y122.862 E0.0328
G1 X172.797 Y122.864 E0.0007
G1 X173.973 Y123.060 E0.0584
G1 X173.987 Y123.064 E0.0007
G1 X174.628 Y123.260 E0.0328
G1 X174.642 Y123.265 E0.0007
G1 X175.726 Y123.759 E0.0584
G1 X175.739 Y123.766 E0.0007
G1 X176.307 Y124.121 E0.0328
G1 X176.319 Y124.130 E0.0007
G1 X177.239 Y124.888 E0.0584
G1 X177.250 Y124.898 E0.0007
G1 X177.707 Y125.389 E0.0328
G1 X177.717 Y125.400 E0.0007
G1 X178.409 Y126.371 E0.0584
G1 X178.417 Y126.383 E0.0007
G1 X178.731 Y126.975 E0.0328
G1 X178.737 Y126.988 E0.0007
G1 X179.096 Y127.948 E0.0502
G1 X179.099 Y127.955 E0.0004
G1 X179.195 Y128.276 E0.0164
G1 X179.197 Y128.283 E0.0004
G1 X181.457 Y138.071 E0.4921
G1 X181.607 Y138.082 E0.0074
G1 X181.611 Y138.082 E0.0002
G1 X181.787 Y138.101 E0.0087
G1 X181.791 Y138.101 E0.0002
G1 X184.342 Y138.463 E0.1262
G1 X184.346 Y138.464 E0.0002
G1 X184.521 Y138.495 E0.0087
G1 X184.525 Y138.496 E0.0002
G1 X187.038 Y139.033 E0.1259
G1 X187.042 Y139.034 E0.0002
G1 X187.214 Y139.077 E0.0087
G1 X187.218 Y139.078 E0.0002
G1 X189.688 Y139.789 E0.1259
G1 X189.691 Y139.790 E0.0002
G1 X189.861 Y139.845 E0.0087
G1 X189.864 Y139.846 E0.0002
G1 X192.278 Y140.727 E0.1259
G1 X192.282 Y140.728 E0.0002
G1 X192.447 Y140.795 E0.0087
G1 X192.450 Y140.796 E0.0002
G1 X194.797 Y141.842 E0.1259
G1 X194.801 Y141.844 E0.0002
G1 X194.961 Y141.922 E0.0087
G1 X194.964 Y141.924 E0.0002
G1 X197.233 Y143.130 E0.1259
G1 X197.236 Y143.132 E0.0002
G1 X197.390 Y143.221 E0.0087
G1 X197.394 Y143.223 E0.0002
G1 X199.573 Y144.584 E0.1259
G1 X199.576 Y144.586 E0.0002
G1 X199.724 Y144.686 E0.0087
G1 X199.727 Y144.688 E0.0002
G1 X201.807 Y146.197 E0.1259
G1 X201.810 Y146.200 E0.0002
G1 X201.950 Y146.309 E0.0087
G1 X201.953 Y146.311 E0.0002
G1 X203.923 Y147.962 E0.1259
G1 X203.926 Y147.964 E0.0002
G1 X204.058 Y148.083 E0.0087
G1 X204.061 Y148.086 E0.0002
G1 X205.911 Y149.869 E0.1259
G1 X205.914 Y149.871 E0.0002
G1 X206.037 Y149.999 E0.0087
G1 X206.040 Y150.002 E0.0002
G1 X207.762 Y151.909 E0.1259
G1 X207.765 Y151.912 E0.0002
G1 X207.879 Y152.048 E0.0087
G1 X207.882 Y152.051 E0.0002
G1 X209.467 Y154.074 E0.1259
G1 X209.469 Y154.077 E0.0002
G1 X209.574 Y154.220 E0.0087
G1 X209.576 Y154.224 E0.0002
G1 X211.017 Y156.351 E0.1259
G1 X211.019 Y156.354 E0.0002
G1 X211.114 Y156.505 E0.0087
G1 X211.116 Y156.508 E0.0002
G1 X211.203 Y156.659 E0.0085
G1 X220.992 Y154.399 E0.4921
G1 X221.000 Y154.398 E0.0004
G1 X221.330 Y154.344 E0.0164
G1 X221.337 Y154.343 E0.0004
G1 X222.357 Y154.245 E0.0502
G1 X222.372 Y154.244 E0.0007
G1 X223.042 Y154.268 E0.0328
G1 X223.056 Y154.269 E0.0007
G1 X224.232 Y154.466 E0.0584
G1 X224.246 Y154.469 E0.0007
G1 X224.887 Y154.665 E0.0328
G1 X224.901 Y154.671 E0.0007
G1 X225.986 Y155.165 E0.0584
G1 X225.999 Y155.172 E0.0007
G1 X226.567 Y155.527 E0.0328
G1 X226.579 Y155.536 E0.0007
G1 X227.499 Y156.294 E0.0584
G1 X227.510 Y156.304 E0.0007
G1 X227.967 Y156.794 E0.0328
G1 X227.976 Y156.806 E0.0007
G1 X228.669 Y157.776 E0.0584
G1 X228.677 Y157.789 E0.0007
G1 X228.991 Y158.381 E0.0328
G1 X228.997 Y158.394 E0.0007
G1 X229.356 Y159.354 E0.0502
G1 X229.358 Y159.361 E0.0004
G1 X229.455 Y159.681 E0.0164
G1 X229.457 Y159.688 E0.0004
G1 X232.006 Y170.733 E0.5552
G1 X232.008 Y170.740 E0.0004
G1 X232.062 Y171.070 E0.0164
G1 X232.063 Y171.077 E0.0004
G1 X232.161 Y172.097 E0.0502
G1 X232.161 Y172.112 E0.0007
G1 X232.138 Y172.782 E0.0328
G1 X232.136 Y172.797 E0.0007
G1 X231.940 Y173.973 E0.0584
G1 X231.936 Y173.987 E0.0007
G1 X231.740 Y174.628 E0.0328
G1 X231.735 Y174.641 E0.0007
G1 X231.241 Y175.726 E0.0584
G1 X231.234 Y175.739 E0.0007
G1 X230.879 Y176.308 E0.0328
G1 X230.870 Y176.320 E0.0007
G1 X230.112 Y177.240 E0.0584
G1 X230.101 Y177.250 E0.0007
G1 X229.611 Y177.707 E0.0328
G1 X229.600 Y177.717 E0.0007
G1 X228.629 Y178.409 E0.0584
G1 X228.617 Y178.417 E0.0007
G1 X228.025 Y178.731 E0.0328
G1 X228.012 Y178.737 E0.0007
G1 X227.052 Y179.096 E0.0502
G1 X227.045 Y179.099 E0.0004
G1 X226.724 Y179.195 E0.0164
G1 X226.717 Y179.197 E0.0004
G1 X216.929 Y181.457 E0.4921
G1 X216.919 Y181.602 E0.0071
G1 X216.918 Y181.606 E0.0002
G1 X216.899 Y181.782 E0.0086
G1 X216.899 Y181.786 E0.0002
G1 X216.537 Y184.342 E0.1265
G1 X216.536 Y184.345 E0.0002
G1 X216.505 Y184.521 E0.0087
G1 X216.504 Y184.525 E0.0002
G1 X215.967 Y187.038 E0.1259
G1 X215.966 Y187.042 E0.0002
G1 X215.923 Y187.215 E0.0087
G1 X215.922 Y187.218 E0.0002
G1 X215.211 Y189.688 E0.1259
G1 X215.210 Y189.691 E0.0002
G1 X215.155 Y189.860 E0.0087
G1 X215.154 Y189.864 E0.0002
G1 X214.273 Y192.278 E0.1259
G1 X214.272 Y192.282 E0.0002
G1 X214.205 Y192.447 E0.0087
G1 X214.204 Y192.450 E0.0002
G1 X213.158 Y194.797 E0.1259
G1 X213.156 Y194.801 E0.0002
G1 X213.078 Y194.961 E0.0087
G1 X213.076 Y194.964 E0.0002
G1 X211.870 Y197.233 E0.1259
G1 X211.868 Y197.236 E0.0002
G1 X211.779 Y197.390 E0.0087
G1 X211.777 Y197.394 E0.0002
G1 X210.416 Y199.573 E0.1259
G1 X210.414 Y199.576 E0.0002
G1 X210.314 Y199.724 E0.0087
G1 X210.312 Y199.727 E0.0002
G1 X208.803 Y201.807 E0.1259
G1 X208.800 Y201.810 E0.0002
G1 X208.691 Y201.950 E0.0087
G1 X208.689 Y201.953 E0.0002
G1 X207.038 Y203.923 E0.1259
G1 X207.036 Y203.926 E0.0002
G1 X206.917 Y204.058 E0.0087
G1 X206.914 Y204.061 E0.0002
G1 X205.131 Y205.911 E0.1259
G1 X205.129 Y205.914 E0.0002
G1 X205.001 Y206.037 E0.0087
G1 X204.998 Y206.040 E0.0002
G1 X203.091 Y207.762 E0.1259
G1 X203.088 Y207.765 E0.0002
G1 X202.952 Y207.879 E0.0087
G1 X202.949 Y207.882 E0.0002
G1 X200.926 Y209.467 E0.1259
G1 X200.923 Y209.469 E0.0002
G1 X200.780 Y209.574 E0.0087
G1 X200.776 Y209.576 E0.0002
G1 X198.649 Y211.017 E0.1259
G1 X198.646 Y211.019 E0.0002
G1 X198.495 Y211.114 E0.0087
G1 X198.492 Y211.116 E0.0002
G1 X198.341 Y211.203 E0.0085
G1 X200.601 Y220.992 E0.4921
G1 X200.602 Y221.000 E0.0004
G1 X200.656 Y221.330 E0.0164
G1 X200.657 Y221.337 E0.0004
G1 X200.755 Y222.357 E0.0502
G1 X200.756 Y222.372 E0.0007
G1 X200.732 Y223.042 E0.0328
G1 X200.731 Y223.056 E0.0007
G1 X200.534 Y224.232 E0.0584
G1 X200.531 Y224.247 E0.0007
G1 X200.335 Y224.887 E0.0328
G1 X200.329 Y224.901 E0.0007
G1 X199.835 Y225.986 E0.0584
G1 X199.828 Y225.999 E0.0007
G1 X199.473 Y226.567 E0.0328
G1 X199.464 Y226.579 E0.0007
G1 X198.706 Y227.499 E0.0584
G1 X198.696 Y227.510 E0.0007
G1 X198.206 Y227.967 E0.0328
G1 X198.194 Y227.976 E0.0007
G1 X197.224 Y228.669 E0.0584
G1 X197.211 Y228.677 E0.0007
G1 X196.619 Y228.991 E0.0328
G1 X196.606 Y228.997 E0.0007
G1 X195.646 Y229.356 E0.0502
G1 X195.639 Y229.358 E0.0004
G1 X195.319 Y229.455 E0.0164
G1 X195.312 Y229.457 E0.0004
G1 X184.267 Y232.006 E0.5552
G1 X184.260 Y232.008 E0.0004
G1 X183.930 Y232.062 E0.0164
G1 X183.922 Y232.063 E0.0004
G1 X182.903 Y232.161 E0.0502
G1 X182.888 Y232.161 E0.0007
G1 X182.218 Y232.138 E0.0328
G1 X182.204 Y232.136 E0.0007
G1 X181.028 Y231.940 E0.0584
G1 X181.013 Y231.936 E0.0007
G1 X180.372 Y231.740 E0.0328
G1 X180.359 Y231.735 E0.0007
G1 X179.274 Y231.241 E0.0584
G1 X179.261 Y231.234 E0.0007
G1 X178.692 Y230.879 E0.0328
G1 X178.680 Y230.870 E0.0007
G1 X177.760 Y230.112 E0.0584
G1 X177.750 Y230.101 E0.0007
G1 X177.293 Y229.611 E0.0328
G1 X177.283 Y229.600 E0.0007
G1 X176.591 Y228.629 E0.0584
G1 X176.583 Y228.617 E0.0007
G1 X176.269 Y228.025 E0.0328
G1 X176.262 Y228.012 E0.0007
G1 X175.904 Y227.052 E0.0502
G1 X175.901 Y227.045 E0.0004
G1 X175.805 Y226.724 E0.0164
G1 X175.803 Y226.717 E0.0004
G1 X173.543 Y216.929 E0.4921
G1 X173.393 Y216.918 E0.0074
G1 X173.389 Y216.918 E0.0002
G1 X173.213 Y216.899 E0.0087
G1 X173.209 Y216.899 E0.0002
G1 X170.658 Y216.537 E0.1262
G1 X170.654 Y216.536 E0.0002
G1 X170.479 Y216.505 E0.0087
G1 X170.475 Y216.504 E0.0002
G1 X167.962 Y215.967 E0.1259
G1 X167.958 Y215.966 E0.0002
G1 X167.785 Y215.923 E0.0087
G1 X167.782 Y215.922 E0.0002
G1 X165.312 Y215.211 E0.1259
G1 X165.309 Y215.210 E0.0002
G1 X165.140 Y215.155 E0.0087
G1 X165.136 Y215.154 E0.0002
G1 X162.722 Y214.273 E0.1259
G1 X162.718 Y214.272 E0.0002
G1 X162.553 Y214.205 E0.0087
G1 X162.550 Y214.204 E0.0002
G1 X160.203 Y213.158 E0.1259
G1 X160.199 Y213.156 E0.0002
