; G-Code generated by Simplify3D(R) Version 4.0.1
; Apr 24, 2023 at 1:29:57 PM
; Settings Summary
;   processName,Process1
;   applyToModels,Pogo-Clip
;   profileName,F410_0.4C_PLA (modified)
;   profileVersion,2022-03-09 09:51:28
;   baseProfile,F400_PLA
;   printMaterial,
;   printQuality,Draft
;   printExtruders,
;   extruderName,Primary Extruder
;   extruderToolheadNumber,0
;   extruderDiameter,0.4
;   extruderAutoWidth,0
;   extruderWidth,0.45
;   extrusionMultiplier,1
;   extruderUseRetract,1
;   extruderRetractionDistance,5
;   extruderExtraRestartDistance,0.05
;   extruderRetractionZLift,0.15
;   extruderRetractionSpeed,24000
;   extruderUseCoasting,0
;   extruderCoastingDistance,0.5
;   extruderUseWipe,0
;   extruderWipeDistance,5
;   primaryExtruder,0
;   layerHeight,0.3
;   topSolidLayers,3
;   bottomSolidLayers,3
;   perimeterOutlines,3
;   printPerimetersInsideOut,0
;   startPointOption,3
;   startPointOriginX,0
;   startPointOriginY,360
;   sequentialIslands,0
;   spiralVaseMode,0
;   firstLayerHeightPercentage,100
;   firstLayerWidthPercentage,100
;   firstLayerUnderspeed,0.4
;   useRaft,0
;   raftExtruder,0
;   raftTopLayers,2
;   raftBaseLayers,0
;   raftOffset,4
;   raftSeparationDistance,0.15
;   raftTopInfill,100
;   aboveRaftSpeedMultiplier,0.3
;   useSkirt,1
;   skirtExtruder,0
;   skirtLayers,1
;   skirtOutlines,1
;   skirtOffset,5
;   usePrimePillar,0
;   primePillarExtruder,999
;   primePillarWidth,12
;   primePillarLocation,7
;   primePillarSpeedMultiplier,1
;   useOozeShield,0
;   oozeShieldExtruder,999
;   oozeShieldOffset,2
;   oozeShieldOutlines,1
;   oozeShieldSidewallShape,1
;   oozeShieldSidewallAngle,30
;   oozeShieldSpeedMultiplier,1
;   infillExtruder,0
;   internalInfillPattern,Rectilinear
;   externalInfillPattern,Rectilinear
;   infillPercentage,15
;   outlineOverlapPercentage,20
;   infillExtrusionWidthPercentage,100
;   minInfillLength,5
;   infillLayerInterval,1
;   internalInfillAngles,45,-45
;   overlapInternalInfillAngles,0
;   externalInfillAngles,45,-45
;   generateSupport,1
;   supportExtruder,0
;   supportInfillPercentage,25
;   supportExtraInflation,0.5
;   supportBaseLayers,0
;   denseSupportExtruder,0
;   denseSupportLayers,0
;   denseSupportInfillPercentage,70
;   supportLayerInterval,1
;   supportHorizontalPartOffset,0.35
;   supportUpperSeparationLayers,1
;   supportLowerSeparationLayers,1
;   supportType,0
;   supportGridSpacing,2
;   maxOverhangAngle,45
;   supportAngles,45
;   temperatureName,Primary Extruder,Heated Bed
;   temperatureNumber,0,2
;   temperatureSetpointCount,1,1
;   temperatureSetpointLayers,1,1
;   temperatureSetpointTemperatures,250,45
;   temperatureStabilizeAtStartup,0,0
;   temperatureHeatedBed,0,1
;   temperatureRelayBetweenLayers,0,0
;   temperatureRelayBetweenLoops,0,0
;   fanLayers,1,3,4,5
;   fanSpeeds,0,25,50,100
;   blipFanToFullPower,0
;   adjustSpeedForCooling,1
;   minSpeedLayerTime,5
;   minCoolingSpeedSlowdown,30
;   increaseFanForCooling,1
;   minFanLayerTime,13
;   maxCoolingFanSpeed,100
;   increaseFanForBridging,1
;   bridgingFanSpeed,100
;   use5D,1
;   relativeEdistances,1
;   allowEaxisZeroing,1
;   independentExtruderAxes,0
;   includeM10123,0
;   stickySupport,1
;   applyToolheadOffsets,0
;   gcodeXoffset,0
;   gcodeYoffset,0
;   gcodeZoffset,0
;   overrideMachineDefinition,1
;   machineTypeOverride,0
;   strokeXoverride,355
;   strokeYoverride,355
;   strokeZoverride,315
;   originOffsetXoverride,0
;   originOffsetYoverride,0
;   originOffsetZoverride,0
;   homeXdirOverride,1
;   homeYdirOverride,-1
;   homeZdirOverride,1
;   flipXoverride,1
;   flipYoverride,-1
;   flipZoverride,1
;   toolheadOffsets,0,0|0,0|0,0|0,0|0,0|0,0
;   overrideFirmwareConfiguration,1
;   firmwareTypeOverride,RepRap (Marlin/Repetier/Sprinter)
;   GPXconfigOverride,r2
;   baudRateOverride,115200
;   overridePrinterModels,0
;   printerModelsOverride
;   startingGcode,M104 S0 ;cancel S3D set temp,G21  ; set units to mm,G90  ; use absolute coordinates,T0  ; select tool 0,G92 E0.0  ; reset e count,M220 S100 ; reset speed multiplier,M140 S[bed2_temperature]  ; set bed temp and do not wait,G32  ; probe bed,M190 S[bed2_temperature]  ; set bed temperature and wait,M109 S[extruder0_temperature]  ; set print head temperature and wait,; === pause for heating ===,; reset filament monitor,M42 P63 S0,G4 P100,G4 P50,M42 P63 S1,;,G1 Z10.0 F2000  ; move up,G1 E30.0 F500  ; prime extruder,G1 X20 Y15 F9000  ; move back,G1 Z0 F1000  ; move down to begin wipe,G1 X150 E4.0 F10000  ; wipe print head (extrude material while we do this),G92 E0.0  ; reset e count
;   layerChangeGcode,
;   retractionGcode,
;   toolChangeGcode,
;   endingGcode,G91  ;relative positioning,G1 E-5.00 F1000  ;retract 5mm of filament,G1 Z+1.00 X-20.0 Y+20.0 F10000  ;short quick move to disengage from print,G90  ;absolute positioning,G1 X0.0 Y350.0 F9000  ; move head to back left corner,G91  ; relative positioning,G1 E-5.00 F500  ;retract additional filament to prevent oozing,G90 ;absolute positioning,M104 S0  ;turn off hotend,M140 S0  ;turn off heatbed,; Reset filament monitor,M42 P63 S0,G4 P100,G4 P50,M42 P63 S1,;,G1 Z315 F1000 ;move print bed down to idle position,M106 S0  ; shut off blower,M84  ;motors off,M561  ;clear bed probe transformation
;   exportFileFormat,gcode
;   celebration,0
;   celebrationSong,Random Song
;   postProcessing,
;   defaultSpeed,7600
;   outlineUnderspeed,0.6
;   solidInfillUnderspeed,0.7
;   supportUnderspeed,1
;   rapidXYspeed,21000
;   rapidZspeed,10000
;   minBridgingArea,50
;   bridgingExtraInflation,0.5
;   bridgingExtrusionMultiplier,1
;   bridgingSpeedMultiplier,0.6
;   useFixedBridgingAngle,0
;   fixedBridgingAngle,0
;   applyBridgingToPerimeters,0
;   filamentDiameters,1.71|1.71|1.71|1.71|1.71|1.71
;   filamentPricesPerKg,46|46|46|46|46|46
;   filamentDensities,1.25|1.25|1.25|1.25|1.25|1.25
;   useMinPrintHeight,0
;   minPrintHeight,13
;   useMaxPrintHeight,0
;   maxPrintHeight,13
;   useDiaphragm,0
;   diaphragmLayerInterval,20
;   robustSlicing,1
;   mergeAllIntoSolid,0
;   onlyRetractWhenCrossingOutline,1
;   retractBetweenLayers,0
;   useRetractionMinTravel,0
;   retractionMinTravel,1
;   retractWhileWiping,0
;   onlyWipeOutlines,1
;   avoidCrossingOutline,0
;   maxMovementDetourFactor,3
;   toolChangeRetractionDistance,0
;   toolChangeExtraRestartDistance,0
;   toolChangeRetractionSpeed,360
;   externalThinWallType,1
;   internalThinWallType,1
;   thinWallAllowedOverlapPercentage,50
;   singleExtrusionMinLength,1
;   singleExtrusionMinPrintingWidthPercentage,50
;   singleExtrusionMaxPrintingWidthPercentage,200
;   singleExtrusionEndpointExtension,0.2
;   horizontalSizeCompensation,0
G90
M83
M106 S0
M104 S0 ;cancel S3D set temp
G21  ; set units to mm
G90  ; use absolute coordinates
T0  ; select tool 0
G92 E0.0  ; reset e count
M220 S100 ; reset speed multiplier
M140 S45  ; set bed temp and do not wait
G32  ; probe bed
M190 S45  ; set bed temperature and wait
M109 S250  ; set print head temperature and wait
; === pause for heating ===
; reset filament monitor
M42 P63 S0
G4 P100
G4 P50
M42 P63 S1
;
G1 Z10.0 F2000  ; move up
G1 E30.0 F500  ; prime extruder
G1 X20 Y15 F9000  ; move back
G1 Z0 F1000  ; move down to begin wipe
G1 X150 E4.0 F10000  ; wipe print head (extrude material while we do this)
G92 E0.0  ; reset e count
G1 E-5.0000 F24000
G1 Z0.450 F10000
; process Process1
; layer 1, Z = 0.300
M106 S7
T0
; tool H0.300 W0.450
; skirt
G1 X169.113 Y168.309 F21000
G1 Z0.300 F10000
G1 E5.0500 F7200
G1 X169.195 Y168.275 E0.0053 F2336
G1 X175.927 Y168.275 E0.3957
G1 X176.010 Y168.309 E0.0053
G1 X177.500 Y169.800 E0.1239
G1 X178.990 Y168.309 E0.1239
G1 X179.073 Y168.275 E0.0053
G1 X185.805 Y168.275 E0.3957
G1 X185.887 Y168.309 E0.0053
G1 X188.880 Y171.301 E0.2487
G1 X188.914 Y171.384 E0.0053
G1 X188.914 Y183.616 E0.7190
G1 X188.880 Y183.699 E0.0053
G1 X185.887 Y186.691 E0.2487
G1 X185.805 Y186.725 E0.0053
G1 X169.195 Y186.725 E0.9764
G1 X169.113 Y186.691 E0.0053
G1 X166.120 Y183.699 E0.2487
G1 X166.086 Y183.616 E0.0053
G1 X166.086 Y171.384 E0.7190
G1 X166.120 Y171.301 E0.0053
G1 X169.113 Y168.309 E0.2487
G1 E-5.0000 F24000
G1 Z0.450 F10000
; outer perimeter
G1 X171.536 Y181.275 F21000
G1 Z0.300 F10000
G1 E5.0500 F24000
G1 X171.536 Y173.725 E0.4438 F1401
G1 X173.586 Y173.725 E0.1205
G1 X173.586 Y179.225 E0.3233
G1 X181.414 Y179.225 E0.4601
G1 X181.414 Y173.725 E0.3233
G1 X183.464 Y173.725 E0.1205
G1 X183.464 Y181.275 E0.4438
G1 X171.536 Y181.275 E0.7011
; inner perimeter
G1 X171.986 Y180.825 F21000
G1 X171.986 Y174.175 E0.3909 F1869
G1 X173.136 Y174.175 E0.0676
G1 X173.136 Y179.675 E0.3233
G1 X181.864 Y179.675 E0.5130
G1 X181.864 Y174.175 E0.3233
G1 X183.014 Y174.175 E0.0676
G1 X183.014 Y180.825 E0.3909
G1 X171.986 Y180.825 E0.6482
G1 X172.436 Y180.375 F21000
G1 X172.436 Y174.625 E0.3380 F1869
G1 X172.686 Y174.625 E0.0147
G1 X172.686 Y180.125 E0.3233
G1 X182.314 Y180.125 E0.5659
G1 X182.314 Y174.625 E0.3233
G1 X182.564 Y174.625 E0.0147
G1 X182.564 Y180.375 E0.3380
G1 X172.436 Y180.375 E0.5953
; layer 2, Z = 0.600
M106 S155
; outer perimeter
G1 X171.536 Y181.275 F21000
G1 Z0.600 F10000
G1 X171.536 Y173.725 E0.4438 F1401
G1 X173.586 Y173.725 E0.1205
G1 X173.586 Y179.225 E0.3233
G1 X181.414 Y179.225 E0.4601
G1 X181.414 Y173.725 E0.3233
G1 X183.464 Y173.725 E0.1205
G1 X183.464 Y181.275 E0.4438
G1 X171.536 Y181.275 E0.7011
; inner perimeter
G1 X171.986 Y180.825 F21000
G1 X171.986 Y174.175 E0.3909 F1869
G1 X173.136 Y174.175 E0.0676
G1 X173.136 Y179.675 E0.3233
G1 X181.864 Y179.675 E0.5130
G1 X181.864 Y174.175 E0.3233
G1 X183.014 Y174.175 E0.0676
G1 X183.014 Y180.825 E0.3909
G1 X171.986 Y180.825 E0.6482
G1 X172.436 Y180.375 F21000
G1 X172.436 Y174.625 E0.3380 F1869
G1 X172.686 Y174.625 E0.0147
G1 X172.686 Y180.125 E0.3233
G1 X182.314 Y180.125 E0.5659
G1 X182.314 Y174.625 E0.3233
G1 X182.564 Y174.625 E0.0147
G1 X182.564 Y180.375 E0.3380
G1 X172.436 Y180.375 E0.5953
; layer 3, Z = 0.900
M106 S181
; outer perimeter
G1 X171.536 Y181.275 F21000
G1 Z0.900 F10000
G1 X171.536 Y173.725 E0.4438 F1401
G1 X173.586 Y173.725 E0.1205
G1 X173.586 Y179.225 E0.3233
G1 X181.414 Y179.225 E0.4601
G1 X181.414 Y173.725 E0.3233
G1 X183.464 Y173.725 E0.1205
G1 X183.464 Y181.275 E0.4438
G1 X171.536 Y181.275 E0.7011
; inner perimeter
G1 X171.986 Y180.825 F21000
G1 X171.986 Y174.175 E0.3909 F1869
G1 X173.136 Y174.175 E0.0676
G1 X173.136 Y179.675 E0.3233
G1 X181.864 Y179.675 E0.5130
G1 X181.864 Y174.175 E0.3233
G1 X183.014 Y174.175 E0.0676
G1 X183.014 Y180.825 E0.3909
G1 X171.986 Y180.825 E0.6482
G1 X172.436 Y180.375 F21000
G1 X172.436 Y174.625 E0.3380 F1869
G1 X172.686 Y174.625 E0.0147
G1 X172.686 Y180.125 E0.3233
G1 X182.314 Y180.125 E0.5659
G1 X182.314 Y174.625 E0.3233
G1 X182.564 Y174.625 E0.0147
G1 X182.564 Y180.375 E0.3380
G1 X172.436 Y180.375 E0.5953
; layer 4, Z = 1.200
M106 S204
; outer perimeter
G1 X171.536 Y181.275 F21000
G1 Z1.200 F10000
G1 X171.536 Y173.725 E0.4438 F1401
G1 X173.586 Y173.725 E0.1205
G1 X173.586 Y179.225 E0.3233
G1 X181.414 Y179.225 E0.4601
G1 X181.414 Y173.725 E0.3233
G1 X183.464 Y173.725 E0.1205
G1 X183.464 Y181.275 E0.4438
G1 X171.536 Y181.275 E0.7011
; inner perimeter
G1 X171.986 Y180.825 F21000
G1 X171.986 Y174.175 E0.3909 F1869
G1 X173.136 Y174.175 E0.0676
G1 X173.136 Y179.675 E0.3233
G1 X181.864 Y179.675 E0.5130
G1 X181.864 Y174.175 E0.3233
G1 X183.014 Y174.175 E0.0676
G1 X183.014 Y180.825 E0.3909
G1 X171.986 Y180.825 E0.6482
G1 X172.436 Y180.375 F21000
G1 X172.436 Y174.625 E0.3380 F1869
G1 X172.686 Y174.625 E0.0147
G1 X172.686 Y180.125 E0.3233
G1 X182.314 Y180.125 E0.5659
G1 X182.314 Y174.625 E0.3233
G1 X182.564 Y174.625 E0.0147
G1 X182.564 Y180.375 E0.3380
G1 X172.436 Y180.375 E0.5953
; layer 5, Z = 1.500
M106 S255
; outer perimeter
G1 X171.536 Y181.275 F21000
G1 Z1.500 F10000
G1 X171.536 Y173.725 E0.4438 F1401
G1 X173.586 Y173.725 E0.1205
G1 X173.586 Y179.225 E0.3233
G1 X181.414 Y179.225 E0.4601
G1 X181.414 Y173.725 E0.3233
G1 X183.464 Y173.725 E0.1205
G1 X183.464 Y181.275 E0.4438
G1 X171.536 Y181.275 E0.7011
; inner perimeter
G1 X171.986 Y180.825 F21000
G1 X171.986 Y174.175 E0.3909 F1869
G1 X173.136 Y174.175 E0.0676
G1 X173.136 Y179.675 E0.3233
G1 X181.864 Y179.675 E0.5130
G1 X181.864 Y174.175 E0.3233
G1 X183.014 Y174.175 E0.0676
G1 X183.014 Y180.825 E0.3909
G1 X171.986 Y180.825 E0.6482
G1 X172.436 Y180.375 F21000
G1 X172.436 Y174.625 E0.3380 F1869
G1 X172.686 Y174.625 E0.0147
G1 X172.686 Y180.125 E0.3233
G1 X182.314 Y180.125 E0.5659
G1 X182.314 Y174.625 E0.3233
G1 X182.564 Y174.625 E0.0147
G1 X182.564 Y180.375 E0.3380
G1 X172.436 Y180.375 E0.5953
; layer 6, Z = 1.800
; outer perimeter
G1 X171.536 Y181.275 F21000
G1 Z1.800 F10000
G1 X171.536 Y173.725 E0.4438 F1401
G1 X173.586 Y173.725 E0.1205
G1 X173.586 Y179.225 E0.3233
G1 X181.414 Y179.225 E0.4601
G1 X181.414 Y173.725 E0.3233
G1 X183.464 Y173.725 E0.1205
G1 X183.464 Y181.275 E0.4438
G1 X171.536 Y181.275 E0.7011
; inner perimeter
G1 X171.986 Y180.825 F21000
G1 X171.986 Y174.175 E0.3909 F1869
G1 X173.136 Y174.175 E0.0676
G1 X173.136 Y179.675 E0.3233
G1 X181.864 Y179.675 E0.5130
G1 X181.864 Y174.175 E0.3233
G1 X183.014 Y174.175 E0.0676
G1 X183.014 Y180.825 E0.3909
G1 X171.986 Y180.825 E0.6482
G1 X172.436 Y180.375 F21000
G1 X172.436 Y174.625 E0.3380 F1869
G1 X172.686 Y174.625 E0.0147
G1 X172.686 Y180.125 E0.3233
G1 X182.314 Y180.125 E0.5659
G1 X182.314 Y174.625 E0.3233
G1 X182.564 Y174.625 E0.0147
G1 X182.564 Y180.375 E0.3380
G1 X172.436 Y180.375 E0.5953
; layer 7, Z = 2.100
; outer perimeter
G1 X171.536 Y181.275 F21000
G1 Z2.100 F10000
G1 X171.536 Y173.725 E0.4438 F1401
G1 X173.586 Y173.725 E0.1205
G1 X173.586 Y179.225 E0.3233
G1 X181.414 Y179.225 E0.4601
G1 X181.414 Y173.725 E0.3233
G1 X183.464 Y173.725 E0.1205
G1 X183.464 Y181.275 E0.4438
G1 X171.536 Y181.275 E0.7011
; inner perimeter
G1 X171.986 Y180.825 F21000
G1 X171.986 Y174.175 E0.3909 F1869
G1 X173.136 Y174.175 E0.0676
G1 X173.136 Y179.675 E0.3233
G1 X181.864 Y179.675 E0.5130
G1 X181.864 Y174.175 E0.3233
G1 X183.014 Y174.175 E0.0676
G1 X183.014 Y180.825 E0.3909
G1 X171.986 Y180.825 E0.6482
G1 X172.436 Y180.375 F21000
G1 X172.436 Y174.625 E0.3380 F1869
G1 X172.686 Y174.625 E0.0147
G1 X172.686 Y180.125 E0.3233
G1 X182.314 Y180.125 E0.5659
G1 X182.314 Y174.625 E0.3233
G1 X182.564 Y174.625 E0.0147
G1 X182.564 Y180.375 E0.3380
G1 X172.436 Y180.375 E0.5953
; layer 8, Z = 2.400
; outer perimeter
G1 X171.536 Y181.275 F21000
G1 Z2.400 F10000
G1 X171.536 Y173.725 E0.4438 F1401
G1 X173.586 Y173.725 E0.1205
G1 X173.586 Y179.225 E0.3233
G1 X181.414 Y179.225 E0.4601
G1 X181.414 Y173.725 E0.3233
G1 X183.464 Y173.725 E0.1205
G1 X183.464 Y181.275 E0.4438
G1 X171.536 Y181.275 E0.7011
; inner perimeter
G1 X171.986 Y180.825 F21000
G1 X171.986 Y174.175 E0.3909 F1869
G1 X173.136 Y174.175 E0.0676
G1 X173.136 Y179.675 E0.3233
G1 X181.864 Y179.675 E0.5130
G1 X181.864 Y174.175 E0.3233
G1 X183.014 Y174.175 E0.0676
G1 X183.014 Y180.825 E0.3909
G1 X171.986 Y180.825 E0.6482
G1 X172.436 Y180.375 F21000
G1 X172.436 Y174.625 E0.3380 F1869
G1 X172.686 Y174.625 E0.0147
G1 X172.686 Y180.125 E0.3233
G1 X182.314 Y180.125 E0.5659
G1 X182.314 Y174.625 E0.3233
G1 X182.564 Y174.625 E0.0147
G1 X182.564 Y180.375 E0.3380
G1 X172.436 Y180.375 E0.5953
; layer 9, Z = 2.700
; outer perimeter
G1 X171.536 Y181.275 F21000
G1 Z2.700 F10000
G1 X171.536 Y173.725 E0.4438 F1401
G1 X173.586 Y173.725 E0.1205
G1 X173.586 Y179.225 E0.3233
G1 X181.414 Y179.225 E0.4601
G1 X181.414 Y173.725 E0.3233
G1 X183.464 Y173.725 E0.1205
G1 X183.464 Y181.275 E0.4438
G1 X171.536 Y181.275 E0.7011
; inner perimeter
G1 X171.986 Y180.825 F21000
G1 X171.986 Y174.175 E0.3909 F1869
G1 X173.136 Y174.175 E0.0676
G1 X173.136 Y179.675 E0.3233
G1 X181.864 Y179.675 E0.5130
G1 X181.864 Y174.175 E0.3233
G1 X183.014 Y174.175 E0.0676
G1 X183.014 Y180.825 E0.3909
G1 X171.986 Y180.825 E0.6482
G1 X172.436 Y180.375 F21000
G1 X172.436 Y174.625 E0.3380 F1869
G1 X172.686 Y174.625 E0.0147
G1 X172.686 Y180.125 E0.3233
G1 X182.314 Y180.125 E0.5659
G1 X182.314 Y174.625 E0.3233
G1 X182.564 Y174.625 E0.0147
