; G-Code generated by Simplify3D(R) Version 4.0.1
; Dec 6, 2022 at 2:05:22 PM
; Settings Summary
;   processName,Process1
;   applyToModels,80_20 Mount,FlangeMount,Movable Mount,Movable Mount(2)
;   profileName,F410_0.4C_PLA (modified)
;   profileVersion,2022-03-09 09:51:28
;   baseProfile,F400_PLA
;   printMaterial,
;   printQuality,Standard
;   printExtruders,
;   extruderName,Primary Extruder
;   extruderToolheadNumber,0
;   extruderDiameter,0.4
;   extruderAutoWidth,0
;   extruderWidth,0.45
;   extrusionMultiplier,1
;   extruderUseRetract,1
;   extruderRetractionDistance,4.25
;   extruderExtraRestartDistance,0.05
;   extruderRetractionZLift,0
;   extruderRetractionSpeed,24000
;   extruderUseCoasting,0
;   extruderCoastingDistance,0.5
;   extruderUseWipe,0
;   extruderWipeDistance,5
;   primaryExtruder,0
;   layerHeight,0.2
;   topSolidLayers,3
;   bottomSolidLayers,3
;   perimeterOutlines,2
;   printPerimetersInsideOut,0
;   startPointOption,3
;   startPointOriginX,0
;   startPointOriginY,360
;   sequentialIslands,0
;   spiralVaseMode,0
;   firstLayerHeightPercentage,100
;   firstLayerWidthPercentage,100
;   firstLayerUnderspeed,0.4
;   useRaft,0
;   raftExtruder,0
;   raftTopLayers,2
;   raftBaseLayers,0
;   raftOffset,4
;   raftSeparationDistance,0.15
;   raftTopInfill,100
;   aboveRaftSpeedMultiplier,0.3
;   useSkirt,1
;   skirtExtruder,0
;   skirtLayers,1
;   skirtOutlines,1
;   skirtOffset,5
;   usePrimePillar,0
;   primePillarExtruder,999
;   primePillarWidth,12
;   primePillarLocation,7
;   primePillarSpeedMultiplier,1
;   useOozeShield,0
;   oozeShieldExtruder,999
;   oozeShieldOffset,2
;   oozeShieldOutlines,1
;   oozeShieldSidewallShape,1
;   oozeShieldSidewallAngle,30
;   oozeShieldSpeedMultiplier,1
;   infillExtruder,0
;   internalInfillPattern,Rectilinear
;   externalInfillPattern,Rectilinear
;   infillPercentage,15
;   outlineOverlapPercentage,20
;   infillExtrusionWidthPercentage,100
;   minInfillLength,5
;   infillLayerInterval,1
;   internalInfillAngles,45,-45
;   overlapInternalInfillAngles,0
;   externalInfillAngles,45,-45
;   generateSupport,0
;   supportExtruder,0
;   supportInfillPercentage,30
;   supportExtraInflation,0.5
;   supportBaseLayers,0
;   denseSupportExtruder,0
;   denseSupportLayers,0
;   denseSupportInfillPercentage,70
;   supportLayerInterval,1
;   supportHorizontalPartOffset,0.35
;   supportUpperSeparationLayers,1
;   supportLowerSeparationLayers,1
;   supportType,0
;   supportGridSpacing,2
;   maxOverhangAngle,45
;   supportAngles,45
;   temperatureName,Primary Extruder,Heated Bed
;   temperatureNumber,0,2
;   temperatureSetpointCount,1,1
;   temperatureSetpointLayers,1,1
;   temperatureSetpointTemperatures,230,45
;   temperatureStabilizeAtStartup,0,0
;   temperatureHeatedBed,0,1
;   temperatureRelayBetweenLayers,0,0
;   temperatureRelayBetweenLoops,0,0
;   fanLayers,1,3,4,5
;   fanSpeeds,0,25,50,100
;   blipFanToFullPower,0
;   adjustSpeedForCooling,1
;   minSpeedLayerTime,5
;   minCoolingSpeedSlowdown,30
;   increaseFanForCooling,1
;   minFanLayerTime,13
;   maxCoolingFanSpeed,100
;   increaseFanForBridging,1
;   bridgingFanSpeed,100
;   use5D,1
;   relativeEdistances,1
;   allowEaxisZeroing,1
;   independentExtruderAxes,0
;   includeM10123,0
;   stickySupport,1
;   applyToolheadOffsets,0
;   gcodeXoffset,0
;   gcodeYoffset,0
;   gcodeZoffset,0
;   overrideMachineDefinition,1
;   machineTypeOverride,0
;   strokeXoverride,355
;   strokeYoverride,355
;   strokeZoverride,315
;   originOffsetXoverride,0
;   originOffsetYoverride,0
;   originOffsetZoverride,0
;   homeXdirOverride,1
;   homeYdirOverride,-1
;   homeZdirOverride,1
;   flipXoverride,1
;   flipYoverride,-1
;   flipZoverride,1
;   toolheadOffsets,0,0|0,0|0,0|0,0|0,0|0,0
;   overrideFirmwareConfiguration,1
;   firmwareTypeOverride,RepRap (Marlin/Repetier/Sprinter)
;   GPXconfigOverride,r2
;   baudRateOverride,115200
;   overridePrinterModels,0
;   printerModelsOverride
;   startingGcode,M104 S0 ;cancel S3D set temp,G21  ; set units to mm,G90  ; use absolute coordinates,T0  ; select tool 0,G92 E0.0  ; reset e count,M220 S100 ; reset speed multiplier,M140 S[bed2_temperature]  ; set bed temp and do not wait,G32  ; probe bed,M190 S[bed2_temperature]  ; set bed temperature and wait,M109 S[extruder0_temperature]  ; set print head temperature and wait,; === pause for heating ===,; reset filament monitor,M42 P63 S0,G4 P100,G4 P50,M42 P63 S1,;,G1 Z10.0 F2000  ; move up,G1 E30.0 F500  ; prime extruder,G1 X20 Y15 F9000  ; move back,G1 Z0 F1000  ; move down to begin wipe,G1 X150 E4.0 F10000  ; wipe print head (extrude material while we do this),G92 E0.0  ; reset e count
;   layerChangeGcode,
;   retractionGcode,
;   toolChangeGcode,
;   endingGcode,G91  ;relative positioning,G1 E-5.00 F1000  ;retract 5mm of filament,G1 Z+1.00 X-20.0 Y+20.0 F10000  ;short quick move to disengage from print,G90  ;absolute positioning,G1 X0.0 Y350.0 F9000  ; move head to back left corner,G91  ; relative positioning,G1 E-5.00 F500  ;retract additional filament to prevent oozing,G90 ;absolute positioning,M104 S0  ;turn off hotend,M140 S0  ;turn off heatbed,; Reset filament monitor,M42 P63 S0,G4 P100,G4 P50,M42 P63 S1,;,G1 Z315 F1000 ;move print bed down to idle position,M106 S0  ; shut off blower,M84  ;motors off,M561  ;clear bed probe transformation
;   exportFileFormat,gcode
;   celebration,0
;   celebrationSong,Random Song
;   postProcessing,
;   defaultSpeed,6000
;   outlineUnderspeed,0.6
;   solidInfillUnderspeed,0.7
;   supportUnderspeed,1
;   rapidXYspeed,21000
;   rapidZspeed,10000
;   minBridgingArea,50
;   bridgingExtraInflation,0.5
;   bridgingExtrusionMultiplier,1
;   bridgingSpeedMultiplier,0.6
;   useFixedBridgingAngle,0
;   fixedBridgingAngle,0
;   applyBridgingToPerimeters,0
;   filamentDiameters,1.71|1.71|1.71|1.71|1.71|1.71
;   filamentPricesPerKg,46|46|46|46|46|46
;   filamentDensities,1.25|1.25|1.25|1.25|1.25|1.25
;   useMinPrintHeight,0
;   minPrintHeight,13
;   useMaxPrintHeight,0
;   maxPrintHeight,13
;   useDiaphragm,0
;   diaphragmLayerInterval,20
;   robustSlicing,1
;   mergeAllIntoSolid,0
;   onlyRetractWhenCrossingOutline,1
;   retractBetweenLayers,0
;   useRetractionMinTravel,0
;   retractionMinTravel,1
;   retractWhileWiping,0
;   onlyWipeOutlines,1
;   avoidCrossingOutline,0
;   maxMovementDetourFactor,3
;   toolChangeRetractionDistance,0
;   toolChangeExtraRestartDistance,0
;   toolChangeRetractionSpeed,360
;   externalThinWallType,1
;   internalThinWallType,1
;   thinWallAllowedOverlapPercentage,50
;   singleExtrusionMinLength,1
;   singleExtrusionMinPrintingWidthPercentage,50
;   singleExtrusionMaxPrintingWidthPercentage,200
;   singleExtrusionEndpointExtension,0.2
;   horizontalSizeCompensation,0
G90
M83
M106 S0
M104 S0 ;cancel S3D set temp
G21  ; set units to mm
G90  ; use absolute coordinates
T0  ; select tool 0
G92 E0.0  ; reset e count
M220 S100 ; reset speed multiplier
M140 S45  ; set bed temp and do not wait
G32  ; probe bed
M190 S45  ; set bed temperature and wait
M109 S230  ; set print head temperature and wait
; === pause for heating ===
; reset filament monitor
M42 P63 S0
G4 P100
G4 P50
M42 P63 S1
;
G1 Z10.0 F2000  ; move up
G1 E30.0 F500  ; prime extruder
G1 X20 Y15 F9000  ; move back
G1 Z0 F1000  ; move down to begin wipe
G1 X150 E4.0 F10000  ; wipe print head (extrude material while we do this)
G92 E0.0  ; reset e count
G1 E-4.2500 F24000
G1 Z0.200 F10000
; process Process1
; layer 1, Z = 0.200
T0
; tool H0.200 W0.450
; skirt
G1 X78.775 Y70.384 F21000
G1 E4.3000 F7200
G1 X78.809 Y70.301 E0.0035 F2400
G1 X81.801 Y67.309 E0.1658
G1 X81.884 Y67.275 E0.0035
G1 X168.116 Y67.275 E3.3793
G1 X168.199 Y67.309 E0.0035
G1 X171.191 Y70.301 E0.1658
G1 X171.225 Y70.384 E0.0035
G1 X171.225 Y73.835 E0.1353
G1 X175.788 Y69.273 E0.2529
G1 X175.793 Y69.268 E0.0003
G1 X176.045 Y69.047 E0.0131
G1 X176.050 Y69.042 E0.0003
G1 X176.863 Y68.419 E0.0402
G1 X176.875 Y68.411 E0.0006
G1 X177.456 Y68.075 E0.0263
G1 X177.469 Y68.069 E0.0006
G1 X178.571 Y67.613 E0.0467
G1 X178.585 Y67.608 E0.0006
G1 X179.232 Y67.434 E0.0263
G1 X179.246 Y67.432 E0.0006
G1 X180.428 Y67.276 E0.0467
G1 X180.443 Y67.275 E0.0006
G1 X181.113 Y67.275 E0.0263
G1 X181.128 Y67.276 E0.0006
G1 X182.310 Y67.432 E0.0467
G1 X182.324 Y67.434 E0.0006
G1 X182.972 Y67.608 E0.0263
G1 X182.986 Y67.613 E0.0006
G1 X184.087 Y68.069 E0.0467
G1 X184.100 Y68.075 E0.0006
G1 X184.681 Y68.411 E0.0263
G1 X184.693 Y68.419 E0.0006
G1 X185.506 Y69.042 E0.0402
G1 X185.512 Y69.047 E0.0003
G1 X185.763 Y69.268 E0.0131
G1 X185.769 Y69.273 E0.0003
G1 X192.869 Y76.373 E0.3935
G1 X192.881 Y76.367 E0.0005
G1 X192.884 Y76.365 E0.0001
G1 X194.946 Y75.421 E0.0889
G1 X194.949 Y75.420 E0.0001
G1 X195.093 Y75.359 E0.0062
G1 X195.097 Y75.357 E0.0001
G1 X197.212 Y74.541 E0.0889
G1 X197.215 Y74.540 E0.0001
G1 X197.363 Y74.488 E0.0061
G1 X197.367 Y74.487 E0.0001
G1 X199.528 Y73.802 E0.0889
G1 X199.532 Y73.801 E0.0001
G1 X199.683 Y73.759 E0.0061
G1 X199.686 Y73.758 E0.0001
G1 X201.885 Y73.207 E0.0889
G1 X201.889 Y73.206 E0.0001
G1 X202.042 Y73.173 E0.0061
G1 X202.045 Y73.172 E0.0001
G1 X204.275 Y72.757 E0.0889
G1 X204.278 Y72.756 E0.0001
G1 X204.433 Y72.732 E0.0061
G1 X204.436 Y72.732 E0.0001
G1 X206.687 Y72.454 E0.0889
G1 X206.690 Y72.454 E0.0001
G1 X206.846 Y72.439 E0.0061
G1 X206.850 Y72.439 E0.0001
G1 X209.103 Y72.301 E0.0885
G1 X209.107 Y72.300 E0.0001
G1 X209.263 Y72.296 E0.0061
G1 X209.266 Y72.296 E0.0001
G1 X211.528 Y72.295 E0.0886
G1 X211.532 Y72.295 E0.0001
G1 X211.688 Y72.300 E0.0061
G1 X211.692 Y72.300 E0.0001
G1 X213.952 Y72.438 E0.0888
G1 X213.956 Y72.438 E0.0001
G1 X214.112 Y72.452 E0.0061
G1 X214.116 Y72.453 E0.0001
G1 X216.373 Y72.730 E0.0891
G1 X216.376 Y72.731 E0.0001
G1 X216.531 Y72.755 E0.0062
G1 X216.535 Y72.755 E0.0001
G1 X218.764 Y73.170 E0.0889
G1 X218.768 Y73.170 E0.0001
G1 X218.921 Y73.204 E0.0061
G1 X218.924 Y73.204 E0.0001
G1 X221.124 Y73.755 E0.0889
G1 X221.127 Y73.755 E0.0001
G1 X221.278 Y73.798 E0.0061
G1 X221.282 Y73.799 E0.0001
G1 X223.443 Y74.483 E0.0889
G1 X223.447 Y74.484 E0.0001
G1 X223.595 Y74.536 E0.0061
G1 X223.598 Y74.537 E0.0001
G1 X225.714 Y75.353 E0.0889
G1 X225.717 Y75.354 E0.0001
G1 X225.862 Y75.415 E0.0062
G1 X225.865 Y75.416 E0.0001
G1 X227.927 Y76.360 E0.0889
G1 X227.930 Y76.361 E0.0001
G1 X227.953 Y76.373 E0.0010
G1 X235.053 Y69.273 E0.3935
G1 X235.058 Y69.268 E0.0003
G1 X235.310 Y69.047 E0.0131
G1 X235.316 Y69.042 E0.0003
G1 X236.128 Y68.419 E0.0402
G1 X236.141 Y68.411 E0.0006
G1 X236.721 Y68.075 E0.0263
G1 X236.734 Y68.069 E0.0006
G1 X237.836 Y67.613 E0.0467
G1 X237.850 Y67.608 E0.0006
G1 X238.497 Y67.434 E0.0263
G1 X238.512 Y67.432 E0.0006
G1 X239.694 Y67.276 E0.0467
G1 X239.708 Y67.275 E0.0006
G1 X240.378 Y67.275 E0.0263
G1 X240.393 Y67.276 E0.0006
G1 X241.575 Y67.432 E0.0467
G1 X241.590 Y67.434 E0.0006
G1 X242.237 Y67.608 E0.0263
G1 X242.251 Y67.613 E0.0006
G1 X243.352 Y68.069 E0.0467
G1 X243.366 Y68.075 E0.0006
G1 X243.946 Y68.411 E0.0263
G1 X243.958 Y68.419 E0.0006
G1 X244.771 Y69.042 E0.0402
G1 X244.777 Y69.047 E0.0003
G1 X245.029 Y69.268 E0.0131
G1 X245.034 Y69.273 E0.0003
G1 X253.049 Y77.288 E0.4442
G1 X253.054 Y77.293 E0.0003
G1 X253.275 Y77.545 E0.0131
G1 X253.279 Y77.550 E0.0003
G1 X253.903 Y78.363 E0.0401
G1 X253.911 Y78.376 E0.0006
G1 X254.246 Y78.956 E0.0263
G1 X254.253 Y78.969 E0.0006
G1 X254.709 Y80.070 E0.0467
G1 X254.714 Y80.084 E0.0006
G1 X254.887 Y80.732 E0.0263
G1 X254.890 Y80.746 E0.0006
G1 X255.046 Y81.928 E0.0467
G1 X255.047 Y81.943 E0.0006
G1 X255.047 Y82.613 E0.0263
G1 X255.046 Y82.628 E0.0006
G1 X254.890 Y83.810 E0.0467
G1 X254.887 Y83.825 E0.0006
G1 X254.714 Y84.472 E0.0263
G1 X254.709 Y84.486 E0.0006
G1 X254.253 Y85.587 E0.0467
G1 X254.246 Y85.600 E0.0006
G1 X253.911 Y86.181 E0.0263
G1 X253.903 Y86.193 E0.0006
G1 X253.279 Y87.006 E0.0402
G1 X253.275 Y87.011 E0.0003
G1 X253.054 Y87.263 E0.0131
G1 X253.049 Y87.269 E0.0003
G1 X245.949 Y94.369 E0.3935
G1 X245.952 Y94.376 E0.0003
G1 X245.954 Y94.379 E0.0001
G1 X246.898 Y96.440 E0.0888
G1 X246.899 Y96.443 E0.0001
G1 X246.960 Y96.588 E0.0061
G1 X246.962 Y96.591 E0.0001
G1 X247.778 Y98.706 E0.0889
G1 X247.779 Y98.710 E0.0001
G1 X247.831 Y98.858 E0.0062
G1 X247.832 Y98.861 E0.0001
G1 X248.517 Y101.023 E0.0889
G1 X248.518 Y101.026 E0.0001
G1 X248.561 Y101.177 E0.0061
G1 X248.562 Y101.180 E0.0001
G1 X249.113 Y103.380 E0.0889
G1 X249.114 Y103.383 E0.0001
G1 X249.148 Y103.536 E0.0061
G1 X249.148 Y103.540 E0.0001
G1 X249.564 Y105.769 E0.0889
G1 X249.564 Y105.772 E0.0001
G1 X249.588 Y105.927 E0.0061
G1 X249.589 Y105.930 E0.0001
G1 X249.867 Y108.181 E0.0889
G1 X249.867 Y108.184 E0.0001
G1 X249.881 Y108.340 E0.0061
G1 X249.882 Y108.344 E0.0001
G1 X250.021 Y110.599 E0.0886
G1 X250.021 Y110.603 E0.0001
G1 X250.026 Y110.759 E0.0061
G1 X250.026 Y110.763 E0.0001
G1 X250.027 Y113.028 E0.0888
G1 X250.027 Y113.031 E0.0001
G1 X250.022 Y113.188 E0.0061
G1 X250.022 Y113.192 E0.0001
G1 X249.884 Y115.457 E0.0889
G1 X249.883 Y115.460 E0.0001
G1 X249.869 Y115.617 E0.0062
G1 X249.869 Y115.620 E0.0001
G1 X249.591 Y117.878 E0.0892
G1 X249.590 Y117.882 E0.0001
G1 X249.566 Y118.037 E0.0062
G1 X249.566 Y118.041 E0.0001
G1 X249.151 Y120.270 E0.0889
G1 X249.150 Y120.273 E0.0001
G1 X249.117 Y120.427 E0.0061
G1 X249.116 Y120.430 E0.0001
G1 X248.566 Y122.630 E0.0889
G1 X248.565 Y122.633 E0.0001
G1 X248.522 Y122.784 E0.0061
G1 X248.521 Y122.787 E0.0001
G1 X247.837 Y124.949 E0.0889
G1 X247.835 Y124.952 E0.0001
G1 X247.783 Y125.101 E0.0062
G1 X247.782 Y125.104 E0.0001
G1 X246.967 Y127.219 E0.0889
G1 X246.965 Y127.223 E0.0001
G1 X246.904 Y127.367 E0.0061
G1 X246.903 Y127.370 E0.0001
G1 X245.959 Y129.432 E0.0889
G1 X245.958 Y129.435 E0.0001
G1 X245.949 Y129.453 E0.0008
G1 X253.049 Y136.553 E0.3935
G1 X253.054 Y136.558 E0.0003
G1 X253.275 Y136.810 E0.0131
G1 X253.280 Y136.816 E0.0003
G1 X253.903 Y137.629 E0.0402
G1 X253.911 Y137.641 E0.0006
G1 X254.246 Y138.221 E0.0262
G1 X254.253 Y138.234 E0.0006
G1 X254.709 Y139.336 E0.0467
G1 X254.714 Y139.349 E0.0006
G1 X254.887 Y139.997 E0.0263
G1 X254.890 Y140.011 E0.0006
G1 X255.046 Y141.193 E0.0467
G1 X255.047 Y141.208 E0.0006
G1 X255.047 Y141.879 E0.0263
G1 X255.046 Y141.893 E0.0006
G1 X254.890 Y143.076 E0.0467
G1 X254.887 Y143.090 E0.0006
G1 X254.714 Y143.737 E0.0263
G1 X254.709 Y143.751 E0.0006
G1 X254.253 Y144.852 E0.0467
G1 X254.246 Y144.866 E0.0006
G1 X253.911 Y145.446 E0.0263
G1 X253.903 Y145.458 E0.0006
G1 X253.279 Y146.271 E0.0402
G1 X253.275 Y146.277 E0.0003
G1 X253.054 Y146.528 E0.0131
G1 X253.049 Y146.534 E0.0003
G1 X248.486 Y151.096 E0.2529
G1 X273.116 Y151.096 E0.9652
G1 X273.199 Y151.131 E0.0035
G1 X276.191 Y154.123 E0.1658
G1 X276.225 Y154.206 E0.0035
G1 X276.225 Y178.437 E0.9496
G1 X276.191 Y178.520 E0.0035
G1 X275.889 Y178.822 E0.0167
G1 X276.191 Y179.123 E0.0167
G1 X276.225 Y179.206 E0.0035
G1 X276.225 Y203.437 E0.9496
G1 X276.191 Y203.520 E0.0035
G1 X273.199 Y206.512 E0.1658
G1 X273.116 Y206.547 E0.0035
G1 X168.884 Y206.547 E4.0847
G1 X168.801 Y206.512 E0.0035
G1 X165.809 Y203.520 E0.1658
G1 X165.775 Y203.437 E0.0035
G1 X165.775 Y179.206 E0.9496
G1 X165.809 Y179.123 E0.0035
G1 X166.111 Y178.822 E0.0167
G1 X165.809 Y178.520 E0.0167
G1 X165.775 Y178.437 E0.0035
G1 X165.775 Y154.206 E0.9496
G1 X165.809 Y154.123 E0.0035
G1 X168.801 Y151.131 E0.1658
G1 X168.884 Y151.096 E0.0035
G1 X172.335 Y151.096 E0.1352
G1 X167.773 Y146.534 E0.2529
G1 X167.768 Y146.528 E0.0003
G1 X167.547 Y146.277 E0.0131
G1 X167.542 Y146.271 E0.0003
G1 X166.919 Y145.458 E0.0402
G1 X166.910 Y145.446 E0.0006
G1 X166.575 Y144.866 E0.0263
G1 X166.569 Y144.852 E0.0006
G1 X166.113 Y143.751 E0.0467
G1 X166.108 Y143.737 E0.0006
G1 X165.935 Y143.090 E0.0262
G1 X165.932 Y143.076 E0.0006
G1 X165.776 Y141.894 E0.0467
G1 X165.775 Y141.879 E0.0006
G1 X165.775 Y141.208 E0.0263
G1 X165.776 Y141.193 E0.0006
G1 X165.932 Y140.011 E0.0467
G1 X165.935 Y139.997 E0.0006
G1 X166.108 Y139.349 E0.0263
G1 X166.113 Y139.335 E0.0006
G1 X166.569 Y138.234 E0.0467
G1 X166.575 Y138.221 E0.0006
G1 X166.910 Y137.641 E0.0262
G1 X166.918 Y137.629 E0.0006
G1 X167.542 Y136.816 E0.0402
