; G-Code generated by Simplify3D(R) Version 4.0.1
; Nov 14, 2022 at 1:15:43 PM
; Settings Summary
;   processName,Process1
;   applyToModels,TubeCamFlangeResin
;   profileName,F410_0.4C_PLA (modified)
;   profileVersion,2022-03-09 09:51:28
;   baseProfile,F400_PLA
;   printMaterial,
;   printQuality,Standard
;   printExtruders,
;   extruderName,Primary Extruder
;   extruderToolheadNumber,0
;   extruderDiameter,0.4
;   extruderAutoWidth,0
;   extruderWidth,0.45
;   extrusionMultiplier,1
;   extruderUseRetract,1
;   extruderRetractionDistance,4.25
;   extruderExtraRestartDistance,0.05
;   extruderRetractionZLift,0
;   extruderRetractionSpeed,24000
;   extruderUseCoasting,0
;   extruderCoastingDistance,0.5
;   extruderUseWipe,0
;   extruderWipeDistance,5
;   primaryExtruder,0
;   layerHeight,0.2
;   topSolidLayers,3
;   bottomSolidLayers,3
;   perimeterOutlines,2
;   printPerimetersInsideOut,0
;   startPointOption,3
;   startPointOriginX,0
;   startPointOriginY,360
;   sequentialIslands,0
;   spiralVaseMode,0
;   firstLayerHeightPercentage,100
;   firstLayerWidthPercentage,100
;   firstLayerUnderspeed,0.4
;   useRaft,0
;   raftExtruder,0
;   raftTopLayers,2
;   raftBaseLayers,0
;   raftOffset,4
;   raftSeparationDistance,0.15
;   raftTopInfill,100
;   aboveRaftSpeedMultiplier,0.3
;   useSkirt,1
;   skirtExtruder,0
;   skirtLayers,1
;   skirtOutlines,1
;   skirtOffset,5
;   usePrimePillar,0
;   primePillarExtruder,999
;   primePillarWidth,12
;   primePillarLocation,7
;   primePillarSpeedMultiplier,1
;   useOozeShield,0
;   oozeShieldExtruder,999
;   oozeShieldOffset,2
;   oozeShieldOutlines,1
;   oozeShieldSidewallShape,1
;   oozeShieldSidewallAngle,30
;   oozeShieldSpeedMultiplier,1
;   infillExtruder,0
;   internalInfillPattern,Rectilinear
;   externalInfillPattern,Rectilinear
;   infillPercentage,15
;   outlineOverlapPercentage,20
;   infillExtrusionWidthPercentage,100
;   minInfillLength,5
;   infillLayerInterval,1
;   internalInfillAngles,45,-45
;   overlapInternalInfillAngles,0
;   externalInfillAngles,45,-45
;   generateSupport,1
;   supportExtruder,0
;   supportInfillPercentage,30
;   supportExtraInflation,0.5
;   supportBaseLayers,0
;   denseSupportExtruder,0
;   denseSupportLayers,0
;   denseSupportInfillPercentage,70
;   supportLayerInterval,1
;   supportHorizontalPartOffset,0.35
;   supportUpperSeparationLayers,1
;   supportLowerSeparationLayers,1
;   supportType,0
;   supportGridSpacing,2
;   maxOverhangAngle,45
;   supportAngles,45
;   temperatureName,Primary Extruder,Heated Bed
;   temperatureNumber,0,2
;   temperatureSetpointCount,1,1
;   temperatureSetpointLayers,1,1
;   temperatureSetpointTemperatures,230,45
;   temperatureStabilizeAtStartup,0,0
;   temperatureHeatedBed,0,1
;   temperatureRelayBetweenLayers,0,0
;   temperatureRelayBetweenLoops,0,0
;   fanLayers,1,3,4,5
;   fanSpeeds,0,25,50,100
;   blipFanToFullPower,0
;   adjustSpeedForCooling,1
;   minSpeedLayerTime,5
;   minCoolingSpeedSlowdown,30
;   increaseFanForCooling,1
;   minFanLayerTime,13
;   maxCoolingFanSpeed,100
;   increaseFanForBridging,1
;   bridgingFanSpeed,100
;   use5D,1
;   relativeEdistances,1
;   allowEaxisZeroing,1
;   independentExtruderAxes,0
;   includeM10123,0
;   stickySupport,1
;   applyToolheadOffsets,0
;   gcodeXoffset,0
;   gcodeYoffset,0
;   gcodeZoffset,0
;   overrideMachineDefinition,1
;   machineTypeOverride,0
;   strokeXoverride,355
;   strokeYoverride,355
;   strokeZoverride,315
;   originOffsetXoverride,0
;   originOffsetYoverride,0
;   originOffsetZoverride,0
;   homeXdirOverride,1
;   homeYdirOverride,-1
;   homeZdirOverride,1
;   flipXoverride,1
;   flipYoverride,-1
;   flipZoverride,1
;   toolheadOffsets,0,0|0,0|0,0|0,0|0,0|0,0
;   overrideFirmwareConfiguration,1
;   firmwareTypeOverride,RepRap (Marlin/Repetier/Sprinter)
;   GPXconfigOverride,r2
;   baudRateOverride,115200
;   overridePrinterModels,0
;   printerModelsOverride
;   startingGcode,M104 S0 ;cancel S3D set temp,G21  ; set units to mm,G90  ; use absolute coordinates,T0  ; select tool 0,G92 E0.0  ; reset e count,M220 S100 ; reset speed multiplier,M140 S[bed2_temperature]  ; set bed temp and do not wait,G32  ; probe bed,M190 S[bed2_temperature]  ; set bed temperature and wait,M109 S[extruder0_temperature]  ; set print head temperature and wait,; === pause for heating ===,; reset filament monitor,M42 P63 S0,G4 P100,G4 P50,M42 P63 S1,;,G1 Z10.0 F2000  ; move up,G1 E30.0 F500  ; prime extruder,G1 X20 Y15 F9000  ; move back,G1 Z0 F1000  ; move down to begin wipe,G1 X150 E4.0 F10000  ; wipe print head (extrude material while we do this),G92 E0.0  ; reset e count
;   layerChangeGcode,
;   retractionGcode,
;   toolChangeGcode,
;   endingGcode,G91  ;relative positioning,G1 E-5.00 F1000  ;retract 5mm of filament,G1 Z+1.00 X-20.0 Y+20.0 F10000  ;short quick move to disengage from print,G90  ;absolute positioning,G1 X0.0 Y350.0 F9000  ; move head to back left corner,G91  ; relative positioning,G1 E-5.00 F500  ;retract additional filament to prevent oozing,G90 ;absolute positioning,M104 S0  ;turn off hotend,M140 S0  ;turn off heatbed,; Reset filament monitor,M42 P63 S0,G4 P100,G4 P50,M42 P63 S1,;,G1 Z315 F1000 ;move print bed down to idle position,M106 S0  ; shut off blower,M84  ;motors off,M561  ;clear bed probe transformation
;   exportFileFormat,gcode
;   celebration,0
;   celebrationSong,Random Song
;   postProcessing,
;   defaultSpeed,6000
;   outlineUnderspeed,0.6
;   solidInfillUnderspeed,0.7
;   supportUnderspeed,1
;   rapidXYspeed,21000
;   rapidZspeed,10000
;   minBridgingArea,50
;   bridgingExtraInflation,0.5
;   bridgingExtrusionMultiplier,1
;   bridgingSpeedMultiplier,0.6
;   useFixedBridgingAngle,0
;   fixedBridgingAngle,0
;   applyBridgingToPerimeters,0
;   filamentDiameters,1.71|1.71|1.71|1.71|1.71|1.71
;   filamentPricesPerKg,46|46|46|46|46|46
;   filamentDensities,1.25|1.25|1.25|1.25|1.25|1.25
;   useMinPrintHeight,0
;   minPrintHeight,13
;   useMaxPrintHeight,0
;   maxPrintHeight,13
;   useDiaphragm,0
;   diaphragmLayerInterval,20
;   robustSlicing,1
;   mergeAllIntoSolid,0
;   onlyRetractWhenCrossingOutline,1
;   retractBetweenLayers,0
;   useRetractionMinTravel,0
;   retractionMinTravel,1
;   retractWhileWiping,0
;   onlyWipeOutlines,1
;   avoidCrossingOutline,0
;   maxMovementDetourFactor,3
;   toolChangeRetractionDistance,0
;   toolChangeExtraRestartDistance,0
;   toolChangeRetractionSpeed,360
;   externalThinWallType,1
;   internalThinWallType,1
;   thinWallAllowedOverlapPercentage,50
;   singleExtrusionMinLength,1
;   singleExtrusionMinPrintingWidthPercentage,50
;   singleExtrusionMaxPrintingWidthPercentage,200
;   singleExtrusionEndpointExtension,0.2
;   horizontalSizeCompensation,0
G90
M83
M106 S0
M104 S0 ;cancel S3D set temp
G21  ; set units to mm
G90  ; use absolute coordinates
T0  ; select tool 0
G92 E0.0  ; reset e count
M220 S100 ; reset speed multiplier
M140 S45  ; set bed temp and do not wait
G32  ; probe bed
M190 S45  ; set bed temperature and wait
M109 S230  ; set print head temperature and wait
; === pause for heating ===
; reset filament monitor
M42 P63 S0
G4 P100
G4 P50
M42 P63 S1
;
G1 Z10.0 F2000  ; move up
G1 E30.0 F500  ; prime extruder
G1 X20 Y15 F9000  ; move back
G1 Z0 F1000  ; move down to begin wipe
G1 X150 E4.0 F10000  ; wipe print head (extrude material while we do this)
G92 E0.0  ; reset e count
G1 E-4.2500 F24000
G1 Z0.200 F10000
; process Process1
; layer 1, Z = 0.200
T0
; tool H0.200 W0.450
; skirt
G1 X153.153 Y152.872 F21000
G1 E4.3000 F7200
G1 X153.155 Y152.869 E0.0001 F2400
G1 X153.269 Y152.758 E0.0062
G1 X153.271 Y152.755 E0.0001
G1 X154.731 Y151.406 E0.0779
G1 X154.734 Y151.403 E0.0001
G1 X154.854 Y151.299 E0.0062
G1 X154.856 Y151.297 E0.0001
G1 X156.397 Y150.041 E0.0779
G1 X156.400 Y150.038 E0.0001
G1 X156.526 Y149.942 E0.0062
G1 X156.529 Y149.940 E0.0001
G1 X158.145 Y148.782 E0.0779
G1 X158.148 Y148.780 E0.0001
G1 X158.280 Y148.691 E0.0062
G1 X158.283 Y148.689 E0.0001
G1 X159.968 Y147.634 E0.0779
G1 X159.971 Y147.632 E0.0001
G1 X160.108 Y147.552 E0.0062
G1 X160.111 Y147.550 E0.0001
G1 X161.859 Y146.602 E0.0779
G1 X161.862 Y146.600 E0.0001
G1 X162.004 Y146.529 E0.0062
G1 X162.007 Y146.527 E0.0001
G1 X163.810 Y145.689 E0.0779
G1 X163.813 Y145.688 E0.0001
G1 X163.959 Y145.625 E0.0062
G1 X163.963 Y145.624 E0.0001
G1 X165.814 Y144.900 E0.0779
G1 X165.817 Y144.898 E0.0001
G1 X165.967 Y144.845 E0.0062
G1 X165.970 Y144.844 E0.0001
G1 X167.863 Y144.236 E0.0779
G1 X167.867 Y144.235 E0.0001
G1 X168.020 Y144.191 E0.0062
G1 X168.023 Y144.190 E0.0001
G1 X169.950 Y143.701 E0.0779
G1 X169.953 Y143.701 E0.0001
G1 X170.109 Y143.666 E0.0062
G1 X170.112 Y143.666 E0.0001
G1 X172.067 Y143.297 E0.0779
G1 X172.070 Y143.297 E0.0001
G1 X172.229 Y143.272 E0.0063
G1 X172.233 Y143.271 E0.0001
G1 X174.239 Y143.023 E0.0792
G1 X174.243 Y143.022 E0.0001
G1 X174.403 Y143.007 E0.0063
G1 X174.407 Y143.007 E0.0001
G1 X176.415 Y142.886 E0.0789
G1 X176.419 Y142.886 E0.0001
G1 X176.577 Y142.881 E0.0062
G1 X176.580 Y142.881 E0.0001
G1 X178.544 Y142.885 E0.0769
G1 X178.547 Y142.885 E0.0001
G1 X178.703 Y142.890 E0.0061
G1 X178.706 Y142.890 E0.0001
G1 X180.642 Y143.011 E0.0760
G1 X180.646 Y143.011 E0.0001
G1 X180.804 Y143.026 E0.0062
G1 X180.808 Y143.026 E0.0001
G1 X182.794 Y143.275 E0.0785
G1 X182.798 Y143.276 E0.0001
G1 X182.955 Y143.301 E0.0062
G1 X182.958 Y143.301 E0.0001
G1 X184.912 Y143.671 E0.0779
G1 X184.916 Y143.672 E0.0001
G1 X185.071 Y143.706 E0.0062
G1 X185.074 Y143.707 E0.0001
G1 X187.001 Y144.197 E0.0779
G1 X187.004 Y144.198 E0.0001
G1 X187.157 Y144.242 E0.0062
G1 X187.161 Y144.243 E0.0001
G1 X189.053 Y144.852 E0.0779
G1 X189.056 Y144.853 E0.0001
G1 X189.206 Y144.907 E0.0062
G1 X189.209 Y144.908 E0.0001
G1 X191.060 Y145.634 E0.0779
G1 X191.064 Y145.635 E0.0001
G1 X191.210 Y145.698 E0.0062
G1 X191.213 Y145.699 E0.0001
G1 X193.015 Y146.538 E0.0779
G1 X193.018 Y146.540 E0.0001
G1 X193.160 Y146.611 E0.0062
G1 X193.163 Y146.613 E0.0001
G1 X194.910 Y147.563 E0.0779
G1 X194.913 Y147.564 E0.0001
G1 X195.050 Y147.645 E0.0062
G1 X195.053 Y147.647 E0.0001
G1 X196.738 Y148.703 E0.0779
G1 X196.741 Y148.705 E0.0001
G1 X196.873 Y148.794 E0.0062
G1 X196.875 Y148.796 E0.0001
G1 X198.491 Y149.955 E0.0779
G1 X198.493 Y149.957 E0.0001
G1 X198.620 Y150.054 E0.0062
G1 X198.623 Y150.056 E0.0001
G1 X200.163 Y151.313 E0.0779
G1 X200.165 Y151.315 E0.0001
G1 X200.285 Y151.420 E0.0062
G1 X200.288 Y151.422 E0.0001
G1 X201.747 Y152.773 E0.0779
G1 X201.749 Y152.775 E0.0001
G1 X201.863 Y152.887 E0.0062
G1 X201.865 Y152.889 E0.0001
G1 X203.237 Y154.328 E0.0779
G1 X203.240 Y154.330 E0.0001
G1 X203.346 Y154.449 E0.0062
G1 X203.348 Y154.451 E0.0001
G1 X204.628 Y155.973 E0.0779
G1 X204.630 Y155.975 E0.0001
G1 X204.729 Y156.100 E0.0062
G1 X204.731 Y156.103 E0.0001
G1 X205.914 Y157.701 E0.0779
G1 X205.916 Y157.704 E0.0001
G1 X206.006 Y157.834 E0.0062
G1 X206.008 Y157.837 E0.0001
G1 X207.090 Y159.506 E0.0779
G1 X207.092 Y159.509 E0.0001
G1 X207.174 Y159.645 E0.0062
G1 X207.176 Y159.648 E0.0001
G1 X208.151 Y161.380 E0.0779
G1 X208.153 Y161.383 E0.0001
G1 X208.227 Y161.524 E0.0062
G1 X208.228 Y161.527 E0.0001
G1 X209.094 Y163.317 E0.0779
G1 X209.096 Y163.320 E0.0001
G1 X209.160 Y163.465 E0.0062
G1 X209.162 Y163.468 E0.0001
G1 X209.915 Y165.308 E0.0779
G1 X209.916 Y165.312 E0.0001
G1 X209.972 Y165.461 E0.0062
G1 X209.973 Y165.464 E0.0001
G1 X210.610 Y167.347 E0.0779
G1 X210.611 Y167.351 E0.0001
G1 X210.657 Y167.503 E0.0062
G1 X210.658 Y167.506 E0.0001
G1 X211.177 Y169.425 E0.0779
G1 X211.178 Y169.429 E0.0001
G1 X211.215 Y169.583 E0.0062
G1 X211.215 Y169.587 E0.0001
G1 X211.614 Y171.536 E0.0780
G1 X211.615 Y171.539 E0.0001
G1 X211.642 Y171.698 E0.0063
G1 X211.643 Y171.701 E0.0001
G1 X211.922 Y173.701 E0.0791
G1 X211.923 Y173.704 E0.0001
G1 X211.940 Y173.861 E0.0062
G1 X211.940 Y173.865 E0.0001
G1 X212.091 Y175.829 E0.0772
G1 X212.092 Y175.832 E0.0001
G1 X212.099 Y175.990 E0.0062
G1 X212.099 Y175.994 E0.0001
G1 X212.129 Y177.960 E0.0771
G1 X212.129 Y177.964 E0.0001
G1 X212.126 Y178.123 E0.0062
G1 X212.126 Y178.126 E0.0001
G1 X212.032 Y180.120 E0.0782
G1 X212.032 Y180.123 E0.0001
G1 X212.020 Y180.282 E0.0062
G1 X212.019 Y180.285 E0.0001
G1 X211.803 Y182.262 E0.0779
G1 X211.802 Y182.265 E0.0001
G1 X211.780 Y182.423 E0.0062
G1 X211.779 Y182.426 E0.0001
G1 X211.440 Y184.385 E0.0779
G1 X211.440 Y184.389 E0.0001
G1 X211.408 Y184.544 E0.0062
G1 X211.407 Y184.548 E0.0001
G1 X210.947 Y186.482 E0.0779
G1 X210.946 Y186.485 E0.0001
G1 X210.904 Y186.639 E0.0062
G1 X210.903 Y186.642 E0.0001
G1 X210.324 Y188.544 E0.0779
G1 X210.322 Y188.547 E0.0001
G1 X210.271 Y188.698 E0.0062
G1 X210.270 Y188.701 E0.0001
G1 X209.573 Y190.563 E0.0779
G1 X209.572 Y190.566 E0.0001
G1 X209.512 Y190.713 E0.0062
G1 X209.510 Y190.717 E0.0001
G1 X208.699 Y192.532 E0.0779
G1 X208.698 Y192.535 E0.0001
G1 X208.628 Y192.678 E0.0062
G1 X208.627 Y192.681 E0.0001
G1 X207.704 Y194.442 E0.0779
G1 X207.703 Y194.445 E0.0001
G1 X207.625 Y194.584 E0.0062
G1 X207.623 Y194.587 E0.0001
G1 X206.593 Y196.287 E0.0779
G1 X206.591 Y196.290 E0.0001
G1 X206.504 Y196.424 E0.0062
G1 X206.502 Y196.427 E0.0001
G1 X205.368 Y198.060 E0.0779
G1 X205.366 Y198.063 E0.0001
G1 X205.272 Y198.190 E0.0062
G1 X205.269 Y198.193 E0.0001
G1 X204.036 Y199.753 E0.0779
G1 X204.034 Y199.755 E0.0001
G1 X203.932 Y199.877 E0.0062
G1 X203.929 Y199.880 E0.0001
G1 X202.602 Y201.359 E0.0779
G1 X202.599 Y201.362 E0.0001
G1 X202.489 Y201.477 E0.0062
G1 X202.487 Y201.479 E0.0001
G1 X201.070 Y202.874 E0.0779
G1 X201.067 Y202.876 E0.0001
G1 X200.950 Y202.984 E0.0062
G1 X200.948 Y202.986 E0.0001
G1 X199.447 Y204.290 E0.0779
G1 X199.444 Y204.292 E0.0001
G1 X199.321 Y204.393 E0.0062
G1 X199.318 Y204.395 E0.0001
G1 X197.739 Y205.602 E0.0779
G1 X197.736 Y205.605 E0.0001
G1 X197.607 Y205.697 E0.0062
G1 X197.604 Y205.699 E0.0001
G1 X195.952 Y206.806 E0.0779
G1 X195.949 Y206.808 E0.0001
G1 X195.815 Y206.893 E0.0062
G1 X195.812 Y206.894 E0.0001
G1 X194.095 Y207.897 E0.0779
G1 X194.092 Y207.899 E0.0001
G1 X193.952 Y207.974 E0.0062
G1 X193.949 Y207.976 E0.0001
G1 X192.173 Y208.870 E0.0779
G1 X192.170 Y208.871 E0.0001
G1 X192.025 Y208.938 E0.0062
G1 X192.022 Y208.940 E0.0001
G1 X190.194 Y209.721 E0.0779
G1 X190.191 Y209.723 E0.0001
G1 X190.043 Y209.780 E0.0062
G1 X190.040 Y209.782 E0.0001
G1 X188.166 Y210.448 E0.0779
G1 X188.163 Y210.449 E0.0001
G1 X188.012 Y210.498 E0.0062
G1 X188.008 Y210.499 E0.0001
G1 X186.097 Y211.047 E0.0779
G1 X186.094 Y211.048 E0.0001
G1 X185.940 Y211.088 E0.0062
G1 X185.936 Y211.088 E0.0001
G1 X183.996 Y211.517 E0.0779
G1 X183.992 Y211.518 E0.0001
G1 X183.837 Y211.547 E0.0062
G1 X183.833 Y211.548 E0.0001
G1 X181.883 Y211.853 E0.0774
G1 X181.880 Y211.854 E0.0001
G1 X181.721 Y211.874 E0.0063
G1 X181.718 Y211.874 E0.0001
G1 X179.714 Y212.061 E0.0789
G1 X179.710 Y212.061 E0.0001
G1 X179.552 Y212.071 E0.0062
G1 X179.548 Y212.071 E0.0001
G1 X177.581 Y212.132 E0.0771
G1 X177.578 Y212.132 E0.0001
G1 X177.418 Y212.132 E0.0063
G1 X177.415 Y212.132 E0.0001
G1 X175.407 Y212.068 E0.0787
G1 X175.403 Y212.068 E0.0001
G1 X175.244 Y212.058 E0.0062
G1 X175.241 Y212.058 E0.0001
G1 X173.272 Y211.873 E0.0775
G1 X173.268 Y211.872 E0.0001
G1 X173.111 Y211.852 E0.0062
G1 X173.107 Y211.852 E0.0001
G1 X171.144 Y211.543 E0.0779
G1 X171.140 Y211.543 E0.0001
G1 X170.984 Y211.513 E0.0062
G1 X170.980 Y211.512 E0.0001
G1 X169.039 Y211.082 E0.0779
G1 X169.036 Y211.081 E0.0001
G1 X168.882 Y211.042 E0.0062
G1 X168.878 Y211.041 E0.0001
G1 X166.968 Y210.491 E0.0779
G1 X166.965 Y210.490 E0.0001
G1 X166.813 Y210.442 E0.0062
G1 X166.810 Y210.440 E0.0001
G1 X164.937 Y209.773 E0.0779
G1 X164.934 Y209.771 E0.0001
G1 X164.786 Y209.713 E0.0062
G1 X164.783 Y209.712 E0.0001
G1 X162.955 Y208.929 E0.0779
G1 X162.952 Y208.928 E0.0001
G1 X162.808 Y208.861 E0.0062
G1 X162.805 Y208.859 E0.0001
G1 X161.029 Y207.964 E0.0779
G1 X161.026 Y207.963 E0.0001
G1 X160.887 Y207.887 E0.0062
G1 X160.883 Y207.885 E0.0001
G1 X159.167 Y206.881 E0.0779
G1 X159.164 Y206.879 E0.0001
G1 X159.030 Y206.795 E0.0062
G1 X159.027 Y206.793 E0.0001
G1 X157.376 Y205.685 E0.0779
G1 X157.373 Y205.683 E0.0001
