; G-Code generated by Simplify3D(R) Version 4.0.1
; Mar 29, 2023 at 12:42:36 PM
; Settings Summary
;   processName,Process1
;   applyToModels,TubeCameraTrayNew
;   profileName,F410_0.4C_PLA (modified)
;   profileVersion,2022-03-09 09:51:28
;   baseProfile,F400_PLA
;   printMaterial,
;   printQuality,Standard
;   printExtruders,
;   extruderName,Primary Extruder
;   extruderToolheadNumber,0
;   extruderDiameter,0.4
;   extruderAutoWidth,0
;   extruderWidth,0.45
;   extrusionMultiplier,1
;   extruderUseRetract,1
;   extruderRetractionDistance,4.25
;   extruderExtraRestartDistance,0.05
;   extruderRetractionZLift,0
;   extruderRetractionSpeed,24000
;   extruderUseCoasting,0
;   extruderCoastingDistance,0.5
;   extruderUseWipe,0
;   extruderWipeDistance,5
;   primaryExtruder,0
;   layerHeight,0.25
;   topSolidLayers,4
;   bottomSolidLayers,4
;   perimeterOutlines,3
;   printPerimetersInsideOut,0
;   startPointOption,3
;   startPointOriginX,0
;   startPointOriginY,360
;   sequentialIslands,0
;   spiralVaseMode,0
;   firstLayerHeightPercentage,100
;   firstLayerWidthPercentage,100
;   firstLayerUnderspeed,0.4
;   useRaft,0
;   raftExtruder,0
;   raftTopLayers,2
;   raftBaseLayers,0
;   raftOffset,4
;   raftSeparationDistance,0.15
;   raftTopInfill,100
;   aboveRaftSpeedMultiplier,0.3
;   useSkirt,1
;   skirtExtruder,0
;   skirtLayers,1
;   skirtOutlines,1
;   skirtOffset,5
;   usePrimePillar,0
;   primePillarExtruder,999
;   primePillarWidth,12
;   primePillarLocation,7
;   primePillarSpeedMultiplier,1
;   useOozeShield,0
;   oozeShieldExtruder,999
;   oozeShieldOffset,2
;   oozeShieldOutlines,1
;   oozeShieldSidewallShape,1
;   oozeShieldSidewallAngle,30
;   oozeShieldSpeedMultiplier,1
;   infillExtruder,0
;   internalInfillPattern,Rectilinear
;   externalInfillPattern,Rectilinear
;   infillPercentage,25
;   outlineOverlapPercentage,20
;   infillExtrusionWidthPercentage,100
;   minInfillLength,5
;   infillLayerInterval,1
;   internalInfillAngles,45,-45
;   overlapInternalInfillAngles,0
;   externalInfillAngles,45,-45
;   generateSupport,1
;   supportExtruder,0
;   supportInfillPercentage,30
;   supportExtraInflation,0.5
;   supportBaseLayers,0
;   denseSupportExtruder,0
;   denseSupportLayers,0
;   denseSupportInfillPercentage,70
;   supportLayerInterval,1
;   supportHorizontalPartOffset,0.35
;   supportUpperSeparationLayers,1
;   supportLowerSeparationLayers,1
;   supportType,0
;   supportGridSpacing,2
;   maxOverhangAngle,45
;   supportAngles,45
;   temperatureName,Primary Extruder,Heated Bed
;   temperatureNumber,0,2
;   temperatureSetpointCount,1,1
;   temperatureSetpointLayers,1,1
;   temperatureSetpointTemperatures,230,45
;   temperatureStabilizeAtStartup,0,0
;   temperatureHeatedBed,0,1
;   temperatureRelayBetweenLayers,0,0
;   temperatureRelayBetweenLoops,0,0
;   fanLayers,1,3,4,5
;   fanSpeeds,0,25,50,100
;   blipFanToFullPower,0
;   adjustSpeedForCooling,1
;   minSpeedLayerTime,5
;   minCoolingSpeedSlowdown,30
;   increaseFanForCooling,1
;   minFanLayerTime,13
;   maxCoolingFanSpeed,100
;   increaseFanForBridging,1
;   bridgingFanSpeed,100
;   use5D,1
;   relativeEdistances,1
;   allowEaxisZeroing,1
;   independentExtruderAxes,0
;   includeM10123,0
;   stickySupport,1
;   applyToolheadOffsets,0
;   gcodeXoffset,0
;   gcodeYoffset,0
;   gcodeZoffset,0
;   overrideMachineDefinition,1
;   machineTypeOverride,0
;   strokeXoverride,355
;   strokeYoverride,355
;   strokeZoverride,315
;   originOffsetXoverride,0
;   originOffsetYoverride,0
;   originOffsetZoverride,0
;   homeXdirOverride,1
;   homeYdirOverride,-1
;   homeZdirOverride,1
;   flipXoverride,1
;   flipYoverride,-1
;   flipZoverride,1
;   toolheadOffsets,0,0|0,0|0,0|0,0|0,0|0,0
;   overrideFirmwareConfiguration,1
;   firmwareTypeOverride,RepRap (Marlin/Repetier/Sprinter)
;   GPXconfigOverride,r2
;   baudRateOverride,115200
;   overridePrinterModels,0
;   printerModelsOverride
;   startingGcode,M104 S0 ;cancel S3D set temp,G21  ; set units to mm,G90  ; use absolute coordinates,T0  ; select tool 0,G92 E0.0  ; reset e count,M220 S100 ; reset speed multiplier,M140 S[bed2_temperature]  ; set bed temp and do not wait,G32  ; probe bed,M190 S[bed2_temperature]  ; set bed temperature and wait,M109 S[extruder0_temperature]  ; set print head temperature and wait,; === pause for heating ===,; reset filament monitor,M42 P63 S0,G4 P100,G4 P50,M42 P63 S1,;,G1 Z10.0 F2000  ; move up,G1 E30.0 F500  ; prime extruder,G1 X20 Y15 F9000  ; move back,G1 Z0 F1000  ; move down to begin wipe,G1 X150 E4.0 F10000  ; wipe print head (extrude material while we do this),G92 E0.0  ; reset e count
;   layerChangeGcode,
;   retractionGcode,
;   toolChangeGcode,
;   endingGcode,G91  ;relative positioning,G1 E-5.00 F1000  ;retract 5mm of filament,G1 Z+1.00 X-20.0 Y+20.0 F10000  ;short quick move to disengage from print,G90  ;absolute positioning,G1 X0.0 Y350.0 F9000  ; move head to back left corner,G91  ; relative positioning,G1 E-5.00 F500  ;retract additional filament to prevent oozing,G90 ;absolute positioning,M104 S0  ;turn off hotend,M140 S0  ;turn off heatbed,; Reset filament monitor,M42 P63 S0,G4 P100,G4 P50,M42 P63 S1,;,G1 Z315 F1000 ;move print bed down to idle position,M106 S0  ; shut off blower,M84  ;motors off,M561  ;clear bed probe transformation
;   exportFileFormat,gcode
;   celebration,0
;   celebrationSong,Random Song
;   postProcessing,
;   defaultSpeed,6000
;   outlineUnderspeed,0.6
;   solidInfillUnderspeed,0.7
;   supportUnderspeed,1
;   rapidXYspeed,21000
;   rapidZspeed,10000
;   minBridgingArea,50
;   bridgingExtraInflation,0.5
;   bridgingExtrusionMultiplier,1
;   bridgingSpeedMultiplier,0.6
;   useFixedBridgingAngle,0
;   fixedBridgingAngle,0
;   applyBridgingToPerimeters,0
;   filamentDiameters,1.71|1.71|1.71|1.71|1.71|1.71
;   filamentPricesPerKg,46|46|46|46|46|46
;   filamentDensities,1.25|1.25|1.25|1.25|1.25|1.25
;   useMinPrintHeight,0
;   minPrintHeight,13
;   useMaxPrintHeight,0
;   maxPrintHeight,13
;   useDiaphragm,0
;   diaphragmLayerInterval,20
;   robustSlicing,1
;   mergeAllIntoSolid,0
;   onlyRetractWhenCrossingOutline,1
;   retractBetweenLayers,0
;   useRetractionMinTravel,0
;   retractionMinTravel,1
;   retractWhileWiping,0
;   onlyWipeOutlines,1
;   avoidCrossingOutline,0
;   maxMovementDetourFactor,3
;   toolChangeRetractionDistance,0
;   toolChangeExtraRestartDistance,0
;   toolChangeRetractionSpeed,360
;   externalThinWallType,1
;   internalThinWallType,1
;   thinWallAllowedOverlapPercentage,50
;   singleExtrusionMinLength,1
;   singleExtrusionMinPrintingWidthPercentage,50
;   singleExtrusionMaxPrintingWidthPercentage,200
;   singleExtrusionEndpointExtension,0.2
;   horizontalSizeCompensation,0
G90
M83
M106 S0
M104 S0 ;cancel S3D set temp
G21  ; set units to mm
G90  ; use absolute coordinates
T0  ; select tool 0
G92 E0.0  ; reset e count
M220 S100 ; reset speed multiplier
M140 S45  ; set bed temp and do not wait
G32  ; probe bed
M190 S45  ; set bed temperature and wait
M109 S230  ; set print head temperature and wait
; === pause for heating ===
; reset filament monitor
M42 P63 S0
G4 P100
G4 P50
M42 P63 S1
;
G1 Z10.0 F2000  ; move up
G1 E30.0 F500  ; prime extruder
G1 X20 Y15 F9000  ; move back
G1 Z0 F1000  ; move down to begin wipe
G1 X150 E4.0 F10000  ; wipe print head (extrude material while we do this)
G92 E0.0  ; reset e count
G1 E-4.2500 F24000
G1 Z0.250 F10000
; process Process1
; layer 1, Z = 0.250
T0
; tool H0.250 W0.450
; skirt
G1 X134.301 Y157.006 F21000
G1 E4.3000 F7200
G1 X134.384 Y156.972 E0.0044 F2400
G1 X156.275 Y156.972 E1.0723
G1 X156.275 Y154.470 E0.1225
G1 X156.309 Y154.388 E0.0044
G1 X159.301 Y151.395 E0.2073
G1 X159.384 Y151.361 E0.0044
G1 X220.616 Y151.361 E2.9995
G1 X220.699 Y151.395 E0.0044
G1 X223.691 Y154.388 E0.2073
G1 X223.725 Y154.470 E0.0044
G1 X223.725 Y200.530 E2.2563
G1 X223.691 Y200.612 E0.0044
G1 X220.699 Y203.605 E0.2073
G1 X220.616 Y203.639 E0.0044
G1 X159.384 Y203.639 E2.9995
G1 X159.301 Y203.605 E0.0044
G1 X156.309 Y200.612 E0.2073
G1 X156.275 Y200.530 E0.0044
G1 X156.275 Y198.028 E0.1225
G1 X134.384 Y198.028 E1.0723
G1 X134.301 Y197.994 E0.0044
G1 X131.309 Y195.002 E0.2073
G1 X131.275 Y194.919 E0.0044
G1 X131.275 Y160.081 E1.7066
G1 X131.309 Y159.998 E0.0044
G1 X134.301 Y157.006 E0.2073
G1 E-4.2500 F24000
; outer perimeter
G1 X136.725 Y192.578 F21000
G1 E4.3000 F24000
G1 X136.725 Y162.422 E1.4772 F1440
G1 X161.725 Y162.422 E1.2246
G1 X161.725 Y156.811 E0.2748
G1 X218.275 Y156.811 E2.7701
G1 X218.275 Y198.189 E2.0269
G1 X161.725 Y198.189 E2.7701
G1 X161.725 Y192.578 E0.2748
G1 X136.725 Y192.578 E1.2246
; inner perimeter
G1 X137.175 Y192.128 F21000
G1 X137.175 Y162.872 E1.4331 F1920
G1 X162.175 Y162.872 E1.2246
G1 X162.175 Y157.261 E0.2748
G1 X217.825 Y157.261 E2.7261
G1 X217.825 Y197.739 E1.9828
G1 X162.175 Y197.739 E2.7261
G1 X162.175 Y192.128 E0.2748
G1 X137.175 Y192.128 E1.2246
G1 X137.625 Y191.678 F21000
G1 X137.625 Y163.322 E1.3890 F1920
G1 X162.625 Y163.322 E1.2246
G1 X162.625 Y157.711 E0.2748
G1 X217.375 Y157.711 E2.6820
G1 X217.375 Y197.289 E1.9387
G1 X211.885 Y197.289 E0.2689
G1 X211.846 Y197.112 E0.0089
G1 X212.236 Y196.934 E0.0210
G1 X212.934 Y196.437 E0.0420
G1 X213.525 Y195.817 E0.0420
G1 X213.988 Y195.096 E0.0420
G1 X214.306 Y194.301 E0.0420
G1 X214.468 Y193.460 E0.0420
G1 X214.468 Y192.604 E0.0420
G1 X214.306 Y191.763 E0.0420
G1 X213.988 Y190.968 E0.0420
G1 X213.525 Y190.247 E0.0420
G1 X212.934 Y189.627 E0.0420
G1 X212.236 Y189.131 E0.0420
G1 X211.457 Y188.775 E0.0420
G1 X210.625 Y188.573 E0.0420
G1 X209.769 Y188.532 E0.0420
G1 X208.921 Y188.654 E0.0420
G1 X208.112 Y188.934 E0.0420
G1 X207.370 Y189.362 E0.0420
G1 X206.723 Y189.923 E0.0420
G1 X206.194 Y190.596 E0.0420
G1 X205.801 Y191.358 E0.0420
G1 X205.560 Y192.179 E0.0420
G1 X205.478 Y193.032 E0.0420
G1 X205.560 Y193.885 E0.0420
G1 X205.801 Y194.706 E0.0420
G1 X206.194 Y195.468 E0.0420
G1 X206.723 Y196.141 E0.0420
G1 X207.370 Y196.702 E0.0420
G1 X208.098 Y197.122 E0.0412
G1 X208.053 Y197.289 E0.0085
G1 X162.625 Y197.289 E2.2253
G1 X162.625 Y191.678 E0.2748
G1 X137.625 Y191.678 E1.2246
; outer perimeter
G1 X149.895 Y172.965 F21000
G1 X150.488 Y173.308 E0.0335 F1440
G1 X151.134 Y173.532 E0.0335
G1 X151.812 Y173.629 E0.0335
G1 X152.496 Y173.596 E0.0335
G1 X153.161 Y173.435 E0.0335
G1 X153.784 Y173.151 E0.0335
G1 X154.342 Y172.754 E0.0335
G1 X154.814 Y172.258 E0.0335
G1 X155.184 Y171.682 E0.0335
G1 X155.439 Y171.047 E0.0335
G1 X155.568 Y170.374 E0.0335
G1 X155.568 Y169.690 E0.0335
G1 X155.439 Y169.018 E0.0335
G1 X155.184 Y168.382 E0.0335
G1 X154.814 Y167.806 E0.0335
G1 X154.342 Y167.311 E0.0335
G1 X153.784 Y166.913 E0.0335
G1 X153.161 Y166.629 E0.0335
G1 X152.496 Y166.468 E0.0335
G1 X151.812 Y166.435 E0.0335
G1 X151.134 Y166.533 E0.0335
G1 X150.488 Y166.756 E0.0335
G1 X149.895 Y167.099 E0.0335
G1 X149.377 Y167.547 E0.0335
G1 X148.954 Y168.085 E0.0335
G1 X148.640 Y168.694 E0.0335
G1 X148.448 Y169.351 E0.0335
G1 X148.382 Y170.032 E0.0335
G1 X148.448 Y170.714 E0.0335
G1 X148.640 Y171.370 E0.0335
G1 X148.954 Y171.979 E0.0335
G1 X149.377 Y172.517 E0.0335
G1 X149.895 Y172.965 E0.0335
; inner perimeter
G1 X149.632 Y173.334 F21000
G1 X150.300 Y173.719 E0.0377 F1920
G1 X151.028 Y173.971 E0.0377
G1 X151.791 Y174.081 E0.0377
G1 X152.560 Y174.044 E0.0377
G1 X153.309 Y173.862 E0.0377
G1 X154.010 Y173.542 E0.0377
G1 X154.638 Y173.095 E0.0377
G1 X155.169 Y172.538 E0.0377
G1 X155.586 Y171.889 E0.0377
G1 X155.872 Y171.174 E0.0377
G1 X156.018 Y170.417 E0.0377
G1 X156.018 Y169.647 E0.0377
G1 X155.872 Y168.890 E0.0377
G1 X155.586 Y168.175 E0.0377
G1 X155.169 Y167.527 E0.0377
G1 X154.638 Y166.969 E0.0377
G1 X154.010 Y166.522 E0.0377
G1 X153.309 Y166.202 E0.0377
G1 X152.560 Y166.020 E0.0377
G1 X151.791 Y165.984 E0.0377
G1 X151.028 Y166.093 E0.0377
G1 X150.300 Y166.345 E0.0377
G1 X149.632 Y166.731 E0.0377
G1 X149.050 Y167.235 E0.0377
G1 X148.574 Y167.841 E0.0377
G1 X148.221 Y168.526 E0.0377
G1 X148.004 Y169.265 E0.0377
G1 X147.930 Y170.032 E0.0377
G1 X148.004 Y170.799 E0.0377
G1 X148.221 Y171.538 E0.0377
G1 X148.574 Y172.223 E0.0377
G1 X149.050 Y172.829 E0.0377
G1 X149.632 Y173.334 E0.0377
G1 X149.370 Y173.702 F21000
G1 X150.112 Y174.130 E0.0420 F1920
G1 X150.921 Y174.410 E0.0420
G1 X151.769 Y174.532 E0.0420
G1 X152.625 Y174.491 E0.0420
G1 X153.457 Y174.289 E0.0420
G1 X154.236 Y173.934 E0.0420
G1 X154.934 Y173.437 E0.0420
G1 X155.525 Y172.817 E0.0420
G1 X155.988 Y172.096 E0.0420
G1 X156.306 Y171.301 E0.0420
G1 X156.468 Y170.460 E0.0420
G1 X156.468 Y169.604 E0.0420
G1 X156.306 Y168.763 E0.0420
G1 X155.988 Y167.968 E0.0420
G1 X155.525 Y167.247 E0.0420
G1 X154.934 Y166.627 E0.0420
G1 X154.236 Y166.131 E0.0420
G1 X153.457 Y165.775 E0.0420
G1 X152.625 Y165.573 E0.0420
G1 X151.769 Y165.532 E0.0420
G1 X150.921 Y165.654 E0.0420
G1 X150.112 Y165.934 E0.0420
G1 X149.370 Y166.362 E0.0420
G1 X148.723 Y166.923 E0.0420
G1 X148.193 Y167.596 E0.0420
G1 X147.801 Y168.358 E0.0420
G1 X147.560 Y169.179 E0.0420
G1 X147.478 Y170.032 E0.0420
G1 X147.560 Y170.885 E0.0420
G1 X147.801 Y171.706 E0.0420
G1 X148.193 Y172.468 E0.0420
G1 X148.723 Y173.141 E0.0420
G1 X149.370 Y173.702 E0.0420
; outer perimeter
G1 X207.377 Y172.517 F21000
G1 X207.895 Y172.965 E0.0335 F1440
G1 X208.488 Y173.308 E0.0335
G1 X209.134 Y173.532 E0.0335
G1 X209.812 Y173.629 E0.0335
G1 X210.496 Y173.596 E0.0335
G1 X211.161 Y173.435 E0.0335
G1 X211.784 Y173.151 E0.0335
G1 X212.342 Y172.754 E0.0335
G1 X212.814 Y172.258 E0.0335
G1 X213.184 Y171.682 E0.0335
G1 X213.439 Y171.047 E0.0335
G1 X213.568 Y170.374 E0.0335
G1 X213.568 Y169.690 E0.0335
G1 X213.439 Y169.018 E0.0335
G1 X213.184 Y168.382 E0.0335
G1 X212.814 Y167.806 E0.0335
G1 X212.342 Y167.311 E0.0335
G1 X211.784 Y166.913 E0.0335
G1 X211.161 Y166.629 E0.0335
G1 X210.496 Y166.468 E0.0335
G1 X209.812 Y166.435 E0.0335
G1 X209.134 Y166.533 E0.0335
G1 X208.488 Y166.756 E0.0335
G1 X207.895 Y167.099 E0.0335
G1 X207.377 Y167.547 E0.0335
G1 X206.954 Y168.085 E0.0335
G1 X206.640 Y168.694 E0.0335
G1 X206.448 Y169.351 E0.0335
G1 X206.382 Y170.032 E0.0335
G1 X206.448 Y170.714 E0.0335
G1 X206.640 Y171.370 E0.0335
G1 X206.954 Y171.979 E0.0335
G1 X207.377 Y172.517 E0.0335
; inner perimeter
G1 X207.050 Y172.829 F21000
G1 X207.632 Y173.334 E0.0377 F1920
G1 X208.300 Y173.719 E0.0377
G1 X209.028 Y173.971 E0.0377
G1 X209.791 Y174.081 E0.0377
G1 X210.560 Y174.044 E0.0377
G1 X211.309 Y173.862 E0.0377
G1 X212.010 Y173.542 E0.0377
G1 X212.638 Y173.095 E0.0377
G1 X213.169 Y172.538 E0.0377
G1 X213.586 Y171.889 E0.0377
G1 X213.872 Y171.174 E0.0377
G1 X214.018 Y170.417 E0.0377
G1 X214.018 Y169.647 E0.0377
G1 X213.872 Y168.890 E0.0377
G1 X213.586 Y168.175 E0.0377
G1 X213.169 Y167.527 E0.0377
G1 X212.638 Y166.969 E0.0377
G1 X212.010 Y166.522 E0.0377
G1 X211.309 Y166.202 E0.0377
G1 X210.560 Y166.020 E0.0377
G1 X209.791 Y165.984 E0.0377
G1 X209.028 Y166.093 E0.0377
G1 X208.300 Y166.345 E0.0377
G1 X207.632 Y166.731 E0.0377
G1 X207.050 Y167.235 E0.0377
G1 X206.574 Y167.841 E0.0377
G1 X206.221 Y168.526 E0.0377
G1 X206.004 Y169.265 E0.0377
G1 X205.930 Y170.032 E0.0377
G1 X206.004 Y170.799 E0.0377
G1 X206.221 Y171.538 E0.0377
G1 X206.574 Y172.223 E0.0377
G1 X207.050 Y172.829 E0.0377
G1 X206.723 Y173.141 F21000
G1 X207.370 Y173.702 E0.0420 F1920
G1 X208.112 Y174.130 E0.0420
G1 X208.921 Y174.410 E0.0420
G1 X209.769 Y174.532 E0.0420
G1 X210.625 Y174.491 E0.0420
G1 X211.457 Y174.289 E0.0420
G1 X212.236 Y173.934 E0.0420
G1 X212.934 Y173.437 E0.0420
G1 X213.525 Y172.817 E0.0420
G1 X213.988 Y172.096 E0.0420
G1 X214.306 Y171.301 E0.0420
G1 X214.468 Y170.460 E0.0420
G1 X214.468 Y169.604 E0.0420
G1 X214.306 Y168.763 E0.0420
G1 X213.988 Y167.968 E0.0420
G1 X213.525 Y167.247 E0.0420
G1 X212.934 Y166.627 E0.0420
G1 X212.236 Y166.131 E0.0420
G1 X211.457 Y165.775 E0.0420
G1 X210.625 Y165.573 E0.0420
G1 X209.769 Y165.532 E0.0420
G1 X208.921 Y165.654 E0.0420
G1 X208.112 Y165.934 E0.0420
G1 X207.370 Y166.362 E0.0420
G1 X206.723 Y166.923 E0.0420
G1 X206.194 Y167.596 E0.0420
G1 X205.801 Y168.358 E0.0420
G1 X205.560 Y169.179 E0.0420
G1 X205.478 Y170.032 E0.0420
G1 X205.560 Y170.885 E0.0420
