%
(WattsPlaque)
(T22  D=0.25 CR=0. TAPER=90deg - ZMIN=0. - spot drill)
G90 G54 G64 G50 G17 G40 G80 G94 G91.1 G49
G20 (Inch)
G30

N10(Trace1)
T22 G43 H22 M6
S500 M3 M9
G54
G0 X1.2702 Y-1.0041
G0 Z0.4
G0 Z0.2
G1 Z0. F10.
G1 X1.2645 Y-1.0048
G1 X1.2589 Y-1.0063
G1 X1.2528 Y-1.0086
G1 X1.247 Y-1.0116
G1 X1.2411 Y-1.0161
G1 X1.236 Y-1.0215
G1 X1.2318 Y-1.0289
G1 X1.2288 Y-1.0369
G1 X1.1966 Y-1.1419
G1 X1.1571 Y-1.2699
G1 X1.1392
G1 X1.0695 Y-1.0572
G1 X0.9971 Y-1.2699
G1 X0.9799
G1 X0.94 Y-1.1285
G1 X0.9124 Y-1.0303
G1 X0.9103 Y-1.0248
G1 X0.9072 Y-1.0196
G1 X0.903 Y-1.0149
G1 X0.898 Y-1.0111
G1 X0.8925 Y-1.0081
G1 X0.8866 Y-1.0061
G1 X0.8807 Y-1.0048
G1 X0.8748 Y-1.0041
G1 Y-0.9902
G1 X0.9874
G1 Y-1.0041
G1 X0.9747 Y-1.0051
G1 X0.9622 Y-1.007
G1 X0.9587 Y-1.0077
G1 X0.9556 Y-1.0089
G1 X0.9533 Y-1.0111
G1 X0.9518 Y-1.0142
G1 X0.9523 Y-1.0193
G1 X0.9533 Y-1.0245
G1 X0.9692 Y-1.0811
G1 X1.0029 Y-1.1994
G1 X1.0718 Y-0.9941
G1 X1.0908
G1 X1.1604 Y-1.2038
G1 X1.1846 Y-1.1193
G1 X1.2014 Y-1.0574
G1 X1.2045 Y-1.045
G1 X1.2072 Y-1.0326
G1 X1.208 Y-1.0269
G1 X1.2084 Y-1.0212
G1 X1.2073 Y-1.0175
G1 X1.2055 Y-1.0144
G1 X1.2027 Y-1.012
G1 X1.1993 Y-1.0101
G1 X1.1922 Y-1.0077
G1 X1.185 Y-1.0058
G1 X1.1776 Y-1.0047
G1 X1.1701 Y-1.0041
G1 Y-0.9902
G1 X1.2702
G1 Y-1.0041
G1 Z0.2
G0 X1.3216 Y-1.0821
G1 Z0. F10.
G1 X1.3293 Y-1.0775
G1 X1.3381 Y-1.0739
G1 X1.3472 Y-1.0711
G1 X1.3566 Y-1.0696
G1 X1.3661 Y-1.0691
G1 X1.3754 Y-1.0694
G1 X1.3845 Y-1.0705
G1 X1.3934 Y-1.0727
G1 X1.4021 Y-1.0757
G1 X1.4089 Y-1.0792
G1 X1.4154 Y-1.0833
G1 X1.4211 Y-1.0882
G1 X1.4264 Y-1.0938
G1 X1.4307 Y-1.0997
G1 X1.4344 Y-1.1059
G1 X1.4373 Y-1.1126
G1 X1.4398 Y-1.1194
G1 X1.4417 Y-1.1274
G1 X1.4431 Y-1.1353
G1 X1.4438 Y-1.1434
G1 X1.4441 Y-1.1516
G1 Y-1.1644
G1 X1.3171
G1 X1.3179 Y-1.1817
G1 X1.3207 Y-1.1987
G1 X1.3227 Y-1.2058
G1 X1.3252 Y-1.2128
G1 X1.3284 Y-1.2194
G1 X1.3321 Y-1.2258
G1 X1.3363 Y-1.2311
G1 X1.3409 Y-1.236
G1 X1.3462 Y-1.2401
G1 X1.3519 Y-1.2437
G1 X1.3589 Y-1.2466
G1 X1.3661 Y-1.2487
G1 X1.3735 Y-1.2498
G1 X1.3811 Y-1.2502
G1 X1.389 Y-1.2497
G1 X1.3966 Y-1.2483
G1 X1.4039 Y-1.2456
G1 X1.411 Y-1.2421
G1 X1.4183 Y-1.2358
G1 X1.4248 Y-1.2289
G1 X1.4303 Y-1.2211
G1 X1.4352 Y-1.2128
G1 X1.4488 Y-1.2212
G1 X1.4423 Y-1.2318
G1 X1.4388 Y-1.2368
G1 X1.435 Y-1.2415
G1 X1.4307 Y-1.2459
G1 X1.4262 Y-1.2501
G1 X1.4165 Y-1.2578
G1 X1.4056 Y-1.2636
G1 X1.4 Y-1.2661
G1 X1.3943 Y-1.2681
G1 X1.3884 Y-1.2695
G1 X1.3824 Y-1.2704
G1 X1.37 Y-1.2714
G1 X1.3596 Y-1.2709
G1 X1.3493 Y-1.2696
G1 X1.3393 Y-1.2668
G1 X1.3294 Y-1.2632
G1 X1.3214 Y-1.2588
G1 X1.3138 Y-1.2538
G1 X1.307 Y-1.2477
G1 X1.3007 Y-1.2411
G1 X1.2954 Y-1.2335
G1 X1.2907 Y-1.2255
G1 X1.287 Y-1.2171
G1 X1.2839 Y-1.2084
G1 X1.2815 Y-1.1986
G1 X1.2797 Y-1.1888
G1 X1.2788 Y-1.1789
G1 X1.2784 Y-1.1689
G1 X1.2788 Y-1.1595
G1 X1.2799 Y-1.1503
G1 X1.2818 Y-1.1412
G1 X1.2843 Y-1.1322
G1 X1.2877 Y-1.1236
G1 X1.2916 Y-1.1152
G1 X1.2964 Y-1.1074
G1 X1.3017 Y-1.0998
G1 X1.3078 Y-1.0932
G1 X1.3143 Y-1.0872
G1 X1.3216 Y-1.0821
G1 Z0.2
G0 X1.4058 Y-1.148
G1 Z0. F10.
G1 X1.4053 Y-1.1364
G1 X1.404 Y-1.1248
G1 X1.4018 Y-1.1142
G1 X1.398 Y-1.104
G1 X1.3956 Y-1.0999
G1 X1.3928 Y-1.096
G1 X1.3895 Y-1.0926
G1 X1.3858 Y-1.0895
G1 X1.3811 Y-1.0869
G1 X1.3762 Y-1.0851
G1 X1.3711 Y-1.0842
G1 X1.3657 Y-1.0838
G1 X1.3558 Y-1.0853
G1 X1.3511 Y-1.0864
G1 X1.3467 Y-1.0882
G1 X1.3427 Y-1.0907
G1 X1.3389 Y-1.0938
G1 X1.3318 Y-1.1008
G1 X1.3255 Y-1.1118
G1 X1.3228 Y-1.1174
G1 X1.3207 Y-1.1232
G1 X1.3192 Y-1.1292
G1 X1.3182 Y-1.1354
G1 X1.3171 Y-1.148
G1 X1.4058
G1 Z0.2
G0 X1.5718 Y-1.2035
G1 Z0. F10.
G1 X1.5757 Y-1.1952
G1 X1.5811 Y-1.1877
G1 X1.5871 Y-1.182
G1 X1.594 Y-1.1773
G1 X1.6013 Y-1.1734
G1 X1.609 Y-1.17
G1 X1.6445 Y-1.1578
G1 X1.6628 Y-1.1514
G1 X1.6806 Y-1.1438
G1 Y-1.1245
G1 X1.6795 Y-1.1148
G1 X1.6778 Y-1.1078
G1 X1.6749 Y-1.1012
G1 X1.6701 Y-1.0943
G1 X1.6639 Y-1.0886
G1 X1.6592 Y-1.0861
G1 X1.6543 Y-1.0843
G1 X1.6491 Y-1.0835
G1 X1.6438 Y-1.0833
G1 X1.6353 Y-1.084
G1 X1.6272 Y-1.0863
G1 X1.6214 Y-1.0889
G1 X1.6164 Y-1.0926
G1 X1.617 Y-1.0984
G1 X1.6182 Y-1.1041
G1 X1.6195 Y-1.111
G1 X1.6201 Y-1.1181
G1 X1.6195 Y-1.1216
G1 X1.6183 Y-1.125
G1 X1.6164 Y-1.1279
G1 X1.6139 Y-1.1305
G1 X1.6101 Y-1.1331
G1 X1.606 Y-1.135
G1 X1.6015 Y-1.1359
G1 X1.5969 Y-1.1362
G1 X1.5927 Y-1.1357
G1 X1.5888 Y-1.1346
G1 X1.5855 Y-1.1323
G1 X1.5826 Y-1.1293
G1 X1.5806 Y-1.1256
G1 X1.5791 Y-1.1219
G1 X1.5784 Y-1.1179
G1 X1.578 Y-1.1138
G1 X1.5786 Y-1.1092
G1 X1.5797 Y-1.1047
G1 X1.5818 Y-1.1006
G1 X1.5843 Y-1.0967
G1 X1.5919 Y-1.0887
G1 X1.6008 Y-1.0821
G1 X1.6111 Y-1.0768
G1 X1.622 Y-1.0728
G1 X1.634 Y-1.07
G1 X1.6463 Y-1.0691
G1 X1.6606 Y-1.0695
G1 X1.6748 Y-1.0713
G1 X1.6807 Y-1.0728
G1 X1.6864 Y-1.0748
G1 X1.6918 Y-1.0776
G1 X1.6969 Y-1.0809
G1 X1.7016 Y-1.0851
G1 X1.7058 Y-1.0896
G1 X1.7092 Y-1.0949
G1 X1.712 Y-1.1005
G1 X1.7144 Y-1.1082
G1 X1.7161 Y-1.1161
G1 X1.7169 Y-1.1242
G1 X1.7171 Y-1.1323
G1 X1.7166 Y-1.1816
G1 X1.716 Y-1.2286
G1 X1.7165 Y-1.2348
G1 X1.7186 Y-1.2407
G1 X1.7221 Y-1.245
G1 X1.7267 Y-1.2483
G1 X1.7312 Y-1.2498
G1 X1.7359 Y-1.2502
G1 X1.7489 Y-1.2504
G1 Y-1.2629
G1 X1.7328 Y-1.2682
G1 X1.7251 Y-1.2698
G1 X1.7171 Y-1.2702
G1 X1.7107 Y-1.2699
G1 X1.7044 Y-1.2687
G1 X1.6985 Y-1.2664
G1 X1.6929 Y-1.2631
G1 X1.6887 Y-1.2587
G1 X1.6852 Y-1.2539
G1 X1.6829 Y-1.2484
G1 X1.6813 Y-1.2424
G1 X1.6802
G1 X1.6741 Y-1.2486
G1 X1.6676 Y-1.2544
G1 X1.6605 Y-1.2593
G1 X1.653 Y-1.2638
G1 X1.6446 Y-1.2671
G1 X1.636 Y-1.2696
G1 X1.6271 Y-1.2708
G1 X1.6181 Y-1.2712
G1 X1.6083 Y-1.2703
G1 X1.6036 Y-1.2695
G1 X1.599 Y-1.2681
G1 X1.5947 Y-1.2662
G1 X1.5905 Y-1.2637
G1 X1.5826 Y-1.258
G1 X1.5766 Y-1.2504
G1 X1.574 Y-1.2464
G1 X1.5719 Y-1.2422
G1 X1.5705 Y-1.2377
G1 X1.5696 Y-1.233
G1 X1.5687 Y-1.2234
G1 X1.5694 Y-1.2133
G1 X1.5718 Y-1.2035
G1 Z0.2
G0 X1.7945 Y-1.2462
G1 Z0. F10.
G1 X1.7931 Y-1.242
G1 X1.7916 Y-1.2331
G1 X1.7911 Y-1.2239
G1 Y-1.094
G1 X1.7564
G1 Y-1.0753
G1 X1.7919
G1 Y-1.0155
G1 X1.8273
G1 Y-1.0753
G1 X1.8823
G1 Y-1.094
G1 X1.8277
G1 Y-1.2012
G1 X1.8278 Y-1.2113
G1 X1.8285 Y-1.2213
G1 X1.8299 Y-1.2286
G1 X1.8327 Y-1.2354
G1 X1.8367 Y-1.2405
G1 X1.8421 Y-1.244
G1 X1.8503 Y-1.2463
G1 X1.8588 Y-1.2469
G1 X1.8731 Y-1.246
G1 X1.8798 Y-1.2453
G1 X1.8864 Y-1.2438
G1 Y-1.258
G1 X1.8746 Y-1.2627
G1 X1.8625 Y-1.2668
G1 X1.8557 Y-1.2685
G1 X1.8488 Y-1.2697
G1 X1.8349 Y-1.2704
G1 X1.8254 Y-1.27
G1 X1.8208 Y-1.2693
G1 X1.8164 Y-1.2682
G1 X1.8122 Y-1.2664
G1 X1.8083 Y-1.2641
G1 X1.8009 Y-1.2583
G1 X1.7964 Y-1.2503
G1 X1.7945 Y-1.2462
G1 Z0.2
G0 X2.0086 Y-1.2665
G1 Z0. F10.
G1 X2.0059 Y-1.172
G1 X2.0217
G1 X2.0267 Y-1.188
G1 X2.033 Y-1.2036
G1 X2.0367 Y-1.2106
G1 X2.0407 Y-1.2174
G1 X2.0453 Y-1.2238
G1 X2.0503 Y-1.23
G1 X2.0556 Y-1.2353
G1 X2.0612 Y-1.2403
G1 X2.0674 Y-1.2445
G1 X2.0739 Y-1.2483
G1 X2.0815 Y-1.2512
G1 X2.0892 Y-1.2535
G1 X2.0972 Y-1.2546
G1 X2.1053 Y-1.2551
G1 X2.1172 Y-1.2543
G1 X2.1288 Y-1.2516
G1 X2.1332 Y-1.2497
G1 X2.1375 Y-1.2475
G1 X2.1414 Y-1.2448
G1 X2.145 Y-1.2416
G1 X2.1505 Y-1.2346
G1 X2.1543 Y-1.2265
G1 X2.1566 Y-1.2167
G1 X2.1573 Y-1.2066
G1 X2.1565 Y-1.1984
G1 X2.1549 Y-1.1904
G1 X2.1519 Y-1.1829
G1 X2.1479 Y-1.1757
G1 X2.1422 Y-1.1687
G1 X2.1391 Y-1.1655
G1 X2.1358 Y-1.1626
G1 X2.1282 Y-1.1579
G1 X2.1201 Y-1.1539
G1 X2.0911 Y-1.1428
G1 X2.0769 Y-1.1373
G1 X2.0629 Y-1.1313
G1 X2.0527 Y-1.1259
G1 X2.043 Y-1.1198
G1 X2.0386 Y-1.1162
G1 X2.0345 Y-1.1122
G1 X2.0266 Y-1.1037
G1 X2.0208 Y-1.0934
G1 X2.0184 Y-1.0881
G1 X2.0165 Y-1.0826
G1 X2.0152 Y-1.077
G1 X2.0144 Y-1.0712
G1 X2.0137 Y-1.0593
G1 X2.0142 Y-1.0517
G1 X2.0153 Y-1.0443
G1 X2.0174 Y-1.037
G1 X2.0201 Y-1.0299
G1 X2.0238 Y-1.0232
G1 X2.028 Y-1.0169
G1 X2.033 Y-1.0111
G1 X2.0384 Y-1.0056
G1 X2.0445 Y-1.0008
G1 X2.051 Y-0.9964
G1 X2.0579 Y-0.9929
G1 X2.0651 Y-0.9898
G1 X2.0729 Y-0.9873
G1 X2.0808 Y-0.9854
G1 X2.089 Y-0.9845
G1 X2.0972 Y-0.984
G1 X2.1059 Y-0.9844
G1 X2.1145 Y-0.9854
G1 X2.123 Y-0.9873
G1 X2.1313 Y-0.9899
G1 X2.1454 Y-0.996
G1 X2.1588 Y-1.0035
G1 X2.1668 Y-0.9902
G1 X2.1824
G1 X2.1839 Y-1.0819
G1 X2.1682
G1 X2.1637 Y-1.0667
G1 X2.1585 Y-1.0517
G1 X2.1525 Y-1.0382
G1 X2.1446 Y-1.0257
G1 X2.1402 Y-1.0204
G1 X2.1354 Y-1.0156
G1 X2.13 Y-1.0114
G1 X2.1242 Y-1.0077
G1 X2.1171 Y-1.0047
G1 X2.1099 Y-1.0024
G1 X2.1023 Y-1.0013
G1 X2.0946 Y-1.0009
G1 X2.086 Y-1.0018
G1 X2.0818 Y-1.0026
G1 X2.0777 Y-1.0038
G1 X2.0739 Y-1.0056
G1 X2.0702 Y-1.0077
G1 X2.0631 Y-1.0128
G1 X2.0576 Y-1.0191
G1 X2.0553 Y-1.0224
G1 X2.0534 Y-1.0259
G1 X2.052 Y-1.0296
G1 X2.0511 Y-1.0336
G1 X2.0501 Y-1.0418
G1 X2.0506 Y-1.0497
G1 X2.0519 Y-1.0573
G1 X2.0547 Y-1.0645
G1 X2.0584 Y-1.0715
G1 X2.0636 Y-1.0774
G1 X2.0693 Y-1.0827
G1 X2.0758 Y-1.0871
G1 X2.0828 Y-1.0908
G1 X2.0966 Y-1.0971
G1 X2.1107 Y-1.1026
G1 X2.1241 Y-1.1077
G1 X2.1372 Y-1.1132
G1 X2.1487 Y-1.1186
G1 X2.1597 Y-1.1247
G1 X2.1696 Y-1.1315
G1 X2.1785 Y-1.1397
G1 X2.1824 Y-1.1446
G1 X2.186 Y-1.1497
G1 X2.1889 Y-1.1552
G1 X2.1914 Y-1.161
G1 X2.1933 Y-1.1676
G1 X2.1947 Y-1.1743
G1 X2.1954 Y-1.1811
G1 X2.1956 Y-1.1879
G1 X2.1935 Y-1.2051
G1 X2.1917 Y-1.2134
G1 X2.1889 Y-1.2212
G1 X2.185 Y-1.2284
G1 X2.18 Y-1.2353
G1 X2.1686 Y-1.2483
G1 X2.1534 Y-1.2586
G1 X2.1455 Y-1.2629
G1 X2.1373 Y-1.2664
G1 X2.1287 Y-1.2688
G1 X2.1198 Y-1.2704
G1 X2.1014 Y-1.272
G1 X2.092 Y-1.2715
G1 X2.0827 Y-1.2705
G1 X2.0736 Y-1.2687
G1 X2.0645 Y-1.2663
G1 X2.0481 Y-1.2603
G1 X2.0402 Y-1.2565
G1 X2.0326 Y-1.2523
G1 X2.0242 Y-1.2665
G1 X2.0086
G1 Z0.2
G0 X2.2178 Y-1.0897
G1 Z0. F10.
G1 Y-1.0768
G1 X2.2818 Y-1.0722
G1 X2.2847 Y-1.0749
G1 Y-1.2082
G1 X2.2852 Y-1.2166
G1 X2.2866 Y-1.2247
G1 X2.2879 Y-1.2286
G1 X2.2897 Y-1.2323
G1 X2.2941 Y-1.2395
G1 X2.2989 Y-1.2438
G1 X2.3041 Y-1.2473
G1 X2.3101 Y-1.2491
G1 X2.3164 Y-1.25
G1 X2.3261 Y-1.2493
G1 X2.3355 Y-1.2467
G1 X2.3428 Y-1.2433
G1 X2.3495 Y-1.2389
G1 X2.3544 Y-1.2348
G1 X2.3588 Y-1.2303
G1 X2.3621 Y-1.2262
G1 X2.3649 Y-1.2218
G1 Y-1.1132
G1 X2.3643 Y-1.1073
G1 X2.3622 Y-1.1018
G1 X2.3589 Y-1.0972
G1 X2.3546 Y-1.0934
G1 X2.3496 Y-1.0913
G1 X2.3442 Y-1.0906
G1 X2.3287 Y-1.0897
G1 Y-1.0768
G1 X2.3986 Y-1.0722
G1 X2.4015 Y-1.0749
G1 Y-1.2271
G1 X2.4021 Y-1.2329
G1 X2.4042 Y-1.2383
G1 X2.4075 Y-1.2428
G1 X2.4118 Y-1.2463
G1 X2.4158 Y-1.2482
G1 X2.4202 Y-1.2491
G1 X2.4309 Y-1.25
G1 Y-1.2629
G1 X2.3682 Y-1.2671
G1 X2.3653 Y-1.2644
G1 Y-1.2401
G1 X2.3641
G1 X2.3536 Y-1.2505
G1 X2.3472 Y-1.2559
G1 X2.3402 Y-1.2605
G1 X2.332 Y-1.265
G1 X2.3233 Y-1.2685
G1 X2.3119 Y-1.2707
G1 X2.3002 Y-1.2712
G1 X2.2891 Y-1.2702
G1 X2.2838 Y-1.2691
G1 X2.2788 Y-1.2675
G1 X2.2741 Y-1.2651
G1 X2.2697 Y-1.262
G1 X2.2615 Y-1.2546
G1 X2.2552 Y-1.2434
G1 X2.2527 Y-1.2376
G1 X2.2507 Y-1.2316
G1 X2.2495 Y-1.2255
G1 X2.2488 Y-1.2192
G1 X2.2482 Y-1.2063
G1 Y-1.1146
G1 X2.2476 Y-1.1085
G1 X2.2455 Y-1.1028
G1 X2.2421 Y-1.0982
G1 X2.2378 Y-1.0945
G1 X2.2335 Y-1.0924
G1 X2.229 Y-1.0911
G1 X2.2178 Y-1.0897
G1 Z0.2
G0 X2.4544 Y-1.2664
G1 Z0. F10.
G1 Y-1.2535
G1 X2.4636 Y-1.2527
G1 X2.4678 Y-1.2522
G1 X2.4719 Y-1.2512
G1 X2.4765 Y-1.2489
G1 X2.48 Y-1.2451
G1 X2.4821 Y-1.2396
G1 X2.4826 Y-1.2337
G1 Y-1.1153
G1 X2.4819 Y-1.1091
G1 X2.4798 Y-1.1032
G1 X2.4764 Y-1.0982
G1 X2.4719 Y-1.0941
G1 X2.4677 Y-1.0921
G1 X2.4632 Y-1.0907
G1 X2.4523 Y-1.0893
G1 Y-1.0764
G1 X2.5161 Y-1.0722
G1 X2.5188 Y-1.0749
G1 Y-1.1019
G1 X2.5198
G1 X2.5315 Y-1.0907
G1 X2.5379 Y-1.0852
G1 X2.5447 Y-1.0801
G1 X2.553 Y-1.0757
G1 X2.5618 Y-1.0724
G1 X2.5729 Y-1.07
G1 X2.5842 Y-1.0692
G1 X2.5959 Y-1.0702
G1 X2.6015 Y-1.0713
G1 X2.6068 Y-1.0729
G1 X2.6118 Y-1.0755
G1 X2.6164 Y-1.0787
G1 X2.6251 Y-1.0865
G1 X2.6312 Y-1.0971
G1 X2.6337 Y-1.1026
G1 X2.6356 Y-1.1082
G1 X2.6369 Y-1.1141
G1 X2.6377 Y-1.12
G1 X2.6385 Y-1.1323
G1 Y-1.2321
G1 X2.639 Y-1.2378
G1 X2.6408 Y-1.2431
G1 X2.6442 Y-1.247
G1 X2.6488 Y-1.2496
G1 X2.6569 Y-1.2523
G1 X2.6663 Y-1.2535
G1 Y-1.2664
G1 X2.5725
G1 Y-1.2535
G1 X2.5823 Y-1.2527
G1 X2.5868 Y-1.2522
G1 X2.5912 Y-1.2512
G1 X2.5958 Y-1.2489
G1 X2.5993 Y-1.245
G1 X2.6014 Y-1.2395
G1 X2.6019 Y-1.2337
G1 Y-1.135
G1 X2.6014 Y-1.1265
G1 X2.5999 Y-1.1183
G1 X2.5985 Y-1.1144
G1 X2.5967 Y-1.1107
G1 X2.5922 Y-1.1035
G1 X2.5872 Y-1.0989
G1 X2.5846 Y-1.0969
G1 X2.5817 Y-1.0953
G1 X2.5787 Y-1.0941
G1 X2.5755 Y-1.0933
G1 X2.5687 Y-1.0924
G1 X2.5591 Y-1.0932
G1 X2.5498 Y-1.0956
G1 X2.542 Y-1.0991
G1 X2.5346 Y-1.1035
G1 X2.5291 Y-1.1079
G1 X2.5244 Y-1.1131
G1 X2.5188 Y-1.1214
G1 Y-1.2317
G1 X2.5194 Y-1.2374
G1 X2.5215 Y-1.2426
G1 X2.5251 Y-1.2465
G1 X2.5297 Y-1.2492
G1 X2.534 Y-1.251
G1 X2.5386 Y-1.2521
G1 X2.5484 Y-1.2535
G1 Y-1.2664
G1 X2.4544
G1 Z0.2
G0 X2.6863
G1 Z0. F10.
G1 Y-1.2535
G1 X2.6956 Y-1.2526
G1 X2.7037 Y-1.2512
G1 X2.7084 Y-1.2488
G1 X2.7119 Y-1.245
G1 X2.714 Y-1.2395
G1 X2.7146 Y-1.2336
G1 Y-1.0105
G1 X2.7138 Y-1.0036
G1 X2.7115 Y-0.997
G1 X2.7082 Y-0.9916
G1 X2.7037 Y-0.9873
G1 X2.6976 Y-0.9845
G1 X2.6909 Y-0.9832
G1 X2.677 Y-0.9819
G1 Y-0.9694
G1 X2.748 Y-0.9651
G1 X2.7508 Y-0.9681
G1 Y-1.171
G1 X2.7836 Y-1.1385
G1 X2.7987 Y-1.1232
G1 X2.8133 Y-1.1074
G1 X2.8167 Y-1.1029
G1 X2.8179 Y-1.1007
G1 X2.8185 Y-1.0983
G1 X2.8174 Y-1.0953
G1 X2.8157 Y-1.093
G1 X2.8131 Y-1.0915
G1 X2.81 Y-1.0905
G1 X2.802 Y-1.0884
G1 X2.7938 Y-1.087
G1 Y-1.0745
G1 X2.8782
G1 Y-1.0866
G1 X2.8634 Y-1.0918
G1 X2.8493 Y-1.0987
G1 X2.8394 Y-1.1048
G1 X2.8301 Y-1.1119
G1 X2.8234 Y-1.118
G1 X2.8169 Y-1.1245
G1 X2.7929 Y-1.1474
G1 X2.8112 Y-1.1707
G1 X2.8289 Y-1.1945
G1 X2.858 Y-1.2342
G1 X2.8649 Y-1.2426
G1 X2.8689 Y-1.2461
G1 X2.8733 Y-1.2492
G1 X2.8781 Y-1.251
G1 X2.883 Y-1.2524
G1 X2.8932 Y-1.2535
G1 Y-1.2664
G1 X2.8353
G1 X2.8028 Y-1.2193
G1 X2.7851 Y-1.1946
G1 X2.7667 Y-1.1705
G1 X2.7508 Y-1.1854
G1 Y-1.2309
G1 X2.7513 Y-1.2369
G1 X2.7533 Y-1.2425
G1 X2.7568 Y-1.2466
G1 X2.7615 Y-1.2492
G1 X2.7659 Y-1.2509
G1 X2.7704 Y-1.2521
G1 X2.7803 Y-1.2535
G1 Y-1.2664
G1 X2.6863
G1 Z0.2
G0 X3.0045
G1 Z0. F10.
G1 Y-1.2525
G1 X3.018 Y-1.2512
G1 X3.0243 Y-1.2503
G1 X3.0304 Y-1.2486
G1 X3.0352 Y-1.2457
G1 X3.0388 Y-1.2413
G1 X3.0409 Y-1.2352
G1 X3.0415 Y-1.2288
G1 Y-1.0292
G1 X3.041 Y-1.023
G1 X3.0395 Y-1.0171
G1 X3.0379 Y-1.0144
G1 X3.0358 Y-1.0121
G1 X3.0333 Y-1.0104
G1 X3.0304 Y-1.0091
G1 X3.0241 Y-1.0073
G1 X3.0177 Y-1.0059
G1 X3.0045 Y-1.0041
G1 Y-0.9902
G1 X3.1319
G1 X3.1485 Y-0.9911
G1 X3.1648 Y-0.9938
G1 X3.1721 Y-0.9959
G1 X3.1792 Y-0.9984
G1 X3.186 Y-1.0017
G1 X3.1926 Y-1.0054
G1 X3.1983 Y-1.0097
G1 X3.2035 Y-1.0144
G1 X3.2079 Y-1.0199
G1 X3.2119 Y-1.0258
G1 X3.2151 Y-1.033
G1 X3.2175 Y-1.0404
G1 X3.2187 Y-1.0481
G1 X3.2191 Y-1.056
G1 X3.2188 Y-1.0632
G1 X3.218 Y-1.0704
G1 X3.2164 Y-1.0773
G1 X3.2142 Y-1.0842
G1 X3.2115 Y-1.0901
G1 X3.2082 Y-1.0956
G1 X3.2043 Y-1.1007
G1 X3.1998 Y-1.1054
G1 X3.1899 Y-1.1135
G1 X3.1788 Y-1.1199
G1 X3.1655 Y-1.1258
G1 X3.1518 Y-1.1303
G1 X3.1857 Y-1.1759
G1 X3.2189 Y-1.2208
G1 X3.2261 Y-1.2299
G1 X3.2344 Y-1.238
G1 X3.241 Y-1.2429
G1 X3.2481 Y-1.2471
G1 X3.2543 Y-1.2495
G1 X3.2607 Y-1.251
G1 X3.267 Y-1.252
G1 X3.2734 Y-1.2525
G1 Y-1.2664
G1 X3.199
G1 X3.1771 Y-1.2326
G1 X3.1544 Y-1.1994
G1 X3.1331 Y-1.1701
G1 X3.1112 Y-1.1412
G1 X3.0829
G1 Y-1.2288
G1 X3.0834 Y-1.2349
G1 X3.085 Y-1.2408
G1 X3.0867 Y-1.2434
G1 X3.0888 Y-1.2456
G1 X3.0913 Y-1.2473
G1 X3.0942 Y-1.2486
G1 X3.1002 Y-1.2502
G1 X3.1064 Y-1.2512
G1 X3.1212 Y-1.2525
G1 Y-1.2664
G1 X3.0045
G1 Z0.2
G0 X3.3002 Y-1.2379
G1 Z0. F10.
G1 X3.2947 Y-1.2302
G1 X3.2901 Y-1.222
G1 X3.2861 Y-1.2133
G1 X3.2829 Y-1.2031
G1 X3.2804 Y-1.1926
G1 X3.2791 Y-1.182
G1 X3.2786 Y-1.1712
G1 X3.2804 Y-1.1511
G1 X3.282 Y-1.1413
G1 X3.2847 Y-1.1318
G1 X3.2885 Y-1.1229
G1 X3.2934 Y-1.1142
G1 X3.3048 Y-1.0977
G1 X3.3198 Y-1.0853
G1 X3.3277 Y-1.08
G1 X3.336 Y-1.0758
G1 X3.3449 Y-1.0729
G1 X3.3542 Y-1.0711
G1 X3.3735 Y-1.0691
G1 X3.3921 Y-1.071
G1 X3.4011 Y-1.0728
G1 X3.4097 Y-1.0756
G1 X3.4177 Y-1.0796
G1 X3.4254 Y-1.0845
G1 X3.44 Y-1.0962
G1 X3.4516 Y-1.1124
G1 X3.4565 Y-1.1208
G1 X3.4603 Y-1.1296
G1 X3.4629 Y-1.1389
G1 X3.4646 Y-1.1486
G1 X3.4662 Y-1.1685
G1 X3.4657 Y-1.1786
G1 X3.4646 Y-1.1886
G1 X3.4625 Y-1.1985
G1 X3.4598 Y-1.2083
G1 X3.4564 Y-1.2172
G1 X3.4523 Y-1.2258
G1 X3.4472 Y-1.2338
G1 X3.4415 Y-1.2414
G1 X3.4346 Y-1.2485
G1 X3.4272 Y-1.2548
G1 X3.419 Y-1.2601
G1 X3.4103 Y-1.2646
G1 X3.4007 Y-1.2679
G1 X3.3908 Y-1.2704
G1 X3.3808 Y-1.2717
G1 X3.3706 Y-1.2722
G1 X3.3616 Y-1.2717
G1 X3.3528 Y-1.2705
G1 X3.3442 Y-1.2682
G1 X3.3357 Y-1.2653
G1 X3.3277 Y-1.2613
G1 X3.32 Y-1.2567
G1 X3.3129 Y-1.2512
G1 X3.3063 Y-1.2451
G1 X3.3002 Y-1.2379
G1 Z0.2
G0 X3.4259 Y-1.1689
G1 Z0. F10.
G1 X3.4252 Y-1.1534
G1 X3.423 Y-1.138
G1 X3.4197 Y-1.1239
G1 X3.4172 Y-1.1171
G1 X3.4142 Y-1.1105
G1 X3.4109 Y-1.105
G1 X3.4072 Y-1.0998
G1 X3.4028 Y-1.0953
G1 X3.3979 Y-1.0911
G1 X3.3921 Y-1.0879
G1 X3.3861 Y-1.0855
G1 X3.3797 Y-1.0843
G1 X3.3731 Y-1.0838
G1 X3.3663 Y-1.0843
G1 X3.3597 Y-1.0855
G1 X3.3535 Y-1.088
G1 X3.3475 Y-1.0912
G1 X3.3423 Y-1.0955
G1 X3.3376 Y-1.1003
G1 X3.3337 Y-1.1057
G1 X3.3302 Y-1.1115
G1 X3.3273 Y-1.118
G1 X3.3248 Y-1.1246
G1 X3.3229 Y-1.1315
G1 X3.3215 Y-1.1385
G1 X3.3196 Y-1.1532
G1 X3.3189 Y-1.1679
G1 X3.3196 Y-1.1852
G1 X3.3219 Y-1.2024
G1 X3.3236 Y-1.2098
G1 X3.3257 Y-1.217
G1 X3.3284 Y-1.2239
G1 X3.3316 Y-1.2307
G1 X3.335 Y-1.2363
G1 X3.3388 Y-1.2415
G1 X3.3433 Y-1.2461
G1 X3.3483 Y-1.2503
G1 X3.3541 Y-1.2534
G1 X3.3601 Y-1.2558
G1 X3.3665 Y-1.257
G1 X3.3731 Y-1.2574
G1 X3.385 Y-1.2553
G1 X3.3906 Y-1.2536
G1 X3.3957 Y-1.2511
G1 X3.4002 Y-1.2476
G1 X3.4043 Y-1.2435
G1 X3.4117 Y-1.2339
G1 X3.4184 Y-1.2183
G1 X3.4211 Y-1.2104
G1 X3.4232 Y-1.2024
G1 X3.4245 Y-1.1942
G1 X3.4253 Y-1.1858
G1 X3.4259 Y-1.1689
G1 Z0.2
G0 X3.5137 Y-1.2001
G1 Z0. F10.
G1 Y-1.0101
G1 X3.5129 Y-1.0033
G1 X3.5107 Y-0.9969
G1 X3.5075 Y-0.9915
G1 X3.503 Y-0.9873
G1 X3.497 Y-0.9848
G1 X3.4906 Y-0.9835
G1 X3.4767 Y-0.9819
G1 Y-0.9694
G1 X3.5472 Y-0.9651
G1 X3.5499 Y-0.9681
G1 Y-1.0945
G1 X3.5513 Y-1.0949
G1 X3.5572 Y-1.0892
G1 X3.5635 Y-1.084
G1 X3.5704 Y-1.0796
G1 X3.5776 Y-1.0757
G1 X3.5844 Y-1.073
G1 X3.5913 Y-1.071
G1 X3.5985 Y-1.0698
G1 X3.6057 Y-1.0692
G1 X3.6227 Y-1.0715
G1 X3.6309 Y-1.0735
G1 X3.6385 Y-1.0764
G1 X3.6456 Y-1.0805
G1 X3.6523 Y-1.0856
G1 X3.6649 Y-1.0973
G1 X3.6754 Y-1.114
G1 X3.6799 Y-1.1226
G1 X3.6834 Y-1.1315
G1 X3.6857 Y-1.1409
G1 X3.6872 Y-1.1505
G1 X3.6886 Y-1.1702
G1 X3.6867 Y-1.1902
G1 X3.6849 Y-1.1999
G1 X3.6821 Y-1.2092
G1 X3.6781 Y-1.2181
G1 X3.6731 Y-1.2265
G1 X3.6614 Y-1.2428
G1 X3.6477 Y-1.2549
G1 X3.6405 Y-1.2601
G1 X3.6329 Y-1.2644
G1 X3.6248 Y-1.2675
G1 X3.6161 Y-1.2696
G1 X3.5981 Y-1.2722
G1 X3.5903 Y-1.2718
G1 X3.5824 Y-1.271
G1 X3.5747 Y-1.2694
G1 X3.5671 Y-1.2673
G1 X3.5524 Y-1.2617
G1 X3.5384 Y-1.2543
G1 X3.524 Y-1.2767
G1 X3.5119 Y-1.2739
G1 X3.5128 Y-1.2566
G1 X3.5133 Y-1.2393
G1 X3.5137 Y-1.2001
G1 Z0.2
G0 X3.7166 Y-1.1712
G1 Z0. F10.
G1 X3.7184 Y-1.1511
G1 X3.72 Y-1.1413
G1 X3.7227 Y-1.1318
G1 X3.7265 Y-1.1229
G1 X3.7314 Y-1.1142
G1 X3.7428 Y-1.0977
G1 X3.7578 Y-1.0853
G1 X3.7657 Y-1.08
G1 X3.774 Y-1.0758
G1 X3.7829 Y-1.0729
G1 X3.7922 Y-1.0711
G1 X3.8115 Y-1.0691
G1 X3.8301 Y-1.071
G1 X3.8391 Y-1.0728
G1 X3.8477 Y-1.0756
G1 X3.8557 Y-1.0796
G1 X3.8634 Y-1.0845
G1 X3.878 Y-1.0962
G1 X3.8896 Y-1.1124
G1 X3.8945 Y-1.1208
G1 X3.8983 Y-1.1296
G1 X3.9009 Y-1.1389
G1 X3.9026 Y-1.1486
G1 X3.9042 Y-1.1685
G1 X3.9037 Y-1.1786
G1 X3.9026 Y-1.1886
G1 X3.9005 Y-1.1985
G1 X3.8978 Y-1.2083
G1 X3.8944 Y-1.2172
G1 X3.8903 Y-1.2258
G1 X3.8852 Y-1.2338
G1 X3.8795 Y-1.2414
G1 X3.8726 Y-1.2485
G1 X3.8652 Y-1.2548
G1 X3.857 Y-1.2601
G1 X3.8483 Y-1.2646
G1 X3.8387 Y-1.2679
G1 X3.8288 Y-1.2704
G1 X3.8188 Y-1.2717
G1 X3.8086 Y-1.2722
G1 X3.7996 Y-1.2717
G1 X3.7908 Y-1.2705
G1 X3.7822 Y-1.2682
G1 X3.7737 Y-1.2653
G1 X3.7657 Y-1.2613
G1 X3.758 Y-1.2567
G1 X3.7509 Y-1.2512
G1 X3.7443 Y-1.2451
G1 X3.7382 Y-1.2379
G1 X3.7327 Y-1.2302
G1 X3.7281 Y-1.222
G1 X3.7241 Y-1.2133
G1 X3.7209 Y-1.2031
G1 X3.7184 Y-1.1926
G1 X3.7171 Y-1.182
G1 X3.7166 Y-1.1712
G1 Z0.2
G0 X3.8639 Y-1.1689
G1 Z0. F10.
G1 X3.8632 Y-1.1534
G1 X3.861 Y-1.138
G1 X3.8577 Y-1.1239
G1 X3.8552 Y-1.1171
G1 X3.8522 Y-1.1105
G1 X3.8489 Y-1.105
G1 X3.8452 Y-1.0998
G1 X3.8408 Y-1.0953
G1 X3.8359 Y-1.0911
G1 X3.8301 Y-1.0879
G1 X3.8241 Y-1.0855
G1 X3.8177 Y-1.0843
G1 X3.8111 Y-1.0838
G1 X3.8043 Y-1.0843
G1 X3.7977 Y-1.0855
G1 X3.7915 Y-1.088
G1 X3.7855 Y-1.0912
G1 X3.7803 Y-1.0955
G1 X3.7756 Y-1.1003
G1 X3.7717 Y-1.1057
G1 X3.7682 Y-1.1115
G1 X3.7653 Y-1.118
G1 X3.7628 Y-1.1246
G1 X3.7609 Y-1.1315
G1 X3.7595 Y-1.1385
G1 X3.7576 Y-1.1532
G1 X3.7569 Y-1.1679
G1 X3.7576 Y-1.1852
G1 X3.7599 Y-1.2024
G1 X3.7616 Y-1.2098
G1 X3.7637 Y-1.217
G1 X3.7664 Y-1.2239
G1 X3.7696 Y-1.2307
G1 X3.773 Y-1.2363
G1 X3.7768 Y-1.2415
G1 X3.7813 Y-1.2461
G1 X3.7863 Y-1.2503
G1 X3.7921 Y-1.2534
G1 X3.7981 Y-1.2558
G1 X3.8045 Y-1.257
G1 X3.8111 Y-1.2574
G1 X3.823 Y-1.2553
G1 X3.8286 Y-1.2536
G1 X3.8337 Y-1.2511
G1 X3.8382 Y-1.2476
G1 X3.8423 Y-1.2435
G1 X3.8497 Y-1.2339
G1 X3.8564 Y-1.2183
G1 X3.8591 Y-1.2104
G1 X3.8612 Y-1.2024
G1 X3.8625 Y-1.1942
G1 X3.8633 Y-1.1858
G1 X3.8639 Y-1.1689
G1 Z0.2
G0 X3.955 Y-1.1589
G1 Z0. F10.
G1 Y-1.094
G1 X3.9204
G1 Y-1.0753
G1 X3.9558
G1 Y-1.0155
G1 X3.9912
G1 Y-1.0753
G1 X4.0463
G1 Y-1.094
G1 X3.9916
G1 Y-1.2012
G1 X3.9918 Y-1.2113
G1 X3.9925 Y-1.2213
G1 X3.9939 Y-1.2286
G1 X3.9967 Y-1.2354
G1 X4.0006 Y-1.2405
G1 X4.006 Y-1.244
G1 X4.0142 Y-1.2463
G1 X4.0227 Y-1.2469
G1 X4.037 Y-1.246
G1 X4.0437 Y-1.2453
G1 X4.0504 Y-1.2438
G1 Y-1.258
G1 X4.0385 Y-1.2627
G1 X4.0264 Y-1.2668
G1 X4.0196 Y-1.2685
G1 X4.0128 Y-1.2697
G1 X3.9988 Y-1.2704
G1 X3.9893 Y-1.27
G1 X3.9847 Y-1.2693
G1 X3.9803 Y-1.2682
G1 X3.9762 Y-1.2664
G1 X3.9722 Y-1.2641
G1 X3.9648 Y-1.2583
G1 X3.9603 Y-1.2503
G1 X3.9584 Y-1.2462
G1 X3.957 Y-1.242
G1 X3.9555 Y-1.2331
G1 X3.955 Y-1.2239
G1 Y-1.1589
G1 Z0.2
G0 X4.0698 Y-1.2535
G1 Z0. F10.
G1 X4.0791 Y-1.2527
G1 X4.0832 Y-1.2522
G1 X4.0873 Y-1.2512
G1 X4.0919 Y-1.2489
G1 X4.0954 Y-1.2451
G1 X4.0975 Y-1.2396
G1 X4.098 Y-1.2337
G1 Y-1.1153
G1 X4.0973 Y-1.1095
G1 X4.0952 Y-1.104
G1 X4.0918 Y-1.0992
G1 X4.0873 Y-1.0953
G1 X4.0821 Y-1.0929
G1 X4.0766 Y-1.0913
G1 X4.0702 Y-1.09
G1 X4.0638 Y-1.0893
G1 Y-1.0764
G1 X4.1315 Y-1.0722
G1 X4.1342 Y-1.0749
G1 Y-1.2313
G1 X4.1348 Y-1.2372
G1 X4.1368 Y-1.2426
G1 X4.1404 Y-1.2466
G1 X4.145 Y-1.2492
G1 X4.1533 Y-1.2521
G1 X4.1578 Y-1.253
G1 X4.1624 Y-1.2535
G1 Y-1.2664
G1 X4.0698
G1 Y-1.2535
G1 Z0.2
G0 X4.2097 Y-1.2438
G1 Z0. F10.
G1 X4.1991 Y-1.2268
G1 X4.1947 Y-1.218
G1 X4.1912 Y-1.2089
G1 X4.1889 Y-1.1995
G1 X4.1875 Y-1.1897
G1 X4.1862 Y-1.1696
G1 X4.1866 Y-1.16
G1 X4.1877 Y-1.1504
G1 X4.1898 Y-1.1411
G1 X4.1925 Y-1.1318
G1 X4.1961 Y-1.1232
G1 X4.2003 Y-1.115
G1 X4.2053 Y-1.1072
G1 X4.2109 Y-1.0998
G1 X4.2172 Y-1.0932
G1 X4.2241 Y-1.0871
G1 X4.2317 Y-1.082
G1 X4.2397 Y-1.0775
G1 X4.2488 Y-1.0739
G1 X4.2581 Y-1.0711
G1 X4.2676 Y-1.0697
G1 X4.2774 Y-1.0691
G1 X4.2897 Y-1.0698
G1 X4.2957 Y-1.0707
G1 X4.3015 Y-1.072
G1 X4.3072 Y-1.074
G1 X4.3127 Y-1.0765
G1 X4.3233 Y-1.0826
G1 X4.3309 Y-1.0903
G1 X4.3341 Y-1.0944
G1 X4.3367 Y-1.0988
G1 X4.3385 Y-1.1036
G1 X4.3397 Y-1.1087
G1 X4.3411 Y-1.1194
G1 X4.3407 Y-1.124
G1 X4.34 Y-1.1284
G1 X4.3384 Y-1.1326
G1 X4.3364 Y-1.1367
G1 X4.3333 Y-1.14
G1 X4.3298 Y-1.1425
G1 X4.3256 Y-1.1437
G1 X4.321 Y-1.1442
G1 X4.3162 Y-1.1438
G1 X4.3115 Y-1.1429
G1 X4.3072 Y-1.141
G1 X4.3032 Y-1.1383
G1 X4.3007 Y-1.1355
G1 X4.2986 Y-1.1325
G1 X4.2975 Y-1.1291
G1 X4.2969 Y-1.1253
G1 X4.2975 Y-1.1163
G1 X4.2992 Y-1.1074
G1 X4.3008 Y-1.1007
G1 X4.3019 Y-1.0939
G1 X4.2999 Y-1.0912
G1 X4.2976 Y-1.0889
G1 X4.2947 Y-1.0872
G1 X4.2916 Y-1.0859
G1 X4.2842 Y-1.0843
G1 X4.2767 Y-1.0838
G1 X4.2676 Y-1.0848
G1 X4.2589 Y-1.0878
G1 X4.2542 Y-1.0908
G1 X4.2499 Y-1.0942
G1 X4.2461 Y-1.0982
G1 X4.2426 Y-1.1025
G1 X4.2388 Y-1.1087
G1 X4.2355 Y-1.1151
G1 X4.233 Y-1.1219
G1 X4.2309 Y-1.1288
G1 X4.2289 Y-1.1386
G1 X4.2274 Y-1.1484
G1 X4.2267 Y-1.1583
G1 X4.2265 Y-1.1683
G1 X4.2274 Y-1.1839
G1 X4.2283 Y-1.1916
G1 X4.2299 Y-1.1991
G1 X4.2322 Y-1.2064
G1 X4.2353 Y-1.2135
G1 X4.2425 Y-1.2273
G1 X4.251 Y-1.2368
G1 X4.2556 Y-1.2409
G1 X4.2606 Y-1.2443
G1 X4.2661 Y-1.2467
G1 X4.272 Y-1.2483
G1 X4.2845 Y-1.2502
G1 X4.293 Y-1.2496
G1 X4.3011 Y-1.2481
G1 X4.3087 Y-1.2451
G1 X4.3161 Y-1.241
G1 X4.323 Y-1.235
G1 X4.3293 Y-1.2284
G1 X4.3348 Y-1.2211
G1 X4.3397 Y-1.2134
G1 X4.3521 Y-1.2216
G1 X4.3452 Y-1.2322
G1 X4.3415 Y-1.2372
G1 X4.3375 Y-1.2419
G1 X4.3331 Y-1.2463
G1 X4.3283 Y-1.2504
G1 X4.3183 Y-1.258
G1 X4.3081 Y-1.2635
G1 X4.3029 Y-1.2659
G1 X4.2976 Y-1.2679
G1 X4.292 Y-1.2693
G1 X4.2864 Y-1.2702
G1 X4.2749 Y-1.2714
G1 X4.2564 Y-1.2696
G1 X4.2475 Y-1.2678
G1 X4.2391 Y-1.2651
G1 X4.2312 Y-1.261
G1 X4.2237 Y-1.2559
G1 X4.2097 Y-1.2438
G1 Z0.2
G0 X4.3693 Y-1.2669
G1 Z0. F10.
G1 X4.3673 Y-1.2002
G1 X4.3807
G1 X4.3835 Y-1.2093
G1 X4.3874 Y-1.218
G1 X4.3929 Y-1.2275
G1 X4.3996 Y-1.2363
G1 X4.4081 Y-1.2443
G1 X4.4178 Y-1.2508
G1 X4.4235 Y-1.2533
G1 X4.4293 Y-1.2552
G1 X4.4354 Y-1.2562
G1 X4.4417 Y-1.2566
G1 X4.4494 Y-1.2562
G1 X4.4569 Y-1.2549
G1 X4.4604 Y-1.2537
G1 X4.4638 Y-1.252
G1 X4.4704 Y-1.2481
G1 X4.4749 Y-1.2429
G1 X4.4768 Y-1.2401
G1 X4.4783 Y-1.2371
G1 X4.4793 Y-1.234
G1 X4.4799 Y-1.2306
G1 X4.4806 Y-1.2237
G1 X4.4798 Y-1.2165
G1 X4.4774 Y-1.2096
G1 X4.4732 Y-1.2039
G1 X4.4679 Y-1.1992
G1 X4.4603 Y-1.1947
G1 X4.4522 Y-1.1911
G1 X4.4313 Y-1.184
G1 X4.4211 Y-1.1806
G1 X4.411 Y-1.1766
G1 X4.401 Y-1.1716
G1 X4.3919 Y-1.1654
G1 X4.3878 Y-1.1617
G1 X4.384 Y-1.1577
G1 X4.3807 Y-1.1533
G1 X4.3778 Y-1.1486
G1 X4.3754 Y-1.143
G1 X4.3736 Y-1.1373
G1 X4.3727 Y-1.1314
G1 X4.3724 Y-1.1253
G1 X4.3738 Y-1.114
G1 X4.375 Y-1.1086
G1 X4.3768 Y-1.1034
G1 X4.3794 Y-1.0986
G1 X4.3825 Y-1.0941
G1 X4.3899 Y-1.0854
G1 X4.4005 Y-1.0781
G1 X4.4059 Y-1.0751
G1 X4.4117 Y-1.0727
G1 X4.4177 Y-1.0711
G1 X4.4239 Y-1.07
G1 X4.4368 Y-1.0691
G1 X4.4484 Y-1.0698
G1 X4.4598 Y-1.072
G1 X4.4696 Y-1.0749
G1 X4.479 Y-1.079
G1 X4.4835 Y-1.0689
G1 X4.4975
G1 X4.5004 Y-1.1305
G1 X4.487
G1 X4.4844 Y-1.1212
G1 X4.4828 Y-1.1166
G1 X4.4808 Y-1.1123
G1 X4.4784 Y-1.1082
G1 X4.4756 Y-1.1043
G1 X4.4694 Y-1.0968
G1 X4.462 Y-1.0913
G1 X4.4582 Y-1.0889
G1 X4.4542 Y-1.087
G1 X4.45 Y-1.0857
G1 X4.4456 Y-1.0848
G1 X4.4364 Y-1.0838
G1 X4.4296 Y-1.0843
G1 X4.4231 Y-1.0855
G1 X4.417 Y-1.0882
G1 X4.4113 Y-1.0919
G1 X4.4075 Y-1.096
G1 X4.4045 Y-1.1005
G1 X4.4029 Y-1.1057
G1 X4.4022 Y-1.1113
G1 X4.4028 Y-1.1188
G1 X4.4052 Y-1.1259
G1 X4.4091 Y-1.1314
G1 X4.4142 Y-1.1358
G1 X4.4214 Y-1.1398
G1 X4.4289 Y-1.1431
G1 X4.4508 Y-1.1508
G1 X4.4631 Y-1.1551
G1 X4.475 Y-1.1603
G1 X4.4848 Y-1.1657
G1 X4.4938 Y-1.1724
G1 X4.5008 Y-1.1798
G1 X4.5036 Y-1.184
G1 X4.5061 Y-1.1885
G1 X4.508 Y-1.1939
G1 X4.5094 Y-1.1995
G1 X4.5101 Y-1.2051
G1 X4.5104 Y-1.2109
G1 X4.5088 Y-1.2234
G1 X4.5074 Y-1.2294
G1 X4.5054 Y-1.235
G1 X4.5025 Y-1.2403
G1 X4.4989 Y-1.2452
G1 X4.4904 Y-1.2545
G1 X4.4786 Y-1.262
G1 X4.4725 Y-1.2652
G1 X4.4661 Y-1.2676
G1 X4.4595 Y-1.2693
G1 X4.4527 Y-1.2704
G1 X4.4387 Y-1.2714
G1 X4.4308 Y-1.271
G1 X4.423 Y-1.27
G1 X4.4154 Y-1.268
G1 X4.4079 Y-1.2654
G1 X4.3974 Y-1.2605
G1 X4.3878 Y-1.2543
G1 X4.3839 Y-1.2669
G1 X4.3693
G1 Z0.2
G0 X4.6401 Y-1.2035
G1 Z0. F10.
G1 X4.644 Y-1.1952
G1 X4.6494 Y-1.1877
G1 X4.6554 Y-1.182
G1 X4.6623 Y-1.1773
G1 X4.6696 Y-1.1734
G1 X4.6773 Y-1.17
G1 X4.7128 Y-1.1578
G1 X4.7311 Y-1.1514
G1 X4.7489 Y-1.1438
G1 Y-1.1245
G1 X4.7478 Y-1.1148
G1 X4.7461 Y-1.1078
G1 X4.7432 Y-1.1012
G1 X4.7384 Y-1.0943
G1 X4.7322 Y-1.0886
G1 X4.7276 Y-1.0861
G1 X4.7226 Y-1.0843
G1 X4.7174 Y-1.0835
G1 X4.7121 Y-1.0833
G1 X4.7037 Y-1.084
G1 X4.6955 Y-1.0863
G1 X4.6897 Y-1.0889
G1 X4.6847 Y-1.0926
G1 X4.6853 Y-1.0984
G1 X4.6865 Y-1.1041
G1 X4.6879 Y-1.111
G1 X4.6884 Y-1.1181
G1 X4.6878 Y-1.1216
G1 X4.6867 Y-1.125
G1 X4.6847 Y-1.1279
G1 X4.6822 Y-1.1305
G1 X4.6784 Y-1.1331
G1 X4.6743 Y-1.135
G1 X4.6698 Y-1.1359
G1 X4.6652 Y-1.1362
G1 X4.661 Y-1.1357
G1 X4.6571 Y-1.1346
G1 X4.6538 Y-1.1323
G1 X4.6509 Y-1.1293
G1 X4.649 Y-1.1256
G1 X4.6475 Y-1.1219
G1 X4.6467 Y-1.1179
G1 X4.6463 Y-1.1138
G1 X4.6469 Y-1.1092
G1 X4.648 Y-1.1047
G1 X4.6501 Y-1.1006
G1 X4.6527 Y-1.0967
G1 X4.6602 Y-1.0887
G1 X4.6691 Y-1.0821
G1 X4.6794 Y-1.0768
G1 X4.6903 Y-1.0728
G1 X4.7024 Y-1.07
G1 X4.7146 Y-1.0691
G1 X4.7289 Y-1.0695
G1 X4.7431 Y-1.0713
G1 X4.7491 Y-1.0728
G1 X4.7548 Y-1.0748
G1 X4.7601 Y-1.0776
G1 X4.7652 Y-1.0809
G1 X4.77 Y-1.0851
G1 X4.7741 Y-1.0896
G1 X4.7775 Y-1.0949
G1 X4.7803 Y-1.1005
G1 X4.7827 Y-1.1082
G1 X4.7844 Y-1.1161
G1 X4.7852 Y-1.1242
G1 X4.7855 Y-1.1323
G1 X4.7849 Y-1.1816
G1 X4.7843 Y-1.2286
G1 X4.7848 Y-1.2348
G1 X4.7869 Y-1.2407
G1 X4.7905 Y-1.245
G1 X4.795 Y-1.2483
G1 X4.7995 Y-1.2498
G1 X4.8043 Y-1.2502
G1 X4.8172 Y-1.2504
G1 Y-1.2629
G1 X4.8011 Y-1.2682
G1 X4.7934 Y-1.2698
G1 X4.7855 Y-1.2702
G1 X4.779 Y-1.2699
G1 X4.7727 Y-1.2687
G1 X4.7669 Y-1.2664
G1 X4.7613 Y-1.2631
G1 X4.757 Y-1.2587
G1 X4.7535 Y-1.2539
G1 X4.7513 Y-1.2484
G1 X4.7497 Y-1.2424
G1 X4.7485
G1 X4.7424 Y-1.2486
G1 X4.7359 Y-1.2544
G1 X4.7288 Y-1.2593
G1 X4.7213 Y-1.2638
G1 X4.713 Y-1.2671
G1 X4.7043 Y-1.2696
G1 X4.6955 Y-1.2708
G1 X4.6864 Y-1.2712
G1 X4.6767 Y-1.2703
G1 X4.6719 Y-1.2695
G1 X4.6673 Y-1.2681
G1 X4.663 Y-1.2662
G1 X4.6589 Y-1.2637
G1 X4.6509 Y-1.258
G1 X4.6449 Y-1.2504
G1 X4.6423 Y-1.2464
G1 X4.6403 Y-1.2422
G1 X4.6389 Y-1.2377
G1 X4.638 Y-1.233
G1 X4.637 Y-1.2234
G1 X4.6377 Y-1.2133
G1 X4.6401 Y-1.2035
G1 Z0.2
G0 X4.8363 Y-1.2664
G1 Z0. F10.
G1 Y-1.2535
G1 X4.8455 Y-1.2527
G1 X4.8497 Y-1.2522
G1 X4.8538 Y-1.2512
G1 X4.8584 Y-1.2489
G1 X4.8619 Y-1.2451
G1 X4.8639 Y-1.2396
G1 X4.8645 Y-1.2337
G1 Y-1.1153
G1 X4.8637 Y-1.1092
G1 X4.8617 Y-1.1035
G1 X4.8583 Y-1.0983
G1 X4.8538 Y-1.0941
G1 X4.8495 Y-1.0921
G1 X4.845 Y-1.0907
G1 X4.8341 Y-1.0893
G1 Y-1.0764
G1 X4.898 Y-1.0722
G1 X4.9007 Y-1.0749
G1 Y-1.1019
G1 X4.9017
G1 X4.9075 Y-1.095
G1 X4.9138 Y-1.0886
G1 X4.9209 Y-1.083
G1 X4.9285 Y-1.078
G1 X4.9349 Y-1.0748
G1 X4.9415 Y-1.0722
G1 X4.9484 Y-1.0707
G1 X4.9556 Y-1.0698
G1 X4.9611 Y-1.0704
G1 X4.9664 Y-1.0717
G1 X4.9711 Y-1.0744
G1 X4.9755 Y-1.0778
G1 X4.9789 Y-1.0826
G1 X4.9815 Y-1.0877
G1 X4.9827 Y-1.0933
G1 X4.9831 Y-1.0992
G1 X4.9828 Y-1.1039
G1 X4.982 Y-1.1084
G1 X4.9804 Y-1.1127
G1 X4.9783 Y-1.1168
G1 X4.9753 Y-1.1202
G1 X4.9719 Y-1.1227
G1 X4.9678 Y-1.124
G1 X4.9633 Y-1.1245
G1 X4.9587 Y-1.1242
G1 X4.9544 Y-1.1233
G1 X4.9504 Y-1.1214
G1 X4.9467 Y-1.1189
G1 X4.9444 Y-1.1161
G1 X4.9425 Y-1.1132
G1 X4.9415 Y-1.1099
G1 X4.9409 Y-1.1064
G1 X4.9416 Y-1.0986
G1 X4.9429 Y-1.0916
G1 X4.9372 Y-1.0925
G1 X4.9317 Y-1.0939
G1 X4.9265 Y-1.0962
G1 X4.9215 Y-1.099
G1 X4.9154 Y-1.1034
G1 X4.9098 Y-1.1083
G1 X4.905 Y-1.1139
G1 X4.9007 Y-1.12
G1 Y-1.2317
G1 X4.9012 Y-1.2375
G1 X4.9033 Y-1.2428
G1 X4.9069 Y-1.2467
G1 X4.9116 Y-1.2492
G1 X4.9178 Y-1.2511
G1 X4.9241 Y-1.2521
G1 X4.9374 Y-1.2535
G1 Y-1.2664
G1 X4.8363
G1 Z0.2
G0 X5.0127 Y-1.1152
G1 Z0. F10.
G1 X5.0175 Y-1.1074
G1 X5.0229 Y-1.0998
G1 X5.0289 Y-1.0932
G1 X5.0354 Y-1.0872
G1 X5.0427 Y-1.0821
G1 X5.0504 Y-1.0775
G1 X5.0593 Y-1.0739
G1 X5.0683 Y-1.0711
G1 X5.0777 Y-1.0696
G1 X5.0872 Y-1.0691
G1 X5.0965 Y-1.0694
G1 X5.1056 Y-1.0705
G1 X5.1145 Y-1.0727
G1 X5.1233 Y-1.0757
G1 X5.1301 Y-1.0792
G1 X5.1365 Y-1.0833
G1 X5.1422 Y-1.0882
G1 X5.1476 Y-1.0938
G1 X5.1518 Y-1.0997
G1 X5.1556 Y-1.1059
G1 X5.1585 Y-1.1126
G1 X5.1609 Y-1.1194
G1 X5.1628 Y-1.1274
G1 X5.1643 Y-1.1353
G1 X5.165 Y-1.1434
G1 X5.1653 Y-1.1516
G1 Y-1.1644
G1 X5.0382
G1 X5.0391 Y-1.1817
G1 X5.0418 Y-1.1987
G1 X5.0439 Y-1.2058
G1 X5.0463 Y-1.2128
G1 X5.0495 Y-1.2194
G1 X5.0532 Y-1.2258
G1 X5.0574 Y-1.2311
G1 X5.062 Y-1.236
G1 X5.0673 Y-1.2401
G1 X5.0731 Y-1.2437
G1 X5.0801 Y-1.2466
G1 X5.0872 Y-1.2487
G1 X5.0947 Y-1.2498
G1 X5.1022 Y-1.2502
G1 X5.1101 Y-1.2497
G1 X5.1178 Y-1.2483
G1 X5.1251 Y-1.2456
G1 X5.1321 Y-1.2421
G1 X5.1394 Y-1.2358
G1 X5.1459 Y-1.2289
G1 X5.1514 Y-1.2211
G1 X5.1563 Y-1.2128
G1 X5.17 Y-1.2212
G1 X5.1635 Y-1.2318
G1 X5.16 Y-1.2368
G1 X5.1561 Y-1.2415
G1 X5.1519 Y-1.2459
G1 X5.1473 Y-1.2501
G1 X5.1377 Y-1.2578
G1 X5.1268 Y-1.2636
G1 X5.1212 Y-1.2661
G1 X5.1155 Y-1.2681
G1 X5.1096 Y-1.2695
G1 X5.1035 Y-1.2704
G1 X5.0911 Y-1.2714
G1 X5.0807 Y-1.2709
G1 X5.0704 Y-1.2696
G1 X5.0604 Y-1.2668
G1 X5.0506 Y-1.2632
G1 X5.0425 Y-1.2588
G1 X5.035 Y-1.2538
G1 X5.0282 Y-1.2477
G1 X5.0219 Y-1.2411
G1 X5.0166 Y-1.2335
G1 X5.0119 Y-1.2255
G1 X5.0081 Y-1.2171
G1 X5.005 Y-1.2084
G1 X5.0027 Y-1.1986
G1 X5.0009 Y-1.1888
G1 X4.9999 Y-1.1789
G1 X4.9995 Y-1.1689
G1 X5. Y-1.1595
G1 X5.001 Y-1.1503
G1 X5.003 Y-1.1412
G1 X5.0054 Y-1.1322
G1 X5.0088 Y-1.1236
G1 X5.0127 Y-1.1152
G1 Z0.2
G0 X5.127 Y-1.148
G1 Z0. F10.
G1 X5.1265 Y-1.1364
G1 X5.1251 Y-1.1248
G1 X5.1229 Y-1.1142
G1 X5.1192 Y-1.104
G1 X5.1167 Y-1.0999
G1 X5.1139 Y-1.096
G1 X5.1106 Y-1.0926
G1 X5.1069 Y-1.0895
G1 X5.1022 Y-1.0869
G1 X5.0974 Y-1.0851
G1 X5.0922 Y-1.0842
G1 X5.0869 Y-1.0838
G1 X5.077 Y-1.0853
G1 X5.0723 Y-1.0864
G1 X5.0679 Y-1.0882
G1 X5.0638 Y-1.0907
G1 X5.06 Y-1.0938
G1 X5.0529 Y-1.1008
G1 X5.0466 Y-1.1118
G1 X5.0439 Y-1.1174
G1 X5.0418 Y-1.1232
G1 X5.0404 Y-1.1292
G1 X5.0394 Y-1.1354
G1 X5.0382 Y-1.148
G1 X5.127
G1 Z0.2
G0 X5.2826 Y-1.0893
G1 Z0. F10.
G1 Y-1.0764
G1 X5.3504 Y-1.0722
G1 X5.3531 Y-1.0749
G1 Y-1.2313
G1 X5.3536 Y-1.2372
G1 X5.3557 Y-1.2426
G1 X5.3592 Y-1.2466
G1 X5.3639 Y-1.2492
G1 X5.3722 Y-1.2521
G1 X5.3767 Y-1.253
G1 X5.3813 Y-1.2535
G1 Y-1.2664
G1 X5.2887
G1 Y-1.2535
G1 X5.2979 Y-1.2527
G1 X5.3021 Y-1.2522
G1 X5.3062 Y-1.2512
G1 X5.3108 Y-1.2489
G1 X5.3143 Y-1.2451
G1 X5.3163 Y-1.2396
G1 X5.3169 Y-1.2337
G1 Y-1.1153
G1 X5.3162 Y-1.1095
G1 X5.3141 Y-1.104
G1 X5.3106 Y-1.0992
G1 X5.3062 Y-1.0953
G1 X5.301 Y-1.0929
G1 X5.2955 Y-1.0913
G1 X5.2891 Y-1.09
G1 X5.2826 Y-1.0893
G1 Z0.2
G0 X5.405 Y-1.2664
G1 Z0. F10.
G1 Y-1.2535
G1 X5.4143 Y-1.2527
G1 X5.4184 Y-1.2522
G1 X5.4225 Y-1.2512
G1 X5.4271 Y-1.2489
G1 X5.4306 Y-1.2451
G1 X5.4327 Y-1.2396
G1 X5.4332 Y-1.2337
G1 Y-1.1153
G1 X5.4326 Y-1.1091
G1 X5.4304 Y-1.1032
G1 X5.427 Y-1.0982
G1 X5.4225 Y-1.0941
G1 X5.4183 Y-1.0921
G1 X5.4138 Y-1.0907
G1 X5.4029 Y-1.0893
G1 Y-1.0764
G1 X5.4667 Y-1.0722
G1 X5.4694 Y-1.0749
G1 Y-1.1019
G1 X5.4704
G1 X5.482 Y-1.0907
G1 X5.4885 Y-1.0852
G1 X5.4953 Y-1.0801
G1 X5.5036 Y-1.0757
G1 X5.5124 Y-1.0724
G1 X5.5235 Y-1.0699
G1 X5.5348 Y-1.0692
G1 X5.5465 Y-1.0702
G1 X5.5521 Y-1.0713
G1 X5.5574 Y-1.0729
G1 X5.5624 Y-1.0755
G1 X5.567 Y-1.0787
G1 X5.5757 Y-1.0865
G1 X5.5818 Y-1.0971
G1 X5.5843 Y-1.1026
G1 X5.5863 Y-1.1082
G1 X5.5876 Y-1.1141
G1 X5.5883 Y-1.12
G1 X5.5891 Y-1.1323
G1 Y-1.2321
G1 X5.5896 Y-1.2378
G1 X5.5914 Y-1.2431
G1 X5.5948 Y-1.247
G1 X5.5994 Y-1.2496
G1 X5.6075 Y-1.2523
G1 X5.6169 Y-1.2535
G1 Y-1.2664
G1 X5.5231
G1 Y-1.2535
G1 X5.533 Y-1.2527
G1 X5.5374 Y-1.2522
G1 X5.5418 Y-1.2512
G1 X5.5464 Y-1.2489
G1 X5.5499 Y-1.245
G1 X5.552 Y-1.2395
G1 X5.5525 Y-1.2337
G1 Y-1.135
G1 X5.552 Y-1.1265
G1 X5.5506 Y-1.1183
G1 X5.5491 Y-1.1144
G1 X5.5473 Y-1.1107
G1 X5.5428 Y-1.1035
G1 X5.5378 Y-1.0989
G1 X5.5352 Y-1.0969
G1 X5.5324 Y-1.0953
G1 X5.5293 Y-1.0941
G1 X5.5261 Y-1.0933
G1 X5.5193 Y-1.0924
G1 X5.5097 Y-1.0932
G1 X5.5004 Y-1.0956
G1 X5.4926 Y-1.0991
G1 X5.4852 Y-1.1035
G1 X5.4797 Y-1.1079
G1 X5.475 Y-1.1131
G1 X5.4694 Y-1.1214
G1 Y-1.2317
G1 X5.47 Y-1.2374
G1 X5.4721 Y-1.2426
G1 X5.4757 Y-1.2465
G1 X5.4803 Y-1.2492
G1 X5.4846 Y-1.251
G1 X5.4892 Y-1.2521
G1 X5.499 Y-1.2535
G1 Y-1.2664
G1 X5.405
G1 Z0.2
G0 X5.664 Y-1.2438
G1 Z0. F10.
G1 X5.6534 Y-1.2268
G1 X5.649 Y-1.218
G1 X5.6455 Y-1.2089
G1 X5.6432 Y-1.1995
G1 X5.6418 Y-1.1897
G1 X5.6405 Y-1.1696
G1 X5.6409 Y-1.16
G1 X5.642 Y-1.1504
G1 X5.6441 Y-1.1411
G1 X5.6468 Y-1.1318
G1 X5.6504 Y-1.1232
G1 X5.6545 Y-1.115
G1 X5.6596 Y-1.1072
G1 X5.6652 Y-1.0998
G1 X5.6715 Y-1.0932
G1 X5.6784 Y-1.0871
G1 X5.6859 Y-1.082
G1 X5.694 Y-1.0775
G1 X5.7031 Y-1.0739
G1 X5.7124 Y-1.0711
G1 X5.7219 Y-1.0697
G1 X5.7317 Y-1.0691
G1 X5.744 Y-1.0698
G1 X5.75 Y-1.0707
G1 X5.7558 Y-1.072
G1 X5.7615 Y-1.074
G1 X5.767 Y-1.0765
G1 X5.7776 Y-1.0826
G1 X5.7852 Y-1.0903
G1 X5.7884 Y-1.0944
G1 X5.791 Y-1.0988
G1 X5.7928 Y-1.1036
G1 X5.794 Y-1.1087
G1 X5.7954 Y-1.1194
G1 X5.795 Y-1.124
G1 X5.7942 Y-1.1284
G1 X5.7927 Y-1.1326
G1 X5.7907 Y-1.1367
G1 X5.7876 Y-1.14
G1 X5.7841 Y-1.1425
G1 X5.7798 Y-1.1437
G1 X5.7753 Y-1.1442
G1 X5.7705 Y-1.1438
G1 X5.7658 Y-1.1429
G1 X5.7615 Y-1.141
G1 X5.7575 Y-1.1383
G1 X5.755 Y-1.1355
G1 X5.7529 Y-1.1325
G1 X5.7518 Y-1.1291
G1 X5.7512 Y-1.1253
G1 X5.7518 Y-1.1163
G1 X5.7535 Y-1.1074
G1 X5.7551 Y-1.1007
G1 X5.7562 Y-1.0939
G1 X5.7542 Y-1.0912
G1 X5.7519 Y-1.0889
G1 X5.749 Y-1.0872
G1 X5.7458 Y-1.0859
G1 X5.7385 Y-1.0843
G1 X5.731 Y-1.0838
G1 X5.7219 Y-1.0848
G1 X5.7132 Y-1.0878
G1 X5.7085 Y-1.0908
G1 X5.7042 Y-1.0942
G1 X5.7004 Y-1.0982
G1 X5.6969 Y-1.1025
G1 X5.6931 Y-1.1087
G1 X5.6898 Y-1.1151
G1 X5.6873 Y-1.1219
G1 X5.6852 Y-1.1288
G1 X5.6832 Y-1.1386
G1 X5.6817 Y-1.1484
G1 X5.681 Y-1.1583
G1 X5.6807 Y-1.1683
G1 X5.6817 Y-1.1839
G1 X5.6826 Y-1.1916
G1 X5.6842 Y-1.1991
G1 X5.6865 Y-1.2064
G1 X5.6895 Y-1.2135
G1 X5.6968 Y-1.2273
G1 X5.7053 Y-1.2368
G1 X5.7098 Y-1.2409
G1 X5.7148 Y-1.2443
G1 X5.7204 Y-1.2467
G1 X5.7263 Y-1.2483
G1 X5.7388 Y-1.2502
G1 X5.7472 Y-1.2496
G1 X5.7554 Y-1.2481
G1 X5.763 Y-1.2451
G1 X5.7704 Y-1.241
G1 X5.7773 Y-1.235
G1 X5.7836 Y-1.2284
G1 X5.7891 Y-1.2211
G1 X5.794 Y-1.2134
G1 X5.8064 Y-1.2216
G1 X5.7995 Y-1.2322
G1 X5.7958 Y-1.2372
G1 X5.7918 Y-1.2419
G1 X5.7874 Y-1.2463
G1 X5.7826 Y-1.2504
G1 X5.7726 Y-1.258
G1 X5.7624 Y-1.2635
G1 X5.7572 Y-1.2659
G1 X5.7519 Y-1.2679
G1 X5.7463 Y-1.2693
G1 X5.7407 Y-1.2702
G1 X5.7292 Y-1.2714
G1 X5.7107 Y-1.2696
G1 X5.7018 Y-1.2678
G1 X5.6933 Y-1.2651
G1 X5.6855 Y-1.261
G1 X5.678 Y-1.2559
G1 X5.664 Y-1.2438
G1 Z0.2
G0 X5.8214 Y-1.2664
G1 Z0. F10.
G1 Y-1.2535
G1 X5.8307 Y-1.2527
G1 X5.8348 Y-1.2522
G1 X5.8389 Y-1.2512
G1 X5.8435 Y-1.2489
G1 X5.847 Y-1.2451
G1 X5.8491 Y-1.2396
G1 X5.8496 Y-1.2337
G1 Y-1.1153
G1 X5.8489 Y-1.1092
G1 X5.8468 Y-1.1035
G1 X5.8435 Y-1.0983
G1 X5.8389 Y-1.0941
G1 X5.8347 Y-1.0921
G1 X5.8302 Y-1.0907
G1 X5.8193 Y-1.0893
G1 Y-1.0764
G1 X5.8831 Y-1.0722
G1 X5.8858 Y-1.0749
G1 Y-1.1019
G1 X5.8868
G1 X5.8927 Y-1.095
G1 X5.899 Y-1.0886
G1 X5.9061 Y-1.083
G1 X5.9137 Y-1.078
G1 X5.9201 Y-1.0748
G1 X5.9267 Y-1.0722
G1 X5.9336 Y-1.0707
G1 X5.9407 Y-1.0698
G1 X5.9463 Y-1.0704
G1 X5.9515 Y-1.0717
G1 X5.9563 Y-1.0744
G1 X5.9606 Y-1.0778
G1 X5.9641 Y-1.0826
G1 X5.9666 Y-1.0877
G1 X5.9678 Y-1.0933
G1 X5.9683 Y-1.0992
G1 X5.968 Y-1.1039
G1 X5.9672 Y-1.1084
G1 X5.9656 Y-1.1127
G1 X5.9635 Y-1.1168
G1 X5.9605 Y-1.1202
G1 X5.957 Y-1.1227
G1 X5.953 Y-1.124
G1 X5.9485 Y-1.1245
G1 X5.9439 Y-1.1242
G1 X5.9396 Y-1.1233
G1 X5.9356 Y-1.1214
G1 X5.9319 Y-1.1189
G1 X5.9295 Y-1.1161
G1 X5.9277 Y-1.1132
G1 X5.9266 Y-1.1099
G1 X5.9261 Y-1.1064
G1 X5.9268 Y-1.0986
G1 X5.928 Y-1.0916
G1 X5.9224 Y-1.0925
G1 X5.9169 Y-1.0939
G1 X5.9117 Y-1.0962
G1 X5.9067 Y-1.099
G1 X5.9006 Y-1.1034
G1 X5.895 Y-1.1083
G1 X5.8902 Y-1.1139
G1 X5.8858 Y-1.12
G1 Y-1.2317
G1 X5.8864 Y-1.2375
G1 X5.8885 Y-1.2428
G1 X5.892 Y-1.2467
G1 X5.8967 Y-1.2492
G1 X5.9029 Y-1.2511
G1 X5.9093 Y-1.2521
G1 X5.9226 Y-1.2535
G1 Y-1.2664
G1 X5.8214
G1 Z0.2
G0 X5.9979 Y-1.1152
G1 Z0. F10.
G1 X6.0027 Y-1.1074
G1 X6.008 Y-1.0998
G1 X6.0141 Y-1.0932
G1 X6.0206 Y-1.0872
G1 X6.0278 Y-1.0821
G1 X6.0356 Y-1.0775
G1 X6.0444 Y-1.0739
G1 X6.0535 Y-1.0711
G1 X6.0628 Y-1.0696
G1 X6.0724 Y-1.0691
G1 X6.0817 Y-1.0694
G1 X6.0908 Y-1.0705
G1 X6.0997 Y-1.0727
G1 X6.1084 Y-1.0757
G1 X6.1152 Y-1.0792
G1 X6.1217 Y-1.0833
G1 X6.1274 Y-1.0882
G1 X6.1328 Y-1.0938
G1 X6.137 Y-1.0997
G1 X6.1407 Y-1.1059
G1 X6.1436 Y-1.1126
G1 X6.1461 Y-1.1194
G1 X6.148 Y-1.1274
G1 X6.1494 Y-1.1353
G1 X6.1502 Y-1.1434
G1 X6.1504 Y-1.1516
G1 Y-1.1644
G1 X6.0234
G1 X6.0242 Y-1.1817
G1 X6.027 Y-1.1987
G1 X6.029 Y-1.2058
G1 X6.0315 Y-1.2128
G1 X6.0347 Y-1.2194
G1 X6.0384 Y-1.2258
G1 X6.0426 Y-1.2311
G1 X6.0472 Y-1.236
G1 X6.0525 Y-1.2401
G1 X6.0582 Y-1.2437
G1 X6.0652 Y-1.2466
G1 X6.0724 Y-1.2487
G1 X6.0798 Y-1.2498
G1 X6.0874 Y-1.2502
G1 X6.0953 Y-1.2497
G1 X6.103 Y-1.2483
G1 X6.1102 Y-1.2456
G1 X6.1173 Y-1.2421
G1 X6.1246 Y-1.2358
G1 X6.1311 Y-1.2289
G1 X6.1366 Y-1.2211
G1 X6.1415 Y-1.2128
G1 X6.1551 Y-1.2212
G1 X6.1486 Y-1.2318
G1 X6.1451 Y-1.2368
G1 X6.1413 Y-1.2415
G1 X6.137 Y-1.2459
G1 X6.1325 Y-1.2501
G1 X6.1228 Y-1.2578
G1 X6.1119 Y-1.2636
G1 X6.1063 Y-1.2661
G1 X6.1006 Y-1.2681
G1 X6.0947 Y-1.2695
G1 X6.0887 Y-1.2704
G1 X6.0763 Y-1.2714
G1 X6.0659 Y-1.2709
G1 X6.0556 Y-1.2696
G1 X6.0456 Y-1.2668
G1 X6.0357 Y-1.2632
G1 X6.0277 Y-1.2588
G1 X6.0201 Y-1.2538
G1 X6.0133 Y-1.2477
G1 X6.007 Y-1.2411
G1 X6.0017 Y-1.2335
G1 X5.997 Y-1.2255
G1 X5.9933 Y-1.2171
G1 X5.9902 Y-1.2084
G1 X5.9878 Y-1.1986
G1 X5.986 Y-1.1888
G1 X5.9851 Y-1.1789
G1 X5.9846 Y-1.1689
G1 X5.9851 Y-1.1595
G1 X5.9861 Y-1.1503
G1 X5.9881 Y-1.1412
G1 X5.9906 Y-1.1322
G1 X5.994 Y-1.1236
G1 X5.9979 Y-1.1152
G1 Z0.2
G0 X6.184 Y-1.2117
G1 Z0. F10.
G1 X6.1811 Y-1.2015
G1 X6.1789 Y-1.1911
G1 X6.1778 Y-1.1806
G1 X6.1773 Y-1.17
G1 X6.1778 Y-1.1599
G1 X6.1791 Y-1.15
G1 X6.1814 Y-1.1402
G1 X6.1845 Y-1.1305
G1 X6.1884 Y-1.1217
G1 X6.1929 Y-1.1133
G1 X6.1983 Y-1.1054
G1 X6.2043 Y-1.0978
G1 X6.2108 Y-1.0916
G1 X6.2178 Y-1.0859
G1 X6.2254 Y-1.0812
G1 X6.2333 Y-1.077
G1 X6.2419 Y-1.0738
G1 X6.2505 Y-1.0712
G1 X6.2594 Y-1.0699
G1 X6.2684 Y-1.0692
G1 X6.2817 Y-1.0701
G1 X6.2948 Y-1.0726
G1 X6.3061 Y-1.0763
G1 X6.317 Y-1.0813
G1 Y-1.0144
G1 X6.3164 Y-1.0068
G1 X6.3143 Y-0.9995
G1 X6.3112 Y-0.9939
G1 X6.3067 Y-0.9893
G1 X6.2996 Y-0.9859
G1 X6.292 Y-0.9839
G1 X6.282 Y-0.9824
G1 X6.272 Y-0.9815
G1 Y-0.9694
G1 X6.3507 Y-0.9651
G1 X6.3536 Y-0.9681
G1 Y-1.2267
G1 X6.3542 Y-1.2326
G1 X6.3562 Y-1.2382
G1 X6.3596 Y-1.2428
G1 X6.3639 Y-1.2463
G1 X6.3691 Y-1.2484
G1 X6.3746 Y-1.2492
G1 X6.3874 Y-1.25
G1 Y-1.2629
G1 X6.3203 Y-1.2671
G1 X6.3174 Y-1.2644
G1 Y-1.2465
G1 X6.3158 Y-1.2461
G1 X6.3102 Y-1.2516
G1 X6.3043 Y-1.2566
G1 X6.2978 Y-1.2608
G1 X6.2909 Y-1.2646
G1 X6.2835 Y-1.2676
G1 X6.276 Y-1.27
G1 X6.2682 Y-1.2712
G1 X6.2603 Y-1.2718
G1 X6.2521 Y-1.2712
G1 X6.2441 Y-1.2699
G1 X6.2363 Y-1.2676
G1 X6.2287 Y-1.2645
G1 X6.2213 Y-1.2603
G1 X6.2143 Y-1.2557
G1 X6.2081 Y-1.2501
G1 X6.2022 Y-1.244
G1 X6.1966 Y-1.2365
G1 X6.1916 Y-1.2287
G1 X6.1875 Y-1.2203
G1 X6.184 Y-1.2117
G1 Z0.2
G0 X6.4065 Y-1.2664
G1 Z0. F10.
G1 Y-1.2535
G1 X6.4157 Y-1.2527
G1 X6.4199 Y-1.2522
G1 X6.424 Y-1.2512
G1 X6.4286 Y-1.2489
G1 X6.4321 Y-1.2451
G1 X6.4342 Y-1.2396
G1 X6.4347 Y-1.2337
G1 Y-1.1153
G1 X6.4341 Y-1.1095
G1 X6.4319 Y-1.104
G1 X6.4285 Y-1.0992
G1 X6.424 Y-1.0953
G1 X6.4188 Y-1.0929
G1 X6.4133 Y-1.0913
G1 X6.4069 Y-1.09
G1 X6.4005 Y-1.0893
G1 Y-1.0764
G1 X6.4682 Y-1.0722
G1 X6.4709 Y-1.0749
G1 Y-1.2313
G1 X6.4715 Y-1.2372
G1 X6.4735 Y-1.2426
G1 X6.477 Y-1.2466
G1 X6.4817 Y-1.2492
G1 X6.49 Y-1.2521
G1 X6.4946 Y-1.253
G1 X6.4991 Y-1.2535
G1 Y-1.2664
G1 X6.4065
G1 Z0.2
G0 X6.541 Y-1.2739
G1 Z0. F10.
G1 X6.5419 Y-1.2566
G1 X6.5423 Y-1.2393
G1 X6.5427 Y-1.2001
G1 Y-1.0101
G1 X6.5419 Y-1.0033
G1 X6.5397 Y-0.9969
G1 X6.5366 Y-0.9915
G1 X6.532 Y-0.9873
G1 X6.5261 Y-0.9848
G1 X6.5196 Y-0.9835
G1 X6.5057 Y-0.9819
G1 Y-0.9694
G1 X6.5762 Y-0.9651
G1 X6.5789 Y-0.9681
G1 Y-1.0945
G1 X6.5803 Y-1.0949
G1 X6.5862 Y-1.0892
G1 X6.5925 Y-1.084
G1 X6.5994 Y-1.0796
G1 X6.6067 Y-1.0757
G1 X6.6134 Y-1.073
G1 X6.6204 Y-1.071
G1 X6.6275 Y-1.0698
G1 X6.6348 Y-1.0692
G1 X6.6518 Y-1.0715
G1 X6.6599 Y-1.0735
G1 X6.6676 Y-1.0764
G1 X6.6747 Y-1.0805
G1 X6.6813 Y-1.0856
G1 X6.6939 Y-1.0973
G1 X6.7044 Y-1.114
G1 X6.7089 Y-1.1226
G1 X6.7124 Y-1.1315
G1 X6.7147 Y-1.1409
G1 X6.7162 Y-1.1505
G1 X6.7176 Y-1.1702
G1 X6.7157 Y-1.1902
G1 X6.7139 Y-1.1999
G1 X6.7111 Y-1.2092
G1 X6.7071 Y-1.2181
G1 X6.7021 Y-1.2265
G1 X6.6904 Y-1.2428
G1 X6.6767 Y-1.2549
G1 X6.6696 Y-1.2601
G1 X6.6619 Y-1.2644
G1 X6.6538 Y-1.2675
G1 X6.6452 Y-1.2696
G1 X6.6272 Y-1.2722
G1 X6.6193 Y-1.2718
G1 X6.6115 Y-1.271
G1 X6.6038 Y-1.2694
G1 X6.5961 Y-1.2673
G1 X6.5814 Y-1.2617
G1 X6.5674 Y-1.2543
G1 X6.553 Y-1.2767
G1 X6.541 Y-1.2739
G1 Z0.2
G0 X6.677 Y-1.1716
G1 Z0. F10.
G1 X6.6762 Y-1.1568
G1 X6.6739 Y-1.1422
G1 X6.6722 Y-1.1354
G1 X6.6701 Y-1.1288
G1 X6.6673 Y-1.1224
G1 X6.6641 Y-1.1161
G1 X6.6606 Y-1.1109
G1 X6.6565 Y-1.106
G1 X6.6519 Y-1.1017
G1 X6.6468 Y-1.0978
G1 X6.6407 Y-1.0948
G1 X6.6345 Y-1.0924
G1 X6.6279 Y-1.0913
G1 X6.6211 Y-1.0908
G1 X6.615 Y-1.0912
G1 X6.6089 Y-1.0921
G1 X6.603 Y-1.0938
G1 X6.5973 Y-1.0962
G1 X6.5922 Y-1.0992
G1 X6.5874 Y-1.1026
G1 X6.5789 Y-1.1107
G1 Y-1.2224
G1 X6.5809 Y-1.228
G1 X6.5835 Y-1.2333
G1 X6.5876 Y-1.2396
G1 X6.5927 Y-1.2451
G1 X6.599 Y-1.2501
G1 X6.6059 Y-1.254
G1 X6.6104 Y-1.2555
G1 X6.6148 Y-1.2567
G1 X6.6241 Y-1.2574
G1 X6.6358 Y-1.2553
G1 X6.6413 Y-1.2536
G1 X6.6463 Y-1.2512
G1 X6.6508 Y-1.2478
G1 X6.6549 Y-1.2438
G1 X6.6624 Y-1.2344
G1 X6.6692 Y-1.2195
G1 X6.672 Y-1.2119
G1 X6.6741 Y-1.2041
G1 X6.6755 Y-1.1961
G1 X6.6763 Y-1.188
G1 X6.677 Y-1.1716
G1 Z0.2
G0 X6.8074 Y-1.1436
G1 Z0. F10.
G1 Y-1.2313
G1 X6.8079 Y-1.2371
G1 X6.8099 Y-1.2425
G1 X6.8134 Y-1.2466
G1 X6.818 Y-1.2492
G1 X6.8222 Y-1.2509
G1 X6.8265 Y-1.2521
G1 X6.8359 Y-1.2535
G1 Y-1.2664
G1 X6.7424
G1 Y-1.2535
G1 X6.7519 Y-1.2526
G1 X6.7603 Y-1.2512
G1 X6.7649 Y-1.2489
G1 X6.7684 Y-1.245
G1 X6.7706 Y-1.2395
G1 X6.7711 Y-1.2336
G1 Y-1.0113
G1 X6.7704 Y-1.0045
G1 X6.7681 Y-0.9981
G1 X6.7648 Y-0.9928
G1 X6.7603 Y-0.9885
G1 X6.754 Y-0.9858
G1 X6.7474 Y-0.9842
G1 X6.74 Y-0.9828
G1 X6.7324 Y-0.9819
G1 Y-0.9694
G1 X6.8046 Y-0.9651
G1 X6.8074 Y-0.9681
G1 Y-1.1436
G1 Z0.2
G0 X6.8568 Y-1.3086
G1 Z0. F10.
G1 X6.8604 Y-1.3075
G1 X6.8642 Y-1.307
G1 X6.8696 Y-1.3075
G1 X6.8748 Y-1.3093
G1 X6.8791 Y-1.312
G1 X6.8828 Y-1.3153
G1 X6.8861 Y-1.3191
G1 X6.8891 Y-1.3232
G1 X6.8943 Y-1.3315
G1 X6.9013 Y-1.3257
G1 X6.9075 Y-1.3192
G1 X6.9128 Y-1.3119
G1 X6.9176 Y-1.3042
G1 X6.9283 Y-1.2852
G1 X6.9329 Y-1.2754
G1 X6.9371 Y-1.2653
G1 X6.9037 Y-1.1829
G1 X6.8723 Y-1.1076
G1 X6.87 Y-1.1034
G1 X6.8673 Y-1.0996
G1 X6.8638 Y-1.0964
G1 X6.8599 Y-1.0937
G1 X6.8514 Y-1.0897
G1 X6.8424 Y-1.0873
G1 Y-1.0745
G1 X6.93
G1 Y-1.0881
G1 X6.9229 Y-1.0889
G1 X6.9159 Y-1.0906
G1 X6.9111 Y-1.0921
G1 X6.9092 Y-1.0936
G1 X6.9078 Y-1.0957
G1 X6.9087 Y-1.0996
G1 X6.9107 Y-1.1052
G1 X6.9218 Y-1.1331
G1 X6.9332 Y-1.1607
G1 X6.9452 Y-1.1897
G1 X6.9567 Y-1.2188
G1 X6.9749 Y-1.1757
G1 X6.9857 Y-1.1495
G1 X6.996 Y-1.1231
G1 X7. Y-1.1129
G1 X7.0017 Y-1.1074
G1 X7.0025 Y-1.1017
G1 X7.0013 Y-1.0985
G1 X6.9994 Y-1.0959
G1 X6.9967 Y-1.0939
G1 X6.9936 Y-1.0923
G1 X6.9854 Y-1.0889
G1 X6.9768 Y-1.087
G1 Y-1.0745
G1 X7.048
G1 Y-1.0866
G1 X7.0401 Y-1.0892
G1 X7.0327 Y-1.0933
G1 X7.0282 Y-1.0966
G1 X7.0243 Y-1.1003
G1 X7.0211 Y-1.1047
G1 X7.0185 Y-1.1095
G1 X6.9976 Y-1.1584
G1 X6.9773 Y-1.2074
G1 X6.9639 Y-1.24
G1 X6.95 Y-1.2724
G1 X6.9397 Y-1.294
G1 X6.9281 Y-1.3149
G1 X6.9194 Y-1.3275
G1 X6.9093 Y-1.3389
G1 X6.9017 Y-1.3452
G1 X6.8931 Y-1.3499
G1 X6.8857 Y-1.352
G1 X6.878 Y-1.3527
G1 X6.8716 Y-1.3524
G1 X6.8654 Y-1.3512
G1 X6.8596 Y-1.3488
G1 X6.8541 Y-1.3455
G1 X6.8507 Y-1.3421
G1 X6.8479 Y-1.3383
G1 X6.8463 Y-1.3338
G1 X6.8455 Y-1.329
G1 X6.8458 Y-1.3247
G1 X6.8467 Y-1.3206
G1 X6.8485 Y-1.3168
G1 X6.8508 Y-1.3131
G1 X6.8537 Y-1.3106
G1 X6.8568 Y-1.3086
G1 Z0.2
G0 X6.8819 Y-1.5257
G1 Z0. F10.
G1 X6.8912 Y-1.5239
G1 X6.9106 Y-1.5218
G1 X6.9292 Y-1.5238
G1 X6.9381 Y-1.5256
G1 X6.9467 Y-1.5284
G1 X6.9548 Y-1.5323
G1 X6.9625 Y-1.5373
G1 X6.9771 Y-1.549
G1 X6.9887 Y-1.5652
G1 X6.9936 Y-1.5736
G1 X6.9974 Y-1.5824
G1 X7. Y-1.5917
G1 X7.0017 Y-1.6014
G1 X7.0033 Y-1.6213
G1 X7.0028 Y-1.6314
G1 X7.0017 Y-1.6414
G1 X6.9996 Y-1.6513
G1 X6.9969 Y-1.6611
G1 X6.9934 Y-1.67
G1 X6.9894 Y-1.6786
G1 X6.9843 Y-1.6866
G1 X6.9785 Y-1.6942
G1 X6.9717 Y-1.7013
G1 X6.9643 Y-1.7076
G1 X6.9561 Y-1.7128
G1 X6.9474 Y-1.7174
G1 X6.9377 Y-1.7207
G1 X6.9279 Y-1.7232
G1 X6.9178 Y-1.7245
G1 X6.9076 Y-1.725
G1 X6.8987 Y-1.7244
G1 X6.8899 Y-1.7233
G1 X6.8813 Y-1.721
G1 X6.8728 Y-1.7181
G1 X6.8647 Y-1.7141
G1 X6.857 Y-1.7095
G1 X6.85 Y-1.704
G1 X6.8434 Y-1.6979
G1 X6.8372 Y-1.6907
G1 X6.8317 Y-1.683
G1 X6.8272 Y-1.6748
G1 X6.8232 Y-1.6661
G1 X6.8199 Y-1.6558
G1 X6.8174 Y-1.6454
G1 X6.8162 Y-1.6348
G1 X6.8157 Y-1.624
G1 X6.8174 Y-1.6038
G1 X6.8191 Y-1.5941
G1 X6.8217 Y-1.5846
G1 X6.8256 Y-1.5756
G1 X6.8304 Y-1.567
G1 X6.8419 Y-1.5504
G1 X6.8569 Y-1.5381
G1 X6.8647 Y-1.5328
G1 X6.8731 Y-1.5286
G1 X6.8819 Y-1.5257
G1 Z0.2
G0 X6.963 Y-1.6217
G1 Z0. F10.
G1 X6.9622 Y-1.6062
G1 X6.9601 Y-1.5908
G1 X6.9567 Y-1.5767
G1 X6.9542 Y-1.5699
G1 X6.9513 Y-1.5633
G1 X6.948 Y-1.5578
G1 X6.9443 Y-1.5526
G1 X6.9398 Y-1.5481
G1 X6.9349 Y-1.5439
G1 X6.9292 Y-1.5407
G1 X6.9231 Y-1.5383
G1 X6.9168 Y-1.5371
G1 X6.9102 Y-1.5366
G1 X6.9034 Y-1.5371
G1 X6.8968 Y-1.5383
G1 X6.8906 Y-1.5408
G1 X6.8846 Y-1.544
G1 X6.8794 Y-1.5483
G1 X6.8747 Y-1.5531
G1 X6.8707 Y-1.5585
G1 X6.8673 Y-1.5643
G1 X6.8644 Y-1.5708
G1 X6.8619 Y-1.5774
G1 X6.86 Y-1.5843
G1 X6.8585 Y-1.5913
G1 X6.8567 Y-1.6059
G1 X6.856 Y-1.6207
G1 X6.8567 Y-1.638
G1 X6.859 Y-1.6552
G1 X6.8607 Y-1.6625
G1 X6.8628 Y-1.6697
G1 X6.8655 Y-1.6767
G1 X6.8687 Y-1.6835
G1 X6.872 Y-1.6891
G1 X6.8758 Y-1.6943
G1 X6.8804 Y-1.6989
G1 X6.8853 Y-1.7031
G1 X6.8911 Y-1.7062
G1 X6.8972 Y-1.7086
G1 X6.9036 Y-1.7097
G1 X6.9102 Y-1.7102
G1 X6.9221 Y-1.7081
G1 X6.9276 Y-1.7064
G1 X6.9327 Y-1.7039
G1 X6.9372 Y-1.7004
G1 X6.9413 Y-1.6962
G1 X6.9488 Y-1.6866
G1 X6.9554 Y-1.6711
G1 X6.9582 Y-1.6632
G1 X6.9602 Y-1.6552
G1 X6.9616 Y-1.6469
G1 X6.9624 Y-1.6386
G1 X6.963 Y-1.6217
G1 Z0.2
G0 X7.0591 Y-1.5681
G1 Z0. F10.
G1 X7.0584 Y-1.562
G1 X7.0563 Y-1.5563
G1 X7.053 Y-1.5511
G1 X7.0484 Y-1.5469
G1 X7.0442 Y-1.5448
G1 X7.0397 Y-1.5435
G1 X7.0288 Y-1.5421
G1 Y-1.5292
G1 X7.0926 Y-1.5249
G1 X7.0953 Y-1.5277
G1 Y-1.5547
G1 X7.0963
G1 X7.1022 Y-1.5478
G1 X7.1085 Y-1.5414
G1 X7.1156 Y-1.5358
G1 X7.1231 Y-1.5308
G1 X7.1296 Y-1.5276
G1 X7.1362 Y-1.525
G1 X7.1431 Y-1.5235
G1 X7.1502 Y-1.5226
G1 X7.1558 Y-1.5232
G1 X7.161 Y-1.5245
G1 X7.1657 Y-1.5271
G1 X7.1702 Y-1.5306
G1 X7.1735 Y-1.5354
G1 X7.1761 Y-1.5405
G1 X7.1774 Y-1.5461
G1 X7.1778 Y-1.552
G1 X7.1775 Y-1.5566
G1 X7.1767 Y-1.5612
G1 X7.175 Y-1.5654
G1 X7.173 Y-1.5696
G1 X7.17 Y-1.5729
G1 X7.1665 Y-1.5755
G1 X7.1624 Y-1.5768
G1 X7.158 Y-1.5773
G1 X7.1534 Y-1.577
G1 X7.1491 Y-1.5761
G1 X7.1451 Y-1.5742
G1 X7.1413 Y-1.5716
G1 X7.139 Y-1.5689
G1 X7.1372 Y-1.566
G1 X7.1361 Y-1.5627
G1 X7.1356 Y-1.5592
G1 X7.1363 Y-1.5514
G1 X7.1376 Y-1.5444
G1 X7.1319 Y-1.5452
G1 X7.1264 Y-1.5467
G1 X7.1212 Y-1.549
G1 X7.1161 Y-1.5518
G1 X7.1101 Y-1.5562
G1 X7.1045 Y-1.5611
G1 X7.0997 Y-1.5667
G1 X7.0953 Y-1.5728
G1 Y-1.6845
G1 X7.0959 Y-1.6902
G1 X7.098 Y-1.6956
G1 X7.1015 Y-1.6995
G1 X7.1062 Y-1.702
G1 X7.1124 Y-1.7039
G1 X7.1188 Y-1.7049
G1 X7.1321 Y-1.7063
G1 Y-1.7191
G1 X7.0309
G1 Y-1.7063
G1 X7.0402 Y-1.7055
G1 X7.0443 Y-1.705
G1 X7.0484 Y-1.704
G1 X7.053 Y-1.7017
G1 X7.0565 Y-1.6978
G1 X7.0586 Y-1.6923
G1 X7.0591 Y-1.6865
G1 Y-1.5681
G1 Z0.2
G0 X7.1827 Y-1.5467
G1 Z0. F10.
G1 Y-1.5281
G1 X7.2181
G1 Y-1.4683
G1 X7.2535
G1 Y-1.5281
G1 X7.3086
G1 Y-1.5467
G1 X7.2539
G1 Y-1.654
G1 X7.2541 Y-1.664
G1 X7.2548 Y-1.6741
G1 X7.2562 Y-1.6814
G1 X7.259 Y-1.6882
G1 X7.263 Y-1.6932
G1 X7.2683 Y-1.6968
G1 X7.2765 Y-1.6991
G1 X7.285 Y-1.6997
G1 X7.2993 Y-1.6988
G1 X7.3061 Y-1.698
G1 X7.3127 Y-1.6966
G1 Y-1.7108
G1 X7.3008 Y-1.7155
G1 X7.2887 Y-1.7196
G1 X7.2819 Y-1.7213
G1 X7.2751 Y-1.7225
G1 X7.2611 Y-1.7232
G1 X7.2516 Y-1.7227
G1 X7.247 Y-1.7221
G1 X7.2426 Y-1.721
G1 X7.2385 Y-1.7192
G1 X7.2346 Y-1.7168
G1 X7.2272 Y-1.7111
G1 X7.2226 Y-1.7031
G1 X7.2207 Y-1.699
G1 X7.2193 Y-1.6948
G1 X7.2178 Y-1.6859
G1 X7.2173 Y-1.6767
G1 Y-1.5467
G1 X7.1827
G1 Z0.2
G0 X7.3458 Y-1.702
G1 Z0. F10.
G1 X7.3452 Y-1.6968
G1 X7.3458 Y-1.6915
G1 X7.3472 Y-1.6866
G1 X7.3497 Y-1.6821
G1 X7.353 Y-1.678
G1 X7.3572 Y-1.6747
G1 X7.3616 Y-1.6721
G1 X7.3666 Y-1.6707
G1 X7.3718 Y-1.6701
G1 X7.3771 Y-1.6707
G1 X7.382 Y-1.6721
G1 X7.3865 Y-1.6747
G1 X7.3906 Y-1.678
G1 X7.3939 Y-1.6821
G1 X7.3965 Y-1.6866
G1 X7.3978 Y-1.6915
G1 X7.3985 Y-1.6968
G1 X7.3979 Y-1.702
G1 X7.3965 Y-1.7069
G1 X7.3939 Y-1.7113
G1 X7.3906 Y-1.7153
G1 X7.3865 Y-1.7186
G1 X7.382 Y-1.7211
G1 X7.377 Y-1.7224
G1 X7.3718 Y-1.723
G1 X7.3666 Y-1.7224
G1 X7.3617 Y-1.7211
G1 X7.3572 Y-1.7186
G1 X7.353 Y-1.7153
G1 X7.3497 Y-1.7113
G1 X7.3472 Y-1.7069
G1 X7.3458 Y-1.702
G1 Z0.2
G0 X7.5793 Y-1.7053
G1 Z0. F10.
G1 X7.5959 Y-1.7038
G1 X7.6037 Y-1.7028
G1 X7.6113 Y-1.7009
G1 X7.6167 Y-1.698
G1 X7.6208 Y-1.6936
G1 X7.6232 Y-1.6874
G1 X7.6238 Y-1.6808
G1 Y-1.4582
G1 X7.6125
G1 X7.5975 Y-1.4585
G1 X7.5804 Y-1.4598
G1 X7.5767 Y-1.4609
G1 X7.5731 Y-1.4625
G1 X7.57 Y-1.4648
G1 X7.5671 Y-1.4675
G1 X7.5603 Y-1.475
G1 X7.5543 Y-1.4831
G1 X7.5488 Y-1.4922
G1 X7.544 Y-1.5017
G1 X7.5406 Y-1.5097
G1 X7.5378 Y-1.5179
G1 X7.5242
G1 Y-1.443
G1 X7.7649
G1 Y-1.5179
G1 X7.7515
G1 X7.7487 Y-1.5095
G1 X7.7451 Y-1.5013
G1 X7.7403 Y-1.492
G1 X7.7349 Y-1.4831
G1 X7.7289 Y-1.4749
G1 X7.7221 Y-1.4675
G1 X7.7191 Y-1.4648
G1 X7.716 Y-1.4626
G1 X7.7125 Y-1.4609
G1 X7.7087 Y-1.4598
G1 X7.6935 Y-1.4586
G1 X7.6766 Y-1.4582
G1 X7.6652
G1 Y-1.6791
G1 X7.6659 Y-1.6851
G1 X7.668 Y-1.6908
G1 X7.6698 Y-1.6935
G1 X7.672 Y-1.6958
G1 X7.6746 Y-1.6976
G1 X7.6775 Y-1.6991
G1 X7.6848 Y-1.7012
G1 X7.6922 Y-1.7028
G1 X7.7009 Y-1.7044
G1 X7.7096 Y-1.7053
G1 Y-1.7191
G1 X7.5793
G1 Y-1.7053
G1 Z0.2
G0 X7.8427 Y-1.4878
G1 Z0. F10.
G1 Y-1.5547
G1 X7.8435
G1 X7.8552 Y-1.5433
G1 X7.8619 Y-1.5378
G1 X7.869 Y-1.5329
G1 X7.8775 Y-1.5285
G1 X7.8865 Y-1.5251
G1 X7.8976 Y-1.5227
G1 X7.909 Y-1.522
G1 X7.9202 Y-1.523
G1 X7.9256 Y-1.524
G1 X7.9307 Y-1.5256
G1 X7.9355 Y-1.528
G1 X7.94 Y-1.5311
G1 X7.9485 Y-1.5383
G1 X7.9549 Y-1.5491
G1 X7.9576 Y-1.5546
G1 X7.9596 Y-1.5604
G1 X7.9609 Y-1.5664
G1 X7.9617 Y-1.5725
G1 X7.9624 Y-1.5851
G1 Y-1.6849
G1 X7.9629 Y-1.6906
G1 X7.9648 Y-1.6959
G1 X7.9683 Y-1.6998
G1 X7.973 Y-1.7024
G1 X7.9811 Y-1.705
G1 X7.9906 Y-1.7063
G1 Y-1.7191
G1 X7.8962
G1 Y-1.7063
G1 X7.9061 Y-1.7055
G1 X7.9107 Y-1.705
G1 X7.9151 Y-1.704
G1 X7.9197 Y-1.7017
G1 X7.9231 Y-1.6978
G1 X7.9252 Y-1.6923
G1 X7.9258 Y-1.6865
G1 Y-1.5878
G1 X7.9253 Y-1.5793
G1 X7.9238 Y-1.5711
G1 X7.9224 Y-1.5672
G1 X7.9206 Y-1.5635
G1 X7.9161 Y-1.5563
G1 X7.9111 Y-1.5517
G1 X7.9085 Y-1.5497
G1 X7.9056 Y-1.5481
G1 X7.9026 Y-1.5469
G1 X7.8994 Y-1.5461
G1 X7.8926 Y-1.5452
G1 X7.8831 Y-1.546
G1 X7.8738 Y-1.5484
G1 X7.8658 Y-1.5519
G1 X7.8583 Y-1.5563
G1 X7.8529 Y-1.5608
G1 X7.8481 Y-1.566
G1 X7.8427 Y-1.5742
G1 Y-1.6845
G1 X7.8433 Y-1.6901
G1 X7.8453 Y-1.6954
G1 X7.8489 Y-1.6993
G1 X7.8534 Y-1.702
G1 X7.8578 Y-1.7037
G1 X7.8622 Y-1.7049
G1 X7.8723 Y-1.7063
G1 Y-1.7191
G1 X7.7783
G1 Y-1.7063
G1 X7.7876 Y-1.7054
G1 X7.7957 Y-1.704
G1 X7.8003 Y-1.7016
G1 X7.8038 Y-1.6978
G1 X7.8059 Y-1.6923
G1 X7.8065 Y-1.6864
G1 Y-1.4629
G1 X7.8057 Y-1.4561
G1 X7.8035 Y-1.4497
G1 X7.8002 Y-1.4441
G1 X7.7956 Y-1.4397
G1 X7.7896 Y-1.4372
G1 X7.7833 Y-1.4361
G1 X7.769 Y-1.4347
G1 Y-1.4222
G1 X7.84 Y-1.4179
G1 X7.8427 Y-1.4209
G1 Y-1.4878
G1 Z0.2
G0 X8.0206 Y-1.6992
G1 Z0. F10.
G1 X8.0185 Y-1.695
G1 X8.0172 Y-1.6905
G1 X8.0163 Y-1.6858
G1 X8.0153 Y-1.6761
G1 X8.016 Y-1.6661
G1 X8.0184 Y-1.6563
G1 X8.0223 Y-1.648
G1 X8.0278 Y-1.6405
G1 X8.0337 Y-1.6348
G1 X8.0406 Y-1.6301
G1 X8.048 Y-1.6262
G1 X8.0556 Y-1.6228
G1 X8.0911 Y-1.6106
G1 X8.1094 Y-1.6042
G1 X8.1272 Y-1.5966
G1 Y-1.5773
G1 X8.1261 Y-1.5676
G1 X8.1244 Y-1.5606
G1 X8.1215 Y-1.5539
G1 X8.1167 Y-1.5471
G1 X8.1106 Y-1.5414
G1 X8.1058 Y-1.5389
G1 X8.1009 Y-1.5371
G1 X8.0957 Y-1.5363
G1 X8.0904 Y-1.536
G1 X8.0819 Y-1.5368
G1 X8.0738 Y-1.5391
G1 X8.068 Y-1.5417
G1 X8.063 Y-1.5454
G1 X8.0636 Y-1.5512
G1 X8.0648 Y-1.5569
G1 X8.0661 Y-1.5638
G1 X8.0667 Y-1.5709
G1 X8.0661 Y-1.5744
G1 X8.065 Y-1.5777
G1 X8.063 Y-1.5806
G1 X8.0606 Y-1.5833
G1 X8.0567 Y-1.5859
G1 X8.0526 Y-1.5878
G1 X8.0481 Y-1.5887
G1 X8.0435 Y-1.589
G1 X8.0393 Y-1.5885
G1 X8.0354 Y-1.5874
G1 X8.0321 Y-1.5851
G1 X8.0292 Y-1.5821
G1 X8.0273 Y-1.5784
G1 X8.0257 Y-1.5747
G1 X8.025 Y-1.5707
G1 X8.0246 Y-1.5666
G1 X8.0252 Y-1.5619
G1 X8.0263 Y-1.5575
G1 X8.0284 Y-1.5534
G1 X8.0309 Y-1.5495
G1 X8.0385 Y-1.5415
G1 X8.0474 Y-1.5349
G1 X8.0577 Y-1.5296
G1 X8.0686 Y-1.5256
G1 X8.0806 Y-1.5228
G1 X8.093 Y-1.5218
G1 X8.1072 Y-1.5223
G1 X8.1215 Y-1.5241
G1 X8.1274 Y-1.5256
G1 X8.133 Y-1.5276
G1 X8.1384 Y-1.5304
G1 X8.1435 Y-1.5337
G1 X8.1482 Y-1.5379
G1 X8.1524 Y-1.5424
G1 X8.1558 Y-1.5476
G1 X8.1586 Y-1.5533
G1 X8.161 Y-1.561
G1 X8.1627 Y-1.5689
G1 X8.1635 Y-1.5769
G1 X8.1638 Y-1.5851
G1 X8.1632 Y-1.6344
G1 X8.1626 Y-1.6814
G1 X8.1631 Y-1.6876
G1 X8.1652 Y-1.6935
G1 X8.1687 Y-1.6978
G1 X8.1733 Y-1.701
G1 X8.1778 Y-1.7026
G1 X8.1825 Y-1.703
G1 X8.1955 Y-1.7032
G1 Y-1.7156
G1 X8.1794 Y-1.721
G1 X8.1717 Y-1.7226
G1 X8.1638 Y-1.723
G1 X8.1573 Y-1.7226
G1 X8.151 Y-1.7215
G1 X8.1452 Y-1.7191
G1 X8.1395 Y-1.7159
G1 X8.1353 Y-1.7115
G1 X8.1318 Y-1.7067
G1 X8.1295 Y-1.7011
G1 X8.128 Y-1.6952
G1 X8.1268
G1 X8.1207 Y-1.7014
G1 X8.1142 Y-1.7072
G1 X8.1071 Y-1.7121
G1 X8.0996 Y-1.7166
G1 X8.0912 Y-1.7199
G1 X8.0826 Y-1.7224
G1 X8.0737 Y-1.7236
G1 X8.0647 Y-1.724
G1 X8.0549 Y-1.7231
G1 X8.0502 Y-1.7222
G1 X8.0456 Y-1.7209
G1 X8.0413 Y-1.719
G1 X8.0372 Y-1.7165
G1 X8.0292 Y-1.7108
G1 X8.0232 Y-1.7032
G1 X8.0206 Y-1.6992
G1 Z0.2
G0 X8.2145 Y-1.7191
G1 Z0. F10.
G1 Y-1.7063
G1 X8.2238 Y-1.7055
G1 X8.228 Y-1.705
G1 X8.232 Y-1.704
G1 X8.2367 Y-1.7017
G1 X8.2401 Y-1.6978
G1 X8.2422 Y-1.6923
G1 X8.2428 Y-1.6865
G1 Y-1.5681
G1 X8.2421 Y-1.5619
G1 X8.2399 Y-1.556
G1 X8.2366 Y-1.551
G1 X8.232 Y-1.5469
G1 X8.2278 Y-1.5448
G1 X8.2233 Y-1.5435
G1 X8.2124 Y-1.5421
G1 Y-1.5292
G1 X8.2762 Y-1.5249
G1 X8.2789 Y-1.5277
G1 Y-1.5547
G1 X8.2799
G1 X8.2916 Y-1.5435
G1 X8.298 Y-1.538
G1 X8.3048 Y-1.5329
G1 X8.3131 Y-1.5285
G1 X8.322 Y-1.5251
G1 X8.333 Y-1.5227
G1 X8.3443 Y-1.522
G1 X8.356 Y-1.523
G1 X8.3617 Y-1.524
G1 X8.367 Y-1.5257
G1 X8.3719 Y-1.5282
G1 X8.3766 Y-1.5315
G1 X8.3853 Y-1.5393
G1 X8.3913 Y-1.5499
G1 X8.3939 Y-1.5554
G1 X8.3958 Y-1.561
G1 X8.3971 Y-1.5668
G1 X8.3979 Y-1.5728
G1 X8.3986 Y-1.5851
G1 Y-1.6849
G1 X8.3991 Y-1.6905
G1 X8.4009 Y-1.6959
G1 X8.4044 Y-1.6998
G1 X8.4089 Y-1.7024
G1 X8.417 Y-1.7051
G1 X8.4265 Y-1.7063
G1 Y-1.7191
G1 X8.3326
G1 Y-1.7063
G1 X8.3425 Y-1.7055
G1 X8.347 Y-1.705
G1 X8.3513 Y-1.704
G1 X8.3559 Y-1.7017
G1 X8.3594 Y-1.6978
G1 X8.3615 Y-1.6923
G1 X8.362 Y-1.6865
G1 Y-1.5878
G1 X8.3615 Y-1.5793
G1 X8.3601 Y-1.5711
G1 X8.3587 Y-1.5672
G1 X8.3568 Y-1.5635
G1 X8.3524 Y-1.5563
G1 X8.3474 Y-1.5517
G1 X8.3447 Y-1.5497
G1 X8.3419 Y-1.5481
G1 X8.3389 Y-1.5469
G1 X8.3356 Y-1.5461
G1 X8.3289 Y-1.5452
G1 X8.3193 Y-1.5459
G1 X8.31 Y-1.5484
G1 X8.3021 Y-1.5519
G1 X8.2948 Y-1.5563
G1 X8.2893 Y-1.5607
G1 X8.2845 Y-1.5659
G1 X8.2789 Y-1.5742
G1 Y-1.6845
G1 X8.2795 Y-1.6902
G1 X8.2817 Y-1.6954
G1 X8.2852 Y-1.6993
G1 X8.2898 Y-1.702
G1 X8.2942 Y-1.7037
G1 X8.2987 Y-1.7049
G1 X8.3085 Y-1.7063
G1 Y-1.7191
G1 X8.2145
G1 Z0.2
G0 X8.4465
G1 Z0. F10.
G1 Y-1.7063
G1 X8.4557 Y-1.7054
G1 X8.4639 Y-1.704
G1 X8.4685 Y-1.7016
G1 X8.472 Y-1.6978
G1 X8.4741 Y-1.6923
G1 X8.4747 Y-1.6864
G1 Y-1.4633
G1 X8.4739 Y-1.4564
G1 X8.4717 Y-1.4498
G1 X8.4684 Y-1.4444
G1 X8.4638 Y-1.4401
G1 X8.4577 Y-1.4373
G1 X8.4511 Y-1.436
G1 X8.4371 Y-1.4347
G1 Y-1.4222
G1 X8.5081 Y-1.4179
G1 X8.5109 Y-1.4209
G1 Y-1.6238
G1 X8.5437 Y-1.5913
G1 X8.5588 Y-1.576
G1 X8.5734 Y-1.5602
G1 X8.5768 Y-1.5556
G1 X8.578 Y-1.5535
G1 X8.5787 Y-1.5511
G1 X8.5776 Y-1.5481
G1 X8.5758 Y-1.5458
G1 X8.5732 Y-1.5443
G1 X8.5702 Y-1.5433
G1 X8.5621 Y-1.5412
G1 X8.5539 Y-1.5397
G1 Y-1.5273
G1 X8.6383
G1 Y-1.5394
G1 X8.6235 Y-1.5446
G1 X8.6094 Y-1.5515
G1 X8.5996 Y-1.5576
G1 X8.5903 Y-1.5646
G1 X8.5835 Y-1.5708
G1 X8.577 Y-1.5773
G1 X8.5531 Y-1.6002
G1 X8.5713 Y-1.6235
G1 X8.589 Y-1.6473
G1 X8.6181 Y-1.687
G1 X8.625 Y-1.6954
G1 X8.6291 Y-1.6989
G1 X8.6335 Y-1.702
G1 X8.6383 Y-1.7038
G1 X8.6432 Y-1.7051
G1 X8.6533 Y-1.7063
G1 Y-1.7191
G1 X8.5954
G1 X8.5629 Y-1.6721
G1 X8.5453 Y-1.6474
G1 X8.5269 Y-1.6233
G1 X8.5109 Y-1.6382
G1 Y-1.6837
G1 X8.5114 Y-1.6897
G1 X8.5134 Y-1.6953
G1 X8.5169 Y-1.6994
G1 X8.5216 Y-1.702
G1 X8.526 Y-1.7037
G1 X8.5306 Y-1.7049
G1 X8.5405 Y-1.7063
G1 Y-1.7191
G1 X8.4465
G1 Z0.2
G0 X8.6656 Y-1.7197
G1 Z0. F10.
G1 X8.6636 Y-1.653
G1 X8.677
G1 X8.6798 Y-1.6621
G1 X8.6837 Y-1.6708
G1 X8.6892 Y-1.6803
G1 X8.6959 Y-1.6891
G1 X8.7044 Y-1.6971
G1 X8.7141 Y-1.7036
G1 X8.7198 Y-1.7061
G1 X8.7257 Y-1.708
G1 X8.7317 Y-1.709
G1 X8.738 Y-1.7094
G1 X8.7457 Y-1.709
G1 X8.7531 Y-1.7077
G1 X8.7567 Y-1.7065
G1 X8.7601 Y-1.7048
G1 X8.7668 Y-1.7009
G1 X8.7713 Y-1.6956
G1 X8.7731 Y-1.6929
G1 X8.7746 Y-1.6899
G1 X8.7756 Y-1.6868
G1 X8.7763 Y-1.6834
G1 X8.7769 Y-1.6765
G1 X8.7761 Y-1.6693
G1 X8.7737 Y-1.6624
G1 X8.7696 Y-1.6567
G1 X8.7643 Y-1.652
G1 X8.7566 Y-1.6475
G1 X8.7485 Y-1.6439
G1 X8.7276 Y-1.6368
G1 X8.7174 Y-1.6334
G1 X8.7073 Y-1.6293
G1 X8.6974 Y-1.6244
G1 X8.6881 Y-1.6182
G1 X8.6841 Y-1.6145
G1 X8.6803 Y-1.6105
G1 X8.6771 Y-1.6061
G1 X8.6741 Y-1.6014
G1 X8.6717 Y-1.5958
G1 X8.6699 Y-1.5901
G1 X8.6691 Y-1.5841
G1 X8.6687 Y-1.5781
G1 X8.6701 Y-1.5668
G1 X8.6713 Y-1.5614
G1 X8.6731 Y-1.5562
G1 X8.6757 Y-1.5514
G1 X8.6789 Y-1.5469
G1 X8.6862 Y-1.5382
G1 X8.6968 Y-1.5309
G1 X8.7023 Y-1.5278
G1 X8.708 Y-1.5255
G1 X8.714 Y-1.5238
G1 X8.7203 Y-1.5228
G1 X8.7331 Y-1.5218
G1 X8.7447 Y-1.5226
G1 X8.7561 Y-1.5248
G1 X8.766 Y-1.5276
G1 X8.7753 Y-1.5318
G1 X8.7798 Y-1.5216
G1 X8.7938
G1 X8.7967 Y-1.5833
G1 X8.7833
G1 X8.7807 Y-1.5739
G1 X8.7791 Y-1.5694
G1 X8.7771 Y-1.5651
G1 X8.7747 Y-1.561
G1 X8.7719 Y-1.5571
G1 X8.7657 Y-1.5496
G1 X8.7583 Y-1.5441
G1 X8.7545 Y-1.5417
G1 X8.7505 Y-1.5398
G1 X8.7463 Y-1.5385
G1 X8.7419 Y-1.5376
G1 X8.7327 Y-1.5366
G1 X8.7259 Y-1.5371
G1 X8.7194 Y-1.5383
G1 X8.7133 Y-1.541
G1 X8.7076 Y-1.5447
G1 X8.7038 Y-1.5488
G1 X8.7008 Y-1.5533
G1 X8.6993 Y-1.5585
G1 X8.6985 Y-1.5641
G1 X8.6991 Y-1.5715
G1 X8.7015 Y-1.5787
G1 X8.7054 Y-1.5842
G1 X8.7105 Y-1.5886
G1 X8.7177 Y-1.5926
G1 X8.7252 Y-1.5959
G1 X8.7471 Y-1.6036
G1 X8.7594 Y-1.6079
G1 X8.7713 Y-1.6131
G1 X8.7811 Y-1.6185
G1 X8.7901 Y-1.6252
G1 X8.7971 Y-1.6326
G1 X8.7999 Y-1.6368
G1 X8.8024 Y-1.6413
G1 X8.8043 Y-1.6467
G1 X8.8057 Y-1.6523
G1 X8.8064 Y-1.6579
G1 X8.8067 Y-1.6637
G1 X8.8051 Y-1.6762
G1 X8.8038 Y-1.6821
G1 X8.8017 Y-1.6878
G1 X8.7988 Y-1.693
G1 X8.7952 Y-1.698
G1 X8.7867 Y-1.7073
G1 X8.7749 Y-1.7148
G1 X8.7688 Y-1.7179
G1 X8.7625 Y-1.7204
G1 X8.7559 Y-1.7221
G1 X8.7491 Y-1.7231
G1 X8.735 Y-1.7242
G1 X8.7271 Y-1.7238
G1 X8.7193 Y-1.7228
G1 X8.7117 Y-1.7208
G1 X8.7042 Y-1.7182
G1 X8.6937 Y-1.7133
G1 X8.6841 Y-1.7071
G1 X8.6802 Y-1.7197
G1 X8.6656
G1 Z0.2
G0 X8.9203 Y-1.5467
G1 Z0. F10.
G1 Y-1.5281
G1 X8.9557
G1 Y-1.4683
G1 X8.9911
G1 Y-1.5281
G1 X9.0462
G1 Y-1.5467
G1 X8.9915
G1 Y-1.654
G1 X8.9917 Y-1.664
G1 X8.9924 Y-1.6741
G1 X8.9938 Y-1.6814
G1 X8.9966 Y-1.6882
G1 X9.0006 Y-1.6932
G1 X9.0059 Y-1.6968
G1 X9.0141 Y-1.6991
G1 X9.0226 Y-1.6997
G1 X9.0369 Y-1.6988
G1 X9.0437 Y-1.698
G1 X9.0503 Y-1.6966
G1 Y-1.7108
G1 X9.0384 Y-1.7155
G1 X9.0263 Y-1.7196
G1 X9.0195 Y-1.7213
G1 X9.0127 Y-1.7225
G1 X8.9987 Y-1.7232
G1 X8.9892 Y-1.7227
G1 X8.9846 Y-1.7221
G1 X8.9802 Y-1.721
G1 X8.9761 Y-1.7192
G1 X8.9722 Y-1.7168
G1 X8.9648 Y-1.7111
G1 X8.9602 Y-1.7031
G1 X8.9583 Y-1.699
G1 X8.9569 Y-1.6948
G1 X8.9554 Y-1.6859
G1 X8.9549 Y-1.6767
G1 Y-1.5467
G1 X8.9203
G1 Z0.2
G0 X9.085 Y-1.683
G1 Z0. F10.
G1 X9.0804 Y-1.6748
G1 X9.0765 Y-1.6661
G1 X9.0731 Y-1.6558
G1 X9.0707 Y-1.6454
G1 X9.0694 Y-1.6348
G1 X9.0689 Y-1.624
G1 X9.0707 Y-1.6038
G1 X9.0723 Y-1.5941
G1 X9.075 Y-1.5846
G1 X9.0788 Y-1.5756
G1 X9.0837 Y-1.567
G1 X9.0952 Y-1.5504
G1 X9.1101 Y-1.5381
G1 X9.118 Y-1.5328
G1 X9.1263 Y-1.5286
G1 X9.1352 Y-1.5257
G1 X9.1444 Y-1.5239
G1 X9.1638 Y-1.5218
G1 X9.1824 Y-1.5238
G1 X9.1914 Y-1.5256
G1 X9.2 Y-1.5284
G1 X9.208 Y-1.5323
G1 X9.2157 Y-1.5373
G1 X9.2303 Y-1.549
G1 X9.2419 Y-1.5652
G1 X9.2468 Y-1.5736
G1 X9.2506 Y-1.5824
G1 X9.2532 Y-1.5917
G1 X9.2549 Y-1.6014
G1 X9.2565 Y-1.6213
G1 X9.256 Y-1.6314
G1 X9.2549 Y-1.6414
G1 X9.2528 Y-1.6513
G1 X9.2501 Y-1.6611
G1 X9.2467 Y-1.67
G1 X9.2426 Y-1.6786
G1 X9.2375 Y-1.6866
G1 X9.2318 Y-1.6942
G1 X9.2249 Y-1.7013
G1 X9.2175 Y-1.7076
G1 X9.2093 Y-1.7128
G1 X9.2006 Y-1.7174
G1 X9.1909 Y-1.7207
G1 X9.1811 Y-1.7232
G1 X9.1711 Y-1.7245
G1 X9.1609 Y-1.725
G1 X9.1519 Y-1.7244
G1 X9.1431 Y-1.7233
G1 X9.1345 Y-1.721
G1 X9.126 Y-1.7181
G1 X9.118 Y-1.7141
G1 X9.1103 Y-1.7095
G1 X9.1033 Y-1.704
G1 X9.0966 Y-1.6979
G1 X9.0905 Y-1.6907
G1 X9.085 Y-1.683
G1 Z0.2
G0 X9.2163 Y-1.6217
G1 Z0. F10.
G1 X9.2155 Y-1.6062
G1 X9.2133 Y-1.5908
G1 X9.21 Y-1.5767
G1 X9.2074 Y-1.5699
G1 X9.2045 Y-1.5633
G1 X9.2013 Y-1.5578
G1 X9.1975 Y-1.5526
G1 X9.1931 Y-1.5481
G1 X9.1882 Y-1.5439
G1 X9.1824 Y-1.5407
G1 X9.1764 Y-1.5383
G1 X9.17 Y-1.5371
G1 X9.1634 Y-1.5366
G1 X9.1566 Y-1.5371
G1 X9.15 Y-1.5383
G1 X9.1438 Y-1.5408
G1 X9.1378 Y-1.544
G1 X9.1326 Y-1.5483
G1 X9.1279 Y-1.5531
G1 X9.124 Y-1.5585
G1 X9.1205 Y-1.5643
G1 X9.1176 Y-1.5708
G1 X9.1151 Y-1.5774
G1 X9.1132 Y-1.5843
G1 X9.1118 Y-1.5913
G1 X9.1099 Y-1.6059
G1 X9.1092 Y-1.6207
G1 X9.1099 Y-1.638
G1 X9.1122 Y-1.6552
G1 X9.1139 Y-1.6625
G1 X9.116 Y-1.6697
G1 X9.1187 Y-1.6767
G1 X9.1219 Y-1.6835
G1 X9.1253 Y-1.6891
G1 X9.1291 Y-1.6943
G1 X9.1336 Y-1.6989
G1 X9.1385 Y-1.7031
G1 X9.1444 Y-1.7062
G1 X9.1504 Y-1.7086
G1 X9.1568 Y-1.7097
G1 X9.1634 Y-1.7102
G1 X9.1753 Y-1.7081
G1 X9.1809 Y-1.7064
G1 X9.1859 Y-1.7039
G1 X9.1905 Y-1.7004
G1 X9.1946 Y-1.6962
G1 X9.202 Y-1.6866
G1 X9.2087 Y-1.6711
G1 X9.2114 Y-1.6632
G1 X9.2135 Y-1.6552
G1 X9.2148 Y-1.6469
G1 X9.2156 Y-1.6386
G1 X9.2163 Y-1.6217
G1 Z0.2
G0 X9.1222 Y-1.8958
G1 Z0. F10.
G1 Y-1.9096
G1 X9.1161 Y-1.9104
G1 X9.11 Y-1.9119
G1 X9.1039 Y-1.9139
G1 X9.0981 Y-1.9168
G1 X9.0922 Y-1.9215
G1 X9.0875 Y-1.9273
G1 X9.0833 Y-1.9348
G1 X9.0796 Y-1.9425
G1 X9.0599 Y-1.9906
G1 X9.0406 Y-2.0389
G1 X8.9869 Y-2.1754
G1 X8.9707
G1 X8.9166 Y-2.0303
G1 X8.8812 Y-1.9359
G1 X8.8785 Y-1.9303
G1 X8.875 Y-1.9253
G1 X8.8701 Y-1.9206
G1 X8.8646 Y-1.9166
G1 X8.859 Y-1.9137
G1 X8.853 Y-1.9117
G1 X8.8471 Y-1.9104
G1 X8.8411 Y-1.9096
G1 Y-1.8958
G1 X8.9554
G1 Y-1.9096
G1 X8.943 Y-1.9106
G1 X8.9307 Y-1.9126
G1 X8.9272 Y-1.9133
G1 X8.9243 Y-1.9147
G1 X8.9221 Y-1.917
G1 X8.9207 Y-1.9201
G1 X8.9215 Y-1.9252
G1 X8.9228 Y-1.9299
G1 X8.9462 Y-1.9921
G1 X8.9921 Y-2.1149
G1 X9.0262 Y-2.0298
G1 X9.0393 Y-1.9961
G1 X9.052 Y-1.9624
G1 X9.0563 Y-1.9503
G1 X9.0595 Y-1.9378
G1 X9.0603 Y-1.9323
G1 X9.0606 Y-1.9268
G1 X9.0603 Y-1.9245
G1 X9.0596 Y-1.9225
G1 X9.0566 Y-1.9193
G1 X9.0515 Y-1.9163
G1 X9.046 Y-1.9141
G1 X9.0396 Y-1.9124
G1 X9.033 Y-1.9112
G1 X9.0196 Y-1.9096
G1 Y-1.8958
G1 X9.1222
G1 Z0.2
G0 X8.8271 Y-1.9891
G1 Z0. F10.
G1 X8.829 Y-1.9964
G1 X8.8305 Y-2.0039
G1 X8.8322 Y-2.0189
G1 X8.8329 Y-2.0342
G1 X8.8322 Y-2.0494
G1 X8.8305 Y-2.0645
G1 X8.8289 Y-2.072
G1 X8.827 Y-2.0793
G1 X8.8224 Y-2.0939
G1 X8.8167 Y-2.1064
G1 X8.8102 Y-2.1183
G1 X8.8063 Y-2.1239
G1 X8.8022 Y-2.1292
G1 X8.7932 Y-2.1396
G1 X8.7837 Y-2.1483
G1 X8.7737 Y-2.1562
G1 X8.7627 Y-2.1627
G1 X8.7512 Y-2.1684
G1 X8.7388 Y-2.1727
G1 X8.7262 Y-2.1761
G1 X8.7133 Y-2.1778
G1 X8.7002 Y-2.1785
G1 X8.6865 Y-2.1778
G1 X8.673 Y-2.1759
G1 X8.6664 Y-2.1744
G1 X8.6599 Y-2.1724
G1 X8.647 Y-2.1677
G1 X8.6354 Y-2.1617
G1 X8.6244 Y-2.1549
G1 X8.6144 Y-2.1467
G1 X8.6051 Y-2.1377
G1 X8.5966 Y-2.1272
G1 X8.5891 Y-2.1161
G1 X8.5829 Y-2.1042
G1 X8.5775 Y-2.0919
G1 X8.5732 Y-2.0777
G1 X8.5699 Y-2.0635
G1 X8.5682 Y-2.0489
G1 X8.5675 Y-2.0342
G1 X8.5682 Y-2.0188
G1 X8.5699 Y-2.0036
G1 X8.5715 Y-1.9962
G1 X8.5734 Y-1.9888
G1 X8.578 Y-1.9741
G1 X8.5837 Y-1.9618
G1 X8.5903 Y-1.9499
G1 X8.5982 Y-1.9389
G1 X8.607 Y-1.9285
G1 X8.6166 Y-1.9197
G1 X8.6268 Y-1.9117
G1 X8.6379 Y-1.9051
G1 X8.6495 Y-1.8993
G1 X8.6619 Y-1.895
G1 X8.6744 Y-1.8917
G1 X8.6872 Y-1.89
G1 X8.7002 Y-1.8892
G1 X8.7135 Y-1.89
G1 X8.7266 Y-1.8917
G1 X8.7394 Y-1.8951
G1 X8.752 Y-1.8995
G1 X8.7635 Y-1.9053
G1 X8.7745 Y-1.9118
G1 X8.7845 Y-1.9198
G1 X8.794 Y-1.9285
G1 X8.8028 Y-1.939
G1 X8.8106 Y-1.9501
G1 X8.817 Y-1.962
G1 X8.8226 Y-1.9745
G1 X8.8271 Y-1.9891
G1 Z0.2
G0 X8.7641 Y-1.9415
G1 Z0. F10.
G1 X8.7584 Y-1.934
G1 X8.7522 Y-1.927
G1 X8.745 Y-1.9211
G1 X8.7372 Y-1.9158
G1 X8.7284 Y-1.9118
G1 X8.7193 Y-1.9087
G1 X8.7099 Y-1.9072
G1 X8.7002 Y-1.9065
G1 X8.6897 Y-1.9072
G1 X8.6846 Y-1.9079
G1 X8.6796 Y-1.9089
G1 X8.6746 Y-1.9105
G1 X8.6699 Y-1.9125
G1 X8.6605 Y-1.9172
G1 X8.6527 Y-1.9233
G1 X8.6455 Y-1.9299
G1 X8.6394 Y-1.9376
G1 X8.6339 Y-1.9458
G1 X8.6291 Y-1.9554
G1 X8.625 Y-1.9653
G1 X8.6219 Y-1.9755
G1 X8.6194 Y-1.9859
G1 X8.6173 Y-1.9979
G1 X8.6157 Y-2.0099
G1 X8.615 Y-2.022
G1 X8.6146 Y-2.0342
G1 X8.6149 Y-2.0469
G1 X8.6157 Y-2.0596
G1 X8.6174 Y-2.0722
G1 X8.6196 Y-2.0848
G1 X8.6225 Y-2.0952
G1 X8.6259 Y-2.1055
G1 X8.6305 Y-2.1153
G1 X8.6356 Y-2.1248
G1 X8.6411 Y-2.1326
G1 X8.6472 Y-2.1398
G1 X8.6543 Y-2.146
G1 X8.6621 Y-2.1516
G1 X8.6711 Y-2.1558
G1 X8.6757 Y-2.1576
G1 X8.6805 Y-2.159
G1 X8.6902 Y-2.1606
G1 X8.7002 Y-2.1612
G1 X8.71 Y-2.1605
G1 X8.7196 Y-2.1589
G1 X8.7289 Y-2.1557
G1 X8.7378 Y-2.1515
G1 X8.7458 Y-2.1459
G1 X8.7531 Y-2.1396
G1 X8.7594 Y-2.1323
G1 X8.765 Y-2.1243
G1 X8.7702 Y-2.1147
G1 X8.7746 Y-2.1049
G1 X8.7781 Y-2.0946
G1 X8.7809 Y-2.0842
G1 X8.7831 Y-2.0718
G1 X8.7847 Y-2.0593
G1 X8.7855 Y-2.0468
G1 X8.7858 Y-2.0342
G1 X8.7855 Y-2.021
G1 X8.7846 Y-2.0079
G1 X8.7827 Y-1.9949
G1 X8.7803 Y-1.982
G1 X8.7774 Y-1.9714
G1 X8.7739 Y-1.9611
G1 X8.7693 Y-1.9512
G1 X8.7641 Y-1.9415
G1 Z0.2
G0 X8.5603 Y-2.1581
G1 Z0. F10.
G1 Y-2.1719
G1 X8.486
G1 X8.4641 Y-2.1382
G1 X8.4413 Y-2.105
G1 X8.4201 Y-2.0756
G1 X8.3981 Y-2.0468
G1 X8.3698
G1 Y-2.1344
G1 X8.3703 Y-2.1405
G1 X8.372 Y-2.1463
G1 X8.3737 Y-2.149
G1 X8.3757 Y-2.1512
G1 X8.3783 Y-2.1529
G1 X8.3811 Y-2.1542
G1 X8.3872 Y-2.1558
G1 X8.3933 Y-2.1567
G1 X8.4081 Y-2.1581
G1 Y-2.1719
G1 X8.2914
G1 Y-2.1581
G1 X8.3049 Y-2.1567
G1 X8.3112 Y-2.1559
G1 X8.3173 Y-2.1542
G1 X8.3222 Y-2.1512
G1 X8.3257 Y-2.1468
G1 X8.3278 Y-2.1408
G1 X8.3284 Y-2.1344
G1 Y-1.9347
G1 X8.328 Y-1.9286
G1 X8.3264 Y-1.9227
G1 X8.3248 Y-1.92
G1 X8.3228 Y-1.9177
G1 X8.3202 Y-1.916
G1 X8.3173 Y-1.9147
G1 X8.311 Y-1.9128
G1 X8.3046 Y-1.9115
G1 X8.2914 Y-1.9096
G1 Y-1.8958
G1 X8.4189
G1 X8.4354 Y-1.8967
G1 X8.4517 Y-1.8994
G1 X8.4591 Y-1.9015
G1 X8.4661 Y-1.904
G1 X8.473 Y-1.9073
G1 X8.4796 Y-1.911
G1 X8.4852 Y-1.9153
G1 X8.4904 Y-1.92
G1 X8.4948 Y-1.9254
G1 X8.4988 Y-1.9313
G1 X8.502 Y-1.9386
G1 X8.5044 Y-1.946
G1 X8.5056 Y-1.9537
G1 X8.506 Y-1.9616
G1 X8.5057 Y-1.9688
G1 X8.5049 Y-1.9759
G1 X8.5033 Y-1.9829
G1 X8.5012 Y-1.9898
G1 X8.4984 Y-1.9957
G1 X8.4952 Y-2.0012
G1 X8.4912 Y-2.0063
G1 X8.4868 Y-2.011
G1 X8.4768 Y-2.019
G1 X8.4657 Y-2.0255
G1 X8.4525 Y-2.0313
G1 X8.4387 Y-2.0359
G1 X8.4726 Y-2.0814
G1 X8.5058 Y-2.1264
G1 X8.513 Y-2.1355
G1 X8.5213 Y-2.1436
G1 X8.528 Y-2.1485
G1 X8.535 Y-2.1527
G1 X8.5412 Y-2.1551
G1 X8.5477 Y-2.1566
G1 X8.554 Y-2.1575
G1 X8.5603 Y-2.1581
G1 Z0.2
G0 X8.4401 Y-2.0129
G1 Z0. F10.
G1 X8.448 Y-2.0026
G1 X8.4513 Y-1.9972
G1 X8.4539 Y-1.9915
G1 X8.4557 Y-1.9854
G1 X8.4568 Y-1.9792
G1 X8.458 Y-1.9662
G1 X8.4571 Y-1.9552
G1 X8.4562 Y-1.9499
G1 X8.4548 Y-1.9448
G1 X8.4527 Y-1.9399
G1 X8.45 Y-1.9353
G1 X8.4436 Y-1.9264
G1 X8.4345 Y-1.9198
G1 X8.4298 Y-1.9171
G1 X8.4248 Y-1.9149
G1 X8.4196 Y-1.9135
G1 X8.4141 Y-1.9126
G1 X8.4029 Y-1.9118
G1 X8.3698
G1 Y-2.0301
G1 X8.3953
G1 X8.4077 Y-2.0288
G1 X8.4137 Y-2.0277
G1 X8.4194 Y-2.026
G1 X8.4249 Y-2.0235
G1 X8.4301 Y-2.0203
G1 X8.4401 Y-2.0129
G1 Z0.2
G0 X8.1463 Y-1.9624
G1 Z0. F10.
G1 X8.1317
G1 X8.1285 Y-1.9539
G1 X8.1248 Y-1.9458
G1 X8.1201 Y-1.9382
G1 X8.1148 Y-1.9309
G1 X8.1098 Y-1.9248
G1 X8.1042 Y-1.9195
G1 X8.101 Y-1.9173
G1 X8.0976 Y-1.9156
G1 X8.0902 Y-1.9127
G1 X8.0758 Y-1.9116
G1 X8.0567 Y-1.9112
G1 X8.0133
G1 Y-2.0209
G1 X8.0445
G1 X8.0556 Y-2.0205
G1 X8.061 Y-2.0195
G1 X8.0664 Y-2.0181
G1 X8.0731 Y-2.0142
G1 X8.0785 Y-2.0087
G1 X8.0828 Y-2.0014
G1 X8.0858 Y-1.9936
G1 X8.0883 Y-1.9848
G1 X8.0898 Y-1.9758
G1 X8.1044
G1 Y-2.084
G1 X8.0898
G1 X8.0883 Y-2.074
G1 X8.0856 Y-2.0642
G1 X8.0827 Y-2.0564
G1 X8.0785 Y-2.0491
G1 X8.0756 Y-2.0459
G1 X8.0724 Y-2.0431
G1 X8.0688 Y-2.041
G1 X8.0648 Y-2.0392
G1 X8.0547 Y-2.0373
G1 X8.0445 Y-2.0369
G1 X8.0133
G1 Y-2.1196
G1 X8.0137 Y-2.1295
G1 X8.0151 Y-2.1393
G1 X8.0161 Y-2.1424
G1 X8.0175 Y-2.1453
G1 X8.0195 Y-2.1479
G1 X8.0219 Y-2.1501
G1 X8.0285 Y-2.1534
G1 X8.0357 Y-2.1549
G1 X8.0481 Y-2.1558
G1 X8.0606 Y-2.156
G1 X8.0776
G1 X8.0864 Y-2.1558
G1 X8.0953 Y-2.1552
G1 X8.103 Y-2.1541
G1 X8.1106 Y-2.1524
G1 X8.1165 Y-2.1503
G1 X8.1217 Y-2.1468
G1 X8.1271 Y-2.1402
G1 X8.1321 Y-2.1333
G1 X8.1405 Y-2.1185
G1 X8.1473 Y-2.1048
G1 X8.1531 Y-2.0906
G1 X8.1671
G1 X8.1618 Y-2.1719
G1 X7.9326
G1 Y-2.1581
G1 X7.9481 Y-2.1565
G1 X7.9546 Y-2.1555
G1 X7.9608 Y-2.1538
G1 X7.9658 Y-2.1507
G1 X7.9695 Y-2.1462
G1 X7.9714 Y-2.1405
G1 X7.9719 Y-2.1344
G1 Y-1.9359
G1 X7.9714 Y-1.9301
G1 X7.9698 Y-1.9245
G1 X7.9681 Y-1.9219
G1 X7.9661 Y-1.9197
G1 X7.9608 Y-1.9164
G1 X7.9539 Y-1.9138
G1 X7.9467 Y-1.912
G1 X7.9397 Y-1.9106
G1 X7.9326 Y-1.9096
G1 Y-1.8958
G1 X8.1463
G1 Y-1.9624
G1 Z0.2
G0 X8.2424 Y-2.3278
G1 Z0. F10.
G1 X8.3134 Y-2.3235
G1 X8.3161 Y-2.3264
G1 Y-2.4603
G1 X8.3169
G1 X8.3286 Y-2.4489
G1 X8.3353 Y-2.4434
G1 X8.3424 Y-2.4385
G1 X8.3509 Y-2.434
G1 X8.3599 Y-2.4307
G1 X8.371 Y-2.4283
G1 X8.3824 Y-2.4276
G1 X8.3936 Y-2.4286
G1 X8.3989 Y-2.4296
G1 X8.4041 Y-2.4312
G1 X8.4089 Y-2.4336
G1 X8.4134 Y-2.4366
G1 X8.4219 Y-2.4439
G1 X8.4283 Y-2.4546
G1 X8.431 Y-2.4602
G1 X8.433 Y-2.4659
G1 X8.4343 Y-2.4719
G1 X8.4351 Y-2.4781
G1 X8.4358 Y-2.4906
G1 Y-2.5905
G1 X8.4363 Y-2.5961
G1 X8.4382 Y-2.6015
G1 X8.4417 Y-2.6054
G1 X8.4464 Y-2.608
G1 X8.4545 Y-2.6106
G1 X8.464 Y-2.6119
G1 Y-2.6247
G1 X8.3696
G1 Y-2.6119
G1 X8.3796 Y-2.6111
G1 X8.3841 Y-2.6106
G1 X8.3885 Y-2.6095
G1 X8.3931 Y-2.6072
G1 X8.3966 Y-2.6034
G1 X8.3987 Y-2.5979
G1 X8.3992 Y-2.592
G1 Y-2.4934
G1 X8.3987 Y-2.4849
G1 X8.3972 Y-2.4767
G1 X8.3958 Y-2.4728
G1 X8.394 Y-2.4691
G1 X8.3896 Y-2.4619
G1 X8.3845 Y-2.4572
G1 X8.3819 Y-2.4553
G1 X8.3791 Y-2.4536
G1 X8.376 Y-2.4525
G1 X8.3728 Y-2.4517
G1 X8.3661 Y-2.4508
G1 X8.3565 Y-2.4515
G1 X8.3472 Y-2.454
G1 X8.3392 Y-2.4574
G1 X8.3317 Y-2.4619
G1 X8.3263 Y-2.4663
G1 X8.3216 Y-2.4716
G1 X8.3161 Y-2.4798
G1 Y-2.5901
G1 X8.3167 Y-2.5957
G1 X8.3187 Y-2.601
G1 X8.3222 Y-2.6049
G1 X8.3268 Y-2.6076
G1 X8.3312 Y-2.6093
G1 X8.3357 Y-2.6105
G1 X8.3457 Y-2.6119
G1 Y-2.6247
G1 X8.2517
G1 Y-2.6119
G1 X8.261 Y-2.611
G1 X8.2691 Y-2.6095
G1 X8.2737 Y-2.6072
G1 X8.2772 Y-2.6034
G1 X8.2794 Y-2.5979
G1 X8.2799 Y-2.592
G1 Y-2.3685
G1 X8.2791 Y-2.3617
G1 X8.2769 Y-2.3552
G1 X8.2737 Y-2.3497
G1 X8.269 Y-2.3453
G1 X8.2631 Y-2.3428
G1 X8.2567 Y-2.3417
G1 X8.2424 Y-2.3402
G1 Y-2.3278
G1 Z0.2
G0 X8.5083 Y-2.5962
G1 Z0. F10.
G1 X8.5028 Y-2.5886
G1 X8.4982 Y-2.5803
G1 X8.4943 Y-2.5717
G1 X8.491 Y-2.5614
G1 X8.4885 Y-2.551
G1 X8.4873 Y-2.5403
G1 X8.4868 Y-2.5296
G1 X8.4885 Y-2.5094
G1 X8.4902 Y-2.4996
G1 X8.4928 Y-2.4902
G1 X8.4966 Y-2.4812
G1 X8.5015 Y-2.4726
G1 X8.513 Y-2.456
G1 X8.5279 Y-2.4437
G1 X8.5358 Y-2.4384
G1 X8.5441 Y-2.4342
G1 X8.553 Y-2.4313
G1 X8.5623 Y-2.4294
G1 X8.5816 Y-2.4274
G1 X8.6002 Y-2.4294
G1 X8.6092 Y-2.4312
G1 X8.6178 Y-2.4339
G1 X8.6259 Y-2.4379
G1 X8.6335 Y-2.4429
G1 X8.6481 Y-2.4546
G1 X8.6597 Y-2.4707
G1 X8.6646 Y-2.4792
G1 X8.6685 Y-2.488
G1 X8.6711 Y-2.4973
G1 X8.6727 Y-2.5069
G1 X8.6743 Y-2.5268
G1 X8.6738 Y-2.537
G1 X8.6727 Y-2.547
G1 X8.6706 Y-2.5569
G1 X8.6679 Y-2.5666
G1 X8.6645 Y-2.5756
G1 X8.6604 Y-2.5841
G1 X8.6554 Y-2.5922
G1 X8.6496 Y-2.5998
G1 X8.6427 Y-2.6068
G1 X8.6354 Y-2.6132
G1 X8.6272 Y-2.6184
G1 X8.6184 Y-2.623
G1 X8.6088 Y-2.6263
G1 X8.599 Y-2.6288
G1 X8.5889 Y-2.63
G1 X8.5787 Y-2.6306
G1 X8.5698 Y-2.63
G1 X8.5609 Y-2.6288
G1 X8.5523 Y-2.6266
G1 X8.5438 Y-2.6236
G1 X8.5358 Y-2.6196
G1 X8.5281 Y-2.6151
G1 X8.5211 Y-2.6096
G1 X8.5144 Y-2.6035
G1 X8.5083 Y-2.5962
G1 Z0.2
G0 X8.6341 Y-2.5272
G1 Z0. F10.
G1 X8.6333 Y-2.5117
G1 X8.6311 Y-2.4964
G1 X8.6278 Y-2.4823
G1 X8.6253 Y-2.4755
G1 X8.6224 Y-2.4689
G1 X8.6191 Y-2.4633
G1 X8.6153 Y-2.4582
G1 X8.6109 Y-2.4537
G1 X8.606 Y-2.4495
G1 X8.6002 Y-2.4463
G1 X8.5942 Y-2.4439
G1 X8.5878 Y-2.4427
G1 X8.5812 Y-2.4422
G1 X8.5744 Y-2.4427
G1 X8.5678 Y-2.4439
G1 X8.5616 Y-2.4464
G1 X8.5556 Y-2.4496
G1 X8.5504 Y-2.4539
G1 X8.5457 Y-2.4586
G1 X8.5418 Y-2.464
G1 X8.5383 Y-2.4698
G1 X8.5354 Y-2.4763
G1 X8.5329 Y-2.483
G1 X8.531 Y-2.4899
G1 X8.5296 Y-2.4969
G1 X8.5277 Y-2.5115
G1 X8.527 Y-2.5263
G1 X8.5278 Y-2.5436
G1 X8.5301 Y-2.5608
G1 X8.5317 Y-2.5681
G1 X8.5338 Y-2.5753
G1 X8.5366 Y-2.5823
G1 X8.5397 Y-2.5891
G1 X8.5431 Y-2.5947
G1 X8.5469 Y-2.5999
G1 X8.5514 Y-2.6045
G1 X8.5564 Y-2.6087
G1 X8.5622 Y-2.6118
G1 X8.5682 Y-2.6142
G1 X8.5746 Y-2.6153
G1 X8.5812 Y-2.6158
G1 X8.5931 Y-2.6137
G1 X8.5987 Y-2.612
G1 X8.6038 Y-2.6094
G1 X8.6083 Y-2.606
G1 X8.6124 Y-2.6018
G1 X8.6198 Y-2.5922
G1 X8.6265 Y-2.5767
G1 X8.6292 Y-2.5688
G1 X8.6313 Y-2.5607
G1 X8.6326 Y-2.5525
G1 X8.6334 Y-2.5442
G1 X8.6341 Y-2.5272
G1 Z0.2
G0 X8.7249 Y-2.5647
G1 Z0. F10.
G1 Y-2.4729
G1 X8.7244 Y-2.4669
G1 X8.7223 Y-2.4612
G1 X8.7189 Y-2.4566
G1 X8.7146 Y-2.4529
G1 X8.7103 Y-2.4508
G1 X8.7057 Y-2.4495
G1 X8.6946 Y-2.448
G1 Y-2.4352
G1 X8.7586 Y-2.4305
G1 X8.7615 Y-2.4332
G1 Y-2.5665
G1 X8.7619 Y-2.575
G1 X8.7633 Y-2.5831
G1 X8.7647 Y-2.587
G1 X8.7665 Y-2.5907
G1 X8.7709 Y-2.5979
G1 X8.7756 Y-2.6022
G1 X8.7809 Y-2.6056
G1 X8.7868 Y-2.6075
G1 X8.7932 Y-2.6084
G1 X8.8029 Y-2.6076
G1 X8.8123 Y-2.6051
G1 X8.8196 Y-2.6017
G1 X8.8263 Y-2.5973
G1 X8.8311 Y-2.5932
G1 X8.8356 Y-2.5886
G1 X8.8388 Y-2.5846
G1 X8.8417 Y-2.5802
G1 Y-2.4716
G1 X8.841 Y-2.4657
G1 X8.8389 Y-2.4602
G1 X8.8356 Y-2.4555
G1 X8.8314 Y-2.4517
G1 X8.8263 Y-2.4497
G1 X8.8209 Y-2.4489
G1 X8.8055 Y-2.448
G1 Y-2.4352
G1 X8.8753 Y-2.4305
G1 X8.8783 Y-2.4332
G1 Y-2.5854
G1 X8.8789 Y-2.5913
G1 X8.881 Y-2.5967
G1 X8.8843 Y-2.6011
G1 X8.8886 Y-2.6047
G1 X8.8926 Y-2.6065
G1 X8.8969 Y-2.6075
G1 X8.9076 Y-2.6084
G1 Y-2.6212
G1 X8.845 Y-2.6255
G1 X8.842 Y-2.6228
G1 Y-2.5984
G1 X8.8409
G1 X8.8304 Y-2.6089
G1 X8.824 Y-2.6142
G1 X8.817 Y-2.6189
G1 X8.8088 Y-2.6233
G1 X8.8001 Y-2.6269
G1 X8.7887 Y-2.6291
G1 X8.777 Y-2.6296
G1 X8.7659 Y-2.6285
G1 X8.7606 Y-2.6275
G1 X8.7556 Y-2.6259
G1 X8.7509 Y-2.6234
G1 X8.7465 Y-2.6203
G1 X8.7382 Y-2.613
G1 X8.732 Y-2.6017
G1 X8.7294 Y-2.596
G1 X8.7275 Y-2.59
G1 X8.7263 Y-2.5839
G1 X8.7256 Y-2.5775
G1 X8.7249 Y-2.5647
G1 Z0.2
G0 X8.9578 Y-2.6046
G1 Z0. F10.
G1 X8.9563 Y-2.6004
G1 X8.9548 Y-2.5915
G1 X8.9543 Y-2.5823
G1 Y-2.4523
G1 X8.9197
G1 Y-2.4336
G1 X8.9551
G1 Y-2.3739
G1 X8.9905
G1 Y-2.4336
G1 X9.0456
G1 Y-2.4523
G1 X8.9909
G1 Y-2.5595
G1 X8.9911 Y-2.5696
G1 X8.9918 Y-2.5797
G1 X8.9932 Y-2.5869
G1 X8.996 Y-2.5938
G1 X9. Y-2.5988
G1 X9.0053 Y-2.6023
G1 X9.0135 Y-2.6047
G1 X9.022 Y-2.6053
G1 X9.0363 Y-2.6044
G1 X9.0431 Y-2.6036
G1 X9.0497 Y-2.6021
G1 Y-2.6163
G1 X9.0378 Y-2.621
G1 X9.0257 Y-2.6252
G1 X9.0189 Y-2.6268
G1 X9.0121 Y-2.6281
G1 X8.9981 Y-2.6288
G1 X8.9886 Y-2.6283
G1 X8.9841 Y-2.6277
G1 X8.9796 Y-2.6265
G1 X8.9755 Y-2.6248
G1 X8.9716 Y-2.6224
G1 X8.9642 Y-2.6166
G1 X8.9596 Y-2.6087
G1 X8.9578 Y-2.6046
G1 Z0.2
G0 X8.4636 Y-2.88
G1 Z0. F10.
G1 X8.4665 Y-2.9417
G1 X8.4531
G1 X8.4505 Y-2.9323
G1 X8.4489 Y-2.9278
G1 X8.4469 Y-2.9234
G1 X8.4445 Y-2.9193
G1 X8.4417 Y-2.9154
G1 X8.4355 Y-2.908
G1 X8.4281 Y-2.9024
G1 X8.4243 Y-2.9001
G1 X8.4203 Y-2.8982
G1 X8.4161 Y-2.8968
G1 X8.4117 Y-2.896
G1 X8.4025 Y-2.895
G1 X8.3957 Y-2.8954
G1 X8.3892 Y-2.8967
G1 X8.3831 Y-2.8994
G1 X8.3774 Y-2.903
G1 X8.3736 Y-2.9072
G1 X8.3706 Y-2.9117
G1 X8.369 Y-2.9169
G1 X8.3683 Y-2.9224
G1 X8.3689 Y-2.9299
G1 X8.3713 Y-2.937
G1 X8.3752 Y-2.9425
G1 X8.3803 Y-2.9469
G1 X8.3875 Y-2.951
G1 X8.395 Y-2.9542
G1 X8.4169 Y-2.9619
G1 X8.4292 Y-2.9663
G1 X8.4411 Y-2.9715
G1 X8.4509 Y-2.9768
G1 X8.4599 Y-2.9835
G1 X8.4669 Y-2.991
G1 X8.4697 Y-2.9952
G1 X8.4722 Y-2.9997
G1 X8.4741 Y-3.0051
G1 X8.4756 Y-3.0106
G1 X8.4762 Y-3.0163
G1 X8.4765 Y-3.022
G1 X8.4749 Y-3.0345
G1 X8.4736 Y-3.0405
G1 X8.4715 Y-3.0462
G1 X8.4686 Y-3.0514
G1 X8.465 Y-3.0563
G1 X8.4565 Y-3.0656
G1 X8.4447 Y-3.0731
G1 X8.4386 Y-3.0763
G1 X8.4322 Y-3.0788
G1 X8.4257 Y-3.0805
G1 X8.4188 Y-3.0815
G1 X8.4048 Y-3.0826
G1 X8.3969 Y-3.0821
G1 X8.3891 Y-3.0811
G1 X8.3815 Y-3.0791
G1 X8.374 Y-3.0765
G1 X8.3635 Y-3.0717
G1 X8.3539 Y-3.0654
G1 X8.35 Y-3.0781
G1 X8.3354
G1 X8.3334 Y-3.0113
G1 X8.3469
G1 X8.3496 Y-3.0204
G1 X8.3535 Y-3.0291
G1 X8.359 Y-3.0387
G1 X8.3657 Y-3.0475
G1 X8.3742 Y-3.0555
G1 X8.3839 Y-3.0619
G1 X8.3896 Y-3.0644
G1 X8.3955 Y-3.0664
G1 X8.4015 Y-3.0674
G1 X8.4078 Y-3.0678
G1 X8.4155 Y-3.0674
G1 X8.423 Y-3.0661
G1 X8.4265 Y-3.0648
G1 X8.4299 Y-3.0632
G1 X8.4366 Y-3.0593
G1 X8.4411 Y-3.054
G1 X8.443 Y-3.0512
G1 X8.4444 Y-3.0483
G1 X8.4454 Y-3.0451
G1 X8.4461 Y-3.0418
G1 X8.4467 Y-3.0349
G1 X8.4459 Y-3.0276
G1 X8.4435 Y-3.0208
G1 X8.4393 Y-3.015
G1 X8.434 Y-3.0104
G1 X8.4264 Y-3.0059
G1 X8.4183 Y-3.0023
G1 X8.3974 Y-2.9952
G1 X8.3872 Y-2.9917
G1 X8.3771 Y-2.9877
G1 X8.3672 Y-2.9828
G1 X8.358 Y-2.9765
G1 X8.3539 Y-2.9728
G1 X8.3501 Y-2.9689
G1 X8.3469 Y-2.9644
G1 X8.3439 Y-2.9598
G1 X8.3415 Y-2.9542
G1 X8.3397 Y-2.9485
G1 X8.3389 Y-2.9425
G1 X8.3385 Y-2.9364
G1 X8.3399 Y-2.9251
G1 X8.3411 Y-2.9197
G1 X8.3429 Y-2.9146
G1 X8.3455 Y-2.9098
G1 X8.3487 Y-2.9052
G1 X8.356 Y-2.8965
G1 X8.3666 Y-2.8893
G1 X8.3721 Y-2.8862
G1 X8.3778 Y-2.8838
G1 X8.3838 Y-2.8822
G1 X8.3901 Y-2.8812
G1 X8.4029 Y-2.8802
G1 X8.4145 Y-2.881
G1 X8.4259 Y-2.8831
G1 X8.4358 Y-2.886
G1 X8.4451 Y-2.8901
G1 X8.4496 Y-2.88
G1 X8.4636
G1 Z0.2
G0 X8.3095 Y-3.0647
G1 Z0. F10.
G1 Y-3.0775
G1 X8.2169
G1 Y-3.0647
G1 X8.2261 Y-3.0639
G1 X8.2303 Y-3.0633
G1 X8.2344 Y-3.0623
G1 X8.239 Y-3.06
G1 X8.2425 Y-3.0562
G1 X8.2446 Y-3.0507
G1 X8.2451 Y-3.0448
G1 Y-2.9265
G1 X8.2444 Y-2.9206
G1 X8.2423 Y-2.9151
G1 X8.2389 Y-2.9103
G1 X8.2344 Y-2.9065
G1 X8.2292 Y-2.904
G1 X8.2237 Y-2.9025
G1 X8.2173 Y-2.9012
G1 X8.2109 Y-2.9004
G1 Y-2.8876
G1 X8.2786 Y-2.8833
G1 X8.2813 Y-2.886
G1 Y-3.0425
G1 X8.2819 Y-3.0483
G1 X8.2839 Y-3.0538
G1 X8.2874 Y-3.0578
G1 X8.2921 Y-3.0604
G1 X8.3004 Y-3.0632
G1 X8.3049 Y-3.0641
G1 X8.3095 Y-3.0647
G1 Z0.2
G0 X8.1933 Y-3.0775
G1 Z0. F10.
G1 X8.099
G1 Y-3.0647
G1 X8.1089 Y-3.0639
G1 X8.1134 Y-3.0634
G1 X8.1178 Y-3.0623
G1 X8.1224 Y-3.06
G1 X8.1259 Y-3.0562
G1 X8.128 Y-3.0507
G1 X8.1285 Y-3.0448
G1 Y-2.9462
G1 X8.1281 Y-2.9377
G1 X8.1266 Y-2.9295
G1 X8.1252 Y-2.9256
G1 X8.1233 Y-2.9219
G1 X8.1189 Y-2.9146
G1 X8.1139 Y-2.91
G1 X8.1112 Y-2.908
G1 X8.1084 Y-2.9064
G1 X8.1054 Y-2.9052
G1 X8.1021 Y-2.9045
G1 X8.0954 Y-2.9035
G1 X8.0858 Y-2.9043
G1 X8.0766 Y-2.9068
G1 X8.0686 Y-2.9102
G1 X8.0611 Y-2.9146
G1 X8.0556 Y-2.9191
G1 X8.0509 Y-2.9244
G1 X8.0455 Y-2.9325
G1 Y-3.0429
G1 X8.046 Y-3.0485
G1 X8.0481 Y-3.0538
G1 X8.0516 Y-3.0577
G1 X8.0561 Y-3.0604
G1 X8.0605 Y-3.0621
G1 X8.065 Y-3.0633
G1 X8.075 Y-3.0647
G1 Y-3.0775
G1 X7.9811
G1 Y-3.0647
G1 X7.9903 Y-3.0638
G1 X7.9984 Y-3.0623
G1 X8.0031 Y-3.06
G1 X8.0066 Y-3.0562
G1 X8.0087 Y-3.0507
G1 X8.0093 Y-3.0448
G1 Y-2.8213
G1 X8.0085 Y-2.8145
G1 X8.0063 Y-2.808
G1 X8.003 Y-2.8025
G1 X7.9984 Y-2.7981
G1 X7.9924 Y-2.7956
G1 X7.986 Y-2.7945
G1 X7.9717 Y-2.793
G1 Y-2.7806
G1 X8.0427 Y-2.7763
G1 X8.0455 Y-2.7792
G1 Y-2.9131
G1 X8.0462
G1 X8.0579 Y-2.9017
G1 X8.0646 Y-2.8962
G1 X8.0718 Y-2.8913
G1 X8.0802 Y-2.8868
G1 X8.0892 Y-2.8835
G1 X8.1004 Y-2.8811
G1 X8.1117 Y-2.8804
G1 X8.1229 Y-2.8814
G1 X8.1283 Y-2.8824
G1 X8.1334 Y-2.884
G1 X8.1382 Y-2.8864
G1 X8.1427 Y-2.8894
G1 X8.1513 Y-2.8966
G1 X8.1577 Y-2.9074
G1 X8.1604 Y-2.913
G1 X8.1624 Y-2.9187
G1 X8.1637 Y-2.9247
G1 X8.1644 Y-2.9309
G1 X8.1651 Y-2.9434
G1 Y-3.0433
G1 X8.1656 Y-3.0489
G1 X8.1676 Y-3.0542
G1 X8.1711 Y-3.0582
G1 X8.1757 Y-3.0608
G1 X8.1838 Y-3.0634
G1 X8.1933 Y-3.0647
G1 Y-3.0775
G1 Z0.2
G0 X7.9655 Y-3.0691
G1 Z0. F10.
G1 X7.9536 Y-3.0738
G1 X7.9415 Y-3.078
G1 X7.9348 Y-3.0796
G1 X7.9279 Y-3.0808
G1 X7.9139 Y-3.0816
G1 X7.9044 Y-3.0811
G1 X7.8998 Y-3.0805
G1 X7.8954 Y-3.0793
G1 X7.8913 Y-3.0776
G1 X7.8874 Y-3.0752
G1 X7.88 Y-3.0694
G1 X7.8754 Y-3.0615
G1 X7.8735 Y-3.0574
G1 X7.8721 Y-3.0531
G1 X7.8706 Y-3.0443
G1 X7.8702 Y-3.0351
G1 Y-2.9051
G1 X7.8355
G1 Y-2.8864
G1 X7.8709
G1 Y-2.8267
G1 X7.9063
G1 Y-2.8864
G1 X7.9614
G1 Y-2.9051
G1 X7.9067
G1 Y-3.0123
G1 X7.9069 Y-3.0224
G1 X7.9076 Y-3.0325
G1 X7.909 Y-3.0397
G1 X7.9118 Y-3.0466
G1 X7.9157 Y-3.0516
G1 X7.9211 Y-3.0551
G1 X7.9293 Y-3.0575
G1 X7.9378 Y-3.058
G1 X7.9522 Y-3.0572
G1 X7.9589 Y-3.0564
G1 X7.9655 Y-3.0549
G1 Y-3.0691
G1 Z0.2
G0 X7.7322 Y-3.074
G1 Z0. F10.
G1 X7.6651 Y-3.0783
G1 X7.6621 Y-3.0756
G1 Y-3.0577
G1 X7.6606 Y-3.0573
G1 X7.655 Y-3.0627
G1 X7.649 Y-3.0677
G1 X7.6425 Y-3.072
G1 X7.6356 Y-3.0757
G1 X7.6282 Y-3.0788
G1 X7.6207 Y-3.0811
G1 X7.613 Y-3.0824
G1 X7.605 Y-3.0829
G1 X7.5969 Y-3.0824
G1 X7.5888 Y-3.0811
G1 X7.5811 Y-3.0787
G1 X7.5734 Y-3.0757
G1 X7.5661 Y-3.0715
G1 X7.5591 Y-3.0668
G1 X7.5528 Y-3.0612
G1 X7.5469 Y-3.0551
G1 X7.5413 Y-3.0476
G1 X7.5363 Y-3.0398
G1 X7.5323 Y-3.0315
G1 X7.5287 Y-3.0228
G1 X7.5258 Y-3.0126
G1 X7.5236 Y-3.0023
G1 X7.5225 Y-2.9918
G1 X7.522 Y-2.9812
G1 X7.5226 Y-2.9711
G1 X7.5238 Y-2.9611
G1 X7.5262 Y-2.9513
G1 X7.5292 Y-2.9417
G1 X7.5331 Y-2.9329
G1 X7.5376 Y-2.9244
G1 X7.543 Y-2.9165
G1 X7.5491 Y-2.909
G1 X7.5556 Y-2.9028
G1 X7.5625 Y-2.8971
G1 X7.5701 Y-2.8924
G1 X7.5781 Y-2.8882
G1 X7.5866 Y-2.8849
G1 X7.5952 Y-2.8824
G1 X7.6041 Y-2.881
G1 X7.6131 Y-2.8804
G1 X7.6265 Y-2.8812
G1 X7.6395 Y-2.8838
G1 X7.6509 Y-2.8874
G1 X7.6617 Y-2.8925
G1 Y-2.8256
G1 X7.6611 Y-2.818
G1 X7.659 Y-2.8107
G1 X7.6559 Y-2.805
G1 X7.6514 Y-2.8004
G1 X7.6444 Y-2.797
G1 X7.6367 Y-2.7951
G1 X7.6268 Y-2.7936
G1 X7.6168 Y-2.7926
G1 Y-2.7806
G1 X7.6954 Y-2.7763
G1 X7.6983 Y-2.7792
G1 Y-3.0378
G1 X7.6989 Y-3.0438
G1 X7.7009 Y-3.0494
G1 X7.7043 Y-3.0539
G1 X7.7086 Y-3.0575
G1 X7.7138 Y-3.0595
G1 X7.7193 Y-3.0604
G1 X7.7322 Y-3.0612
G1 Y-3.074
G1 Z0.2
G0 X7.6617 Y-3.0403
G1 Z0. F10.
G1 Y-2.9281
G1 X7.6596 Y-2.9225
G1 X7.6567 Y-2.9172
G1 X7.6527 Y-2.9115
G1 X7.648 Y-2.9065
G1 X7.6417 Y-2.9019
G1 X7.6348 Y-2.8984
G1 X7.6261 Y-2.8959
G1 X7.6171 Y-2.8952
G1 X7.6114 Y-2.8956
G1 X7.6059 Y-2.8967
G1 X7.6007 Y-2.8987
G1 X7.5956 Y-2.9012
G1 X7.5906 Y-2.9049
G1 X7.586 Y-2.9089
G1 X7.582 Y-2.9136
G1 X7.5782 Y-2.9185
G1 X7.5746 Y-2.9251
G1 X7.5714 Y-2.9319
G1 X7.5689 Y-2.939
G1 X7.5669 Y-2.9463
G1 X7.565 Y-2.9555
G1 X7.5637 Y-2.9648
G1 X7.563 Y-2.9741
G1 X7.5627 Y-2.9835
G1 X7.5634 Y-2.9984
G1 X7.5658 Y-3.0132
G1 X7.5677 Y-3.0197
G1 X7.57 Y-3.026
G1 X7.573 Y-3.0321
G1 X7.5763 Y-3.038
G1 X7.58 Y-3.0431
G1 X7.584 Y-3.0478
G1 X7.5886 Y-3.0518
G1 X7.5937 Y-3.0555
G1 X7.5996 Y-3.0584
G1 X7.6058 Y-3.0606
G1 X7.6122 Y-3.0617
G1 X7.6188 Y-3.0621
G1 X7.6256 Y-3.0617
G1 X7.6322 Y-3.0606
G1 X7.6385 Y-3.0584
G1 X7.6446 Y-3.0553
G1 X7.6537 Y-3.0484
G1 X7.6617 Y-3.0403
G1 Z0.2
G0 X7.503 Y-3.0615
G1 Z0. F10.
G1 Y-3.074
G1 X7.4869 Y-3.0794
G1 X7.4792 Y-3.0809
G1 X7.4713 Y-3.0814
G1 X7.4648 Y-3.081
G1 X7.4585 Y-3.0799
G1 X7.4526 Y-3.0775
G1 X7.447 Y-3.0743
G1 X7.4428 Y-3.0699
G1 X7.4393 Y-3.065
G1 X7.437 Y-3.0595
G1 X7.4354 Y-3.0536
G1 X7.4343
G1 X7.4281 Y-3.0598
G1 X7.4217 Y-3.0655
G1 X7.4146 Y-3.0705
G1 X7.4071 Y-3.075
G1 X7.3987 Y-3.0783
G1 X7.3901 Y-3.0807
G1 X7.3813 Y-3.0819
G1 X7.3722 Y-3.0824
G1 X7.3624 Y-3.0815
G1 X7.3577 Y-3.0806
G1 X7.3531 Y-3.0793
G1 X7.3488 Y-3.0773
G1 X7.3446 Y-3.0749
G1 X7.3367 Y-3.0691
G1 X7.3307 Y-3.0615
G1 X7.3281 Y-3.0575
G1 X7.3261 Y-3.0533
G1 X7.3246 Y-3.0489
G1 X7.3237 Y-3.0442
G1 X7.3228 Y-3.0345
G1 X7.3235 Y-3.0244
G1 X7.3259 Y-3.0146
G1 X7.3298 Y-3.0063
G1 X7.3352 Y-2.9989
G1 X7.3412 Y-2.9931
G1 X7.3481 Y-2.9885
G1 X7.3554 Y-2.9846
G1 X7.3631 Y-2.9812
G1 X7.3986 Y-2.9689
G1 X7.4169 Y-2.9626
G1 X7.4347 Y-2.9549
G1 Y-2.9357
G1 X7.4336 Y-2.9259
G1 X7.4319 Y-2.9189
G1 X7.429 Y-2.9123
G1 X7.4242 Y-2.9054
G1 X7.418 Y-2.8998
G1 X7.4133 Y-2.8973
G1 X7.4084 Y-2.8955
G1 X7.4032 Y-2.8946
G1 X7.3979 Y-2.8944
G1 X7.3894 Y-2.8951
G1 X7.3813 Y-2.8974
G1 X7.3755 Y-2.9
G1 X7.3705 Y-2.9037
G1 X7.3711 Y-2.9095
G1 X7.3723 Y-2.9152
G1 X7.3737 Y-2.9222
G1 X7.3742 Y-2.9292
G1 X7.3736 Y-2.9328
G1 X7.3724 Y-2.9361
G1 X7.3705 Y-2.939
G1 X7.368 Y-2.9417
G1 X7.3642 Y-2.9442
G1 X7.3601 Y-2.9461
G1 X7.3556 Y-2.947
G1 X7.351 Y-2.9473
G1 X7.3468 Y-2.9469
G1 X7.3429 Y-2.9458
G1 X7.3396 Y-2.9435
G1 X7.3367 Y-2.9404
G1 X7.3348 Y-2.9368
G1 X7.3333 Y-2.933
G1 X7.3325 Y-2.9291
G1 X7.3321 Y-2.9249
G1 X7.3327 Y-2.9203
G1 X7.3338 Y-2.9159
G1 X7.3359 Y-2.9117
G1 X7.3385 Y-2.9078
G1 X7.346 Y-2.8998
G1 X7.3549 Y-2.8932
G1 X7.3652 Y-2.8879
G1 X7.3761 Y-2.884
G1 X7.3881 Y-2.8812
G1 X7.4004 Y-2.8802
G1 X7.4147 Y-2.8807
G1 X7.4289 Y-2.8824
G1 X7.4348 Y-2.884
G1 X7.4406 Y-2.886
G1 X7.4459 Y-2.8888
G1 X7.451 Y-2.8921
G1 X7.4557 Y-2.8962
G1 X7.4599 Y-2.9008
G1 X7.4633 Y-2.906
G1 X7.4661 Y-2.9116
G1 X7.4685 Y-2.9194
G1 X7.4702 Y-2.9273
G1 X7.471 Y-2.9353
G1 X7.4713 Y-2.9434
G1 X7.4707 Y-2.9928
G1 X7.4701 Y-3.0398
G1 X7.4706 Y-3.046
G1 X7.4727 Y-3.0518
G1 X7.4763 Y-3.0561
G1 X7.4808 Y-3.0594
G1 X7.4853 Y-3.0609
G1 X7.49 Y-3.0614
G1 X7.503 Y-3.0615
G1 Z0.2
G0 X7.4339 Y-3.0385
G1 Z0. F10.
G1 X7.4351 Y-2.9713
G1 X7.4205 Y-2.9758
G1 X7.4061 Y-2.9808
G1 X7.3942 Y-2.986
G1 X7.3829 Y-2.9925
G1 X7.3785 Y-2.9959
G1 X7.3744 Y-2.9996
G1 X7.3708 Y-3.0037
G1 X7.3676 Y-3.0082
G1 X7.3651 Y-3.0133
G1 X7.3632 Y-3.0186
G1 X7.3623 Y-3.0241
G1 X7.3619 Y-3.0298
G1 X7.3623 Y-3.0364
G1 X7.3636 Y-3.0426
G1 X7.3648 Y-3.0455
G1 X7.3665 Y-3.0483
G1 X7.3704 Y-3.0536
G1 X7.3752 Y-3.0569
G1 X7.3804 Y-3.0594
G1 X7.386 Y-3.0606
G1 X7.3919 Y-3.0612
G1 X7.3983 Y-3.0607
G1 X7.4045 Y-3.0596
G1 X7.4104 Y-3.0573
G1 X7.4162 Y-3.0544
G1 X7.4257 Y-3.0472
G1 X7.4339 Y-3.0385
G1 Z0.2
G0 X7.2699 Y-2.9434
G1 Z0. F10.
G1 Y-3.0433
G1 X7.2704 Y-3.0489
G1 X7.2723 Y-3.0542
G1 X7.2758 Y-3.0582
G1 X7.2804 Y-3.0608
G1 X7.2886 Y-3.0634
G1 X7.2981 Y-3.0647
G1 Y-3.0775
G1 X7.2037
G1 Y-3.0647
G1 X7.2136 Y-3.0639
G1 X7.2181 Y-3.0634
G1 X7.2226 Y-3.0623
G1 X7.2272 Y-3.06
G1 X7.2307 Y-3.0562
G1 X7.2328 Y-3.0507
G1 X7.2333 Y-3.0448
G1 Y-2.9462
G1 X7.2328 Y-2.9377
G1 X7.2313 Y-2.9295
G1 X7.2299 Y-2.9256
G1 X7.2281 Y-2.9219
G1 X7.2236 Y-2.9146
G1 X7.2186 Y-2.91
G1 X7.2159 Y-2.908
G1 X7.2131 Y-2.9064
G1 X7.2101 Y-2.9052
G1 X7.2069 Y-2.9045
G1 X7.2001 Y-2.9035
G1 X7.1906 Y-2.9043
G1 X7.1813 Y-2.9068
G1 X7.1733 Y-2.9102
G1 X7.1658 Y-2.9146
G1 X7.1604 Y-2.9191
G1 X7.1557 Y-2.9244
G1 X7.1502 Y-2.9325
G1 Y-3.0429
G1 X7.1507 Y-3.0485
G1 X7.1528 Y-3.0538
G1 X7.1563 Y-3.0577
G1 X7.1609 Y-3.0604
G1 X7.1652 Y-3.0621
G1 X7.1698 Y-3.0633
G1 X7.1798 Y-3.0647
G1 Y-3.0775
G1 X7.0858
G1 Y-3.0647
G1 X7.0951 Y-3.0638
G1 X7.1032 Y-3.0623
G1 X7.1078 Y-3.06
G1 X7.1113 Y-3.0562
G1 X7.1134 Y-3.0507
G1 X7.114 Y-3.0448
G1 Y-2.8213
G1 X7.1132 Y-2.8145
G1 X7.111 Y-2.808
G1 X7.1077 Y-2.8025
G1 X7.1031 Y-2.7981
G1 X7.0972 Y-2.7956
G1 X7.0907 Y-2.7945
G1 X7.0765 Y-2.793
G1 Y-2.7806
G1 X7.1475 Y-2.7763
G1 X7.1502 Y-2.7792
G1 Y-2.9131
G1 X7.151
G1 X7.1627 Y-2.9017
G1 X7.1693 Y-2.8962
G1 X7.1765 Y-2.8913
G1 X7.185 Y-2.8868
G1 X7.1939 Y-2.8835
G1 X7.2051 Y-2.8811
G1 X7.2165 Y-2.8804
G1 X7.2276 Y-2.8814
G1 X7.233 Y-2.8824
G1 X7.2381 Y-2.884
G1 X7.243 Y-2.8864
G1 X7.2475 Y-2.8894
G1 X7.256 Y-2.8966
G1 X7.2624 Y-2.9074
G1 X7.2651 Y-2.913
G1 X7.2671 Y-2.9187
G1 X7.2684 Y-2.9247
G1 X7.2692 Y-2.9309
G1 X7.2699 Y-2.9434
G1 Z0.2
G0 X7.3297 Y-3.333
G1 Z0. F10.
G1 X7.3483 Y-3.335
G1 X7.3573 Y-3.3367
G1 X7.3659 Y-3.3395
G1 X7.3739 Y-3.3435
G1 X7.3816 Y-3.3485
G1 X7.3962 Y-3.3601
G1 X7.4078 Y-3.3763
G1 X7.4127 Y-3.3847
G1 X7.4165 Y-3.3936
G1 X7.4191 Y-3.4029
G1 X7.4207 Y-3.4125
G1 X7.4224 Y-3.4324
G1 X7.4219 Y-3.4425
G1 X7.4208 Y-3.4526
G1 X7.4187 Y-3.4624
G1 X7.416 Y-3.4722
G1 X7.4126 Y-3.4811
G1 X7.4085 Y-3.4897
G1 X7.4034 Y-3.4977
G1 X7.3977 Y-3.5054
G1 X7.3908 Y-3.5124
G1 X7.3834 Y-3.5188
G1 X7.3752 Y-3.524
G1 X7.3665 Y-3.5285
G1 X7.3569 Y-3.5318
G1 X7.347 Y-3.5344
G1 X7.337 Y-3.5356
G1 X7.3268 Y-3.5361
G1 X7.3178 Y-3.5356
G1 X7.309 Y-3.5344
G1 X7.3004 Y-3.5321
G1 X7.2919 Y-3.5292
G1 X7.2839 Y-3.5252
G1 X7.2762 Y-3.5207
G1 X7.2691 Y-3.5151
G1 X7.2625 Y-3.5091
G1 X7.2564 Y-3.5018
G1 X7.2509 Y-3.4942
G1 X7.2463 Y-3.4859
G1 X7.2423 Y-3.4773
G1 X7.2391 Y-3.467
G1 X7.2366 Y-3.4566
G1 X7.2354 Y-3.4459
G1 X7.2348 Y-3.4351
G1 X7.2366 Y-3.415
G1 X7.2382 Y-3.4052
G1 X7.2409 Y-3.3958
G1 X7.2447 Y-3.3868
G1 X7.2496 Y-3.3782
G1 X7.261 Y-3.3616
G1 X7.276 Y-3.3492
G1 X7.2839 Y-3.344
G1 X7.2922 Y-3.3398
G1 X7.3011 Y-3.3369
G1 X7.3104 Y-3.335
G1 X7.3297 Y-3.333
G1 Z0.2
G0 X7.3821 Y-3.4328
G1 Z0. F10.
G1 X7.3814 Y-3.4173
G1 X7.3792 Y-3.402
G1 X7.3759 Y-3.3879
G1 X7.3733 Y-3.3811
G1 X7.3704 Y-3.3744
G1 X7.3671 Y-3.3689
G1 X7.3634 Y-3.3638
G1 X7.3589 Y-3.3592
G1 X7.3541 Y-3.3551
G1 X7.3483 Y-3.3519
G1 X7.3423 Y-3.3494
G1 X7.3359 Y-3.3482
G1 X7.3293 Y-3.3478
G1 X7.3225 Y-3.3483
G1 X7.3159 Y-3.3495
G1 X7.3097 Y-3.3519
G1 X7.3037 Y-3.3552
G1 X7.2985 Y-3.3595
G1 X7.2938 Y-3.3642
G1 X7.2899 Y-3.3696
G1 X7.2864 Y-3.3754
G1 X7.2835 Y-3.3819
G1 X7.2809 Y-3.3886
G1 X7.2791 Y-3.3954
G1 X7.2776 Y-3.4024
G1 X7.2758 Y-3.4171
G1 X7.2751 Y-3.4318
G1 X7.2758 Y-3.4492
G1 X7.2781 Y-3.4664
G1 X7.2798 Y-3.4737
G1 X7.2819 Y-3.4809
G1 X7.2846 Y-3.4879
G1 X7.2878 Y-3.4947
G1 X7.2912 Y-3.5002
G1 X7.295 Y-3.5054
G1 X7.2995 Y-3.51
G1 X7.3044 Y-3.5142
G1 X7.3103 Y-3.5174
G1 X7.3163 Y-3.5197
G1 X7.3227 Y-3.5209
G1 X7.3293 Y-3.5213
G1 X7.3412 Y-3.5192
G1 X7.3468 Y-3.5175
G1 X7.3519 Y-3.515
G1 X7.3564 Y-3.5116
G1 X7.3605 Y-3.5074
G1 X7.3679 Y-3.4978
G1 X7.3746 Y-3.4823
G1 X7.3773 Y-3.4744
G1 X7.3794 Y-3.4663
G1 X7.3807 Y-3.4581
G1 X7.3815 Y-3.4497
G1 X7.3821 Y-3.4328
G1 Z0.2
G0 X7.473 Y-3.4702
G1 Z0. F10.
G1 Y-3.3785
G1 X7.4724 Y-3.3724
G1 X7.4704 Y-3.3667
G1 X7.467 Y-3.3621
G1 X7.4626 Y-3.3585
G1 X7.4584 Y-3.3563
G1 X7.4538 Y-3.3551
G1 X7.4426 Y-3.3536
G1 Y-3.3408
G1 X7.5067 Y-3.3361
G1 X7.5096 Y-3.3388
G1 Y-3.4721
G1 X7.51 Y-3.4806
G1 X7.5114 Y-3.4887
G1 X7.5128 Y-3.4925
G1 X7.5146 Y-3.4963
G1 X7.5189 Y-3.5034
G1 X7.5237 Y-3.5078
G1 X7.5289 Y-3.5112
G1 X7.5349 Y-3.5131
G1 X7.5413 Y-3.5139
G1 X7.551 Y-3.5132
G1 X7.5604 Y-3.5106
G1 X7.5677 Y-3.5073
G1 X7.5744 Y-3.5029
G1 X7.5792 Y-3.4988
G1 X7.5836 Y-3.4942
G1 X7.5869 Y-3.4901
G1 X7.5898 Y-3.4858
G1 Y-3.3771
G1 X7.5891 Y-3.3713
G1 X7.587 Y-3.3658
G1 X7.5837 Y-3.3611
G1 X7.5794 Y-3.3573
G1 X7.5744 Y-3.3552
G1 X7.569 Y-3.3545
G1 X7.5535 Y-3.3536
G1 Y-3.3408
G1 X7.6234 Y-3.3361
G1 X7.6263 Y-3.3388
G1 Y-3.491
G1 X7.6269 Y-3.4968
G1 X7.6291 Y-3.5023
G1 X7.6324 Y-3.5067
G1 X7.6367 Y-3.5102
G1 X7.6407 Y-3.5121
G1 X7.645 Y-3.5131
G1 X7.6557 Y-3.5139
G1 Y-3.5268
G1 X7.5931 Y-3.5311
G1 X7.5902 Y-3.5283
G1 Y-3.504
G1 X7.589
G1 X7.5785 Y-3.5144
G1 X7.5721 Y-3.5198
G1 X7.5651 Y-3.5244
G1 X7.5569 Y-3.5289
G1 X7.5482 Y-3.5324
G1 X7.5367 Y-3.5347
G1 X7.5251 Y-3.5351
G1 X7.514 Y-3.5341
G1 X7.5087 Y-3.5331
G1 X7.5037 Y-3.5314
G1 X7.499 Y-3.529
G1 X7.4946 Y-3.5259
G1 X7.4863 Y-3.5185
G1 X7.4801 Y-3.5073
G1 X7.4775 Y-3.5015
G1 X7.4756 Y-3.4956
G1 X7.4743 Y-3.4894
G1 X7.4736 Y-3.4831
G1 X7.473 Y-3.4702
G1 Z0.2
G0 X7.6947 Y-3.518
G1 Z0. F10.
G1 X7.6933 Y-3.5131
G1 X7.6927 Y-3.5079
G1 X7.6933 Y-3.5027
G1 X7.6947 Y-3.4977
G1 X7.6972 Y-3.4933
G1 X7.7006 Y-3.4891
G1 X7.7047 Y-3.4858
G1 X7.7091 Y-3.4832
G1 X7.7141 Y-3.4819
G1 X7.7193 Y-3.4813
G1 X7.7246 Y-3.4819
G1 X7.7295 Y-3.4832
G1 X7.734 Y-3.4858
G1 X7.7381 Y-3.4891
G1 X7.7414 Y-3.4933
G1 X7.744 Y-3.4977
G1 X7.7454 Y-3.5027
G1 X7.746 Y-3.5079
G1 X7.7454 Y-3.5131
G1 X7.744 Y-3.518
G1 X7.7414 Y-3.5224
G1 X7.7381 Y-3.5265
G1 X7.734 Y-3.5297
G1 X7.7295 Y-3.5322
G1 X7.7246 Y-3.5336
G1 X7.7193 Y-3.5342
G1 X7.7141 Y-3.5336
G1 X7.7092 Y-3.5322
G1 X7.7047 Y-3.5297
G1 X7.7006 Y-3.5265
G1 X7.6972 Y-3.5224
G1 X7.6947 Y-3.518
G1 Z0.2
G0 X7.227 Y-3.3505
G1 Z0. F10.
G1 X7.2191 Y-3.3532
G1 X7.2117 Y-3.3572
G1 X7.2072 Y-3.3605
G1 X7.2033 Y-3.3642
G1 X7.2002 Y-3.3686
G1 X7.1975 Y-3.3735
G1 X7.1767 Y-3.4223
G1 X7.1563 Y-3.4713
G1 X7.1429 Y-3.5039
G1 X7.129 Y-3.5363
G1 X7.1187 Y-3.5579
G1 X7.1071 Y-3.5788
G1 X7.0984 Y-3.5914
G1 X7.0883 Y-3.6029
G1 X7.0807 Y-3.6091
G1 X7.0721 Y-3.6139
G1 X7.0646 Y-3.616
G1 X7.057 Y-3.6167
G1 X7.0506 Y-3.6163
G1 X7.0444 Y-3.6152
G1 X7.0387 Y-3.6128
G1 X7.0331 Y-3.6095
G1 X7.0297 Y-3.606
G1 X7.0269 Y-3.6022
G1 X7.0253 Y-3.5978
G1 X7.0245 Y-3.5929
G1 X7.0248 Y-3.5886
G1 X7.0257 Y-3.5845
G1 X7.0275 Y-3.5807
G1 X7.0298 Y-3.5771
G1 X7.0327 Y-3.5745
G1 X7.0358 Y-3.5725
G1 X7.0394 Y-3.5714
G1 X7.0432 Y-3.571
G1 X7.0487 Y-3.5715
G1 X7.0539 Y-3.5733
G1 X7.0581 Y-3.5759
G1 X7.0619 Y-3.5793
G1 X7.0652 Y-3.5831
G1 X7.0681 Y-3.5872
G1 X7.0733 Y-3.5955
G1 X7.0803 Y-3.5896
G1 X7.0865 Y-3.5832
G1 X7.0918 Y-3.5758
G1 X7.0966 Y-3.5681
G1 X7.1073 Y-3.5492
G1 X7.1119 Y-3.5393
G1 X7.1161 Y-3.5293
G1 X7.0827 Y-3.4468
G1 X7.0513 Y-3.3715
G1 X7.0491 Y-3.3673
G1 X7.0463 Y-3.3635
G1 X7.0428 Y-3.3603
G1 X7.0389 Y-3.3576
G1 X7.0304 Y-3.3536
G1 X7.0214 Y-3.3513
G1 Y-3.3384
G1 X7.109
G1 Y-3.3521
G1 X7.1019 Y-3.3529
G1 X7.095 Y-3.3545
G1 X7.0901 Y-3.356
G1 X7.0882 Y-3.3575
G1 X7.0868 Y-3.3596
G1 X7.0877 Y-3.3635
G1 X7.0897 Y-3.3692
G1 X7.1008 Y-3.397
G1 X7.1122 Y-3.4247
G1 X7.1242 Y-3.4536
G1 X7.1357 Y-3.4827
G1 X7.1539 Y-3.4396
G1 X7.1647 Y-3.4134
G1 X7.175 Y-3.387
G1 X7.1789 Y-3.3768
G1 X7.1807 Y-3.3714
G1 X7.1815 Y-3.3657
G1 X7.1803 Y-3.3625
G1 X7.1784 Y-3.3598
G1 X7.1757 Y-3.3578
G1 X7.1726 Y-3.3562
G1 X7.1644 Y-3.3528
G1 X7.1558 Y-3.3509
G1 Y-3.3384
G1 X7.227
G1 Y-3.3505
G1 Z0.2
G0 X6.9328 Y-3.5303
G1 Z0. F10.
G1 X6.875
G1 X6.8424 Y-3.4832
G1 X6.8248 Y-3.4586
G1 X6.8064 Y-3.4345
G1 X6.7904 Y-3.4493
G1 Y-3.4949
G1 X6.7909 Y-3.5008
G1 X6.793 Y-3.5065
G1 X6.7964 Y-3.5105
G1 X6.8011 Y-3.5132
G1 X6.8056 Y-3.5148
G1 X6.8101 Y-3.5161
G1 X6.82 Y-3.5174
G1 Y-3.5303
G1 X6.726
G1 Y-3.5174
G1 X6.7353 Y-3.5166
G1 X6.7434 Y-3.5151
G1 X6.748 Y-3.5128
G1 X6.7515 Y-3.509
G1 X6.7537 Y-3.5035
G1 X6.7542 Y-3.4976
G1 Y-3.2744
G1 X6.7535 Y-3.2675
G1 X6.7512 Y-3.2609
G1 X6.7479 Y-3.2555
G1 X6.7433 Y-3.2513
G1 X6.7372 Y-3.2484
G1 X6.7306 Y-3.2472
G1 X6.7167 Y-3.2458
G1 Y-3.2334
G1 X6.7877 Y-3.2291
G1 X6.7904 Y-3.232
G1 Y-3.435
G1 X6.8232 Y-3.4024
G1 X6.8383 Y-3.3871
G1 X6.8529 Y-3.3714
G1 X6.8563 Y-3.3668
G1 X6.8576 Y-3.3646
G1 X6.8582 Y-3.3622
G1 X6.8571 Y-3.3593
G1 X6.8554 Y-3.3569
G1 X6.8528 Y-3.3554
G1 X6.8497 Y-3.3544
G1 X6.8417 Y-3.3523
G1 X6.8335 Y-3.3509
G1 Y-3.3384
G1 X6.9179
G1 Y-3.3505
G1 X6.9031 Y-3.3557
G1 X6.889 Y-3.3627
G1 X6.8791 Y-3.3688
G1 X6.8698 Y-3.3758
G1 X6.863 Y-3.382
G1 X6.8566 Y-3.3884
G1 X6.8326 Y-3.4113
G1 X6.8509 Y-3.4347
G1 X6.8685 Y-3.4585
G1 X6.8976 Y-3.4982
G1 X6.9045 Y-3.5065
G1 X6.9086 Y-3.51
G1 X6.913 Y-3.5132
G1 X6.9178 Y-3.5149
G1 X6.9227 Y-3.5163
G1 X6.9328 Y-3.5174
G1 Y-3.5303
G1 Z0.2
G0 X6.706
G1 Z0. F10.
G1 X6.6122
G1 Y-3.5174
G1 X6.622 Y-3.5167
G1 X6.6265 Y-3.5162
G1 X6.6309 Y-3.5151
G1 X6.6355 Y-3.5128
G1 X6.6389 Y-3.509
G1 X6.641 Y-3.5035
G1 X6.6416 Y-3.4976
G1 Y-3.3989
G1 X6.6411 Y-3.3904
G1 X6.6396 Y-3.3823
G1 X6.6382 Y-3.3784
G1 X6.6363 Y-3.3746
G1 X6.6319 Y-3.3674
G1 X6.6269 Y-3.3628
G1 X6.6243 Y-3.3608
G1 X6.6214 Y-3.3592
G1 X6.6184 Y-3.358
G1 X6.6152 Y-3.3573
G1 X6.6084 Y-3.3563
G1 X6.5988 Y-3.3571
G1 X6.5895 Y-3.3595
G1 X6.5816 Y-3.363
G1 X6.5743 Y-3.3674
G1 X6.5688 Y-3.3718
G1 X6.5641 Y-3.3771
G1 X6.5585 Y-3.3853
G1 Y-3.4956
G1 X6.5591 Y-3.5013
G1 X6.5612 Y-3.5065
G1 X6.5648 Y-3.5105
G1 X6.5694 Y-3.5132
G1 X6.5737 Y-3.5149
G1 X6.5782 Y-3.5161
G1 X6.5881 Y-3.5174
G1 Y-3.5303
G1 X6.4941
G1 Y-3.5174
G1 X6.5033 Y-3.5167
G1 X6.5075 Y-3.5161
G1 X6.5116 Y-3.5151
G1 X6.5162 Y-3.5128
G1 X6.5196 Y-3.509
G1 X6.5217 Y-3.5035
G1 X6.5223 Y-3.4976
G1 Y-3.3793
G1 X6.5216 Y-3.373
G1 X6.5194 Y-3.3671
G1 X6.5161 Y-3.3621
G1 X6.5116 Y-3.3581
G1 X6.5074 Y-3.356
G1 X6.5028 Y-3.3547
G1 X6.4919 Y-3.3532
G1 Y-3.3404
G1 X6.5557 Y-3.3361
G1 X6.5585 Y-3.3388
G1 Y-3.3659
G1 X6.5594
G1 X6.5711 Y-3.3547
G1 X6.5775 Y-3.3491
G1 X6.5844 Y-3.3441
G1 X6.5926 Y-3.3396
G1 X6.6015 Y-3.3363
G1 X6.6126 Y-3.3339
G1 X6.6239 Y-3.3332
G1 X6.6356 Y-3.3342
G1 X6.6412 Y-3.3352
G1 X6.6465 Y-3.3369
G1 X6.6515 Y-3.3394
G1 X6.6561 Y-3.3426
G1 X6.6648 Y-3.3504
G1 X6.6708 Y-3.361
G1 X6.6734 Y-3.3665
G1 X6.6753 Y-3.3721
G1 X6.6766 Y-3.378
G1 X6.6774 Y-3.384
G1 X6.6781 Y-3.3962
G1 Y-3.496
G1 X6.6786 Y-3.5017
G1 X6.6805 Y-3.507
G1 X6.6839 Y-3.511
G1 X6.6885 Y-3.5136
G1 X6.6965 Y-3.5163
G1 X6.706 Y-3.5174
G1 Y-3.5303
G1 Z0.2
G0 X6.475 Y-3.5268
G1 Z0. F10.
G1 X6.4589 Y-3.5321
G1 X6.4512 Y-3.5337
G1 X6.4433 Y-3.5342
G1 X6.4368 Y-3.5338
G1 X6.4306 Y-3.5327
G1 X6.4247 Y-3.5303
G1 X6.4191 Y-3.5271
G1 X6.4148 Y-3.5227
G1 X6.4113 Y-3.5178
G1 X6.4091 Y-3.5123
G1 X6.4075 Y-3.5064
G1 X6.4063
G1 X6.4002 Y-3.5126
G1 X6.3937 Y-3.5183
G1 X6.3867 Y-3.5233
G1 X6.3792 Y-3.5278
G1 X6.3707 Y-3.5311
G1 X6.3622 Y-3.5335
G1 X6.3533 Y-3.5347
G1 X6.3443 Y-3.5351
G1 X6.3344 Y-3.5342
G1 X6.3297 Y-3.5334
G1 X6.3252 Y-3.5321
G1 X6.3208 Y-3.5301
G1 X6.3167 Y-3.5277
G1 X6.3087 Y-3.5219
G1 X6.3027 Y-3.5143
G1 X6.3001 Y-3.5103
G1 X6.2981 Y-3.5061
G1 X6.2967 Y-3.5016
G1 X6.2958 Y-3.497
G1 X6.2948 Y-3.4873
G1 X6.2955 Y-3.4772
G1 X6.298 Y-3.4674
G1 X6.3019 Y-3.4591
G1 X6.3073 Y-3.4517
G1 X6.3132 Y-3.4459
G1 X6.3201 Y-3.4413
G1 X6.3275 Y-3.4373
G1 X6.3351 Y-3.434
G1 X6.3706 Y-3.4217
G1 X6.3889 Y-3.4153
G1 X6.4067 Y-3.4077
G1 Y-3.3884
G1 X6.4056 Y-3.3787
G1 X6.4039 Y-3.3717
G1 X6.4011 Y-3.3651
G1 X6.3963 Y-3.3582
G1 X6.3901 Y-3.3525
G1 X6.3854 Y-3.3501
G1 X6.3805 Y-3.3482
G1 X6.3753 Y-3.3474
G1 X6.3699 Y-3.3472
G1 X6.3615 Y-3.3479
G1 X6.3533 Y-3.3502
G1 X6.3476 Y-3.3528
G1 X6.3425 Y-3.3565
G1 X6.3431 Y-3.3623
G1 X6.3443 Y-3.368
G1 X6.3457 Y-3.375
G1 X6.3462 Y-3.382
G1 X6.3456 Y-3.3856
G1 X6.3445 Y-3.3889
G1 X6.3425 Y-3.3918
G1 X6.3401 Y-3.3945
G1 X6.3362 Y-3.397
G1 X6.3321 Y-3.3989
G1 X6.3277 Y-3.3998
G1 X6.323 Y-3.4001
G1 X6.3188 Y-3.3997
G1 X6.315 Y-3.3986
G1 X6.3117 Y-3.3963
G1 X6.3087 Y-3.3932
G1 X6.3068 Y-3.3896
G1 X6.3053 Y-3.3858
G1 X6.3045 Y-3.3818
